ncols        169
nrows        113
xllcorner    381000.000000000000
yllcorner    3074000.000000000000
cellsize     1000.000000000000
NODATA_value nan
0.0 0 0 0 0 0 0 0 0 0 0 0 0 0 0 0 0 0 0 0 0 0 0 0 0 0 0 0 0 0 0 0 0 0 0 0 0 0 0 0 0 0 0 0 0 0 0 0 0 0 0 0 0 0 0 0 0 0 0 0 0 0 0 0 0 0 0 0 0 0 0 0 0 0 0 0 0 0 0 0 0 0 0 0 0 0 0 0 0 0 0 0 0 0 0 0 0 0 0 0 0 0 0 0 0 0 0 0 0 0 0 0 0 0 0 0 0 0 0 0 0 0 0 0 0 0 0 0 0 0 0 0 0 0 0 0 0 0 0 0 0 0 0 0 0 0 0 0 0 0 0 0 0 0 0 0 0 0 0 0 0 0 0 0 0 0 0 0 0 
0 0 41.706798553466796875 65.16249847412109375 83.65470123291015625 62.507701873779296875 72.58390045166015625 74.0908966064453125 74.3363037109375 79.7949981689453125 70.99179840087890625 86.1298980712890625 79.5933990478515625 4.0742998123168945313 0 1.4982999563217163086 0 0 0 0 0 0 0 0 0.026300000026822090149 0 0 0 0 7.6841998100280761719 17.225999832153320313 39.72660064697265625 38.64009857177734375 5.39739990234375 3.1178998947143554688 4.3547000885009765625 4.3459000587463378906 19.039699554443359375 17.453800201416015625 15.7714996337890625 18.680500030517578125 9.3016996383666992188 9.5593004226684570313 0 19.188600540161132813 42.3114013671875 37.124298095703125 17.430999755859375 0.070100001990795135498 0.035000000149011611938 0.11389999836683273315 0.043800000101327896118 2.6461000442504882813 13.548700332641601563 0.017500000074505805969 0.33300000429153442383 35.257999420166015625 50.5738983154296875 37.05419921875 1.5458999872207641602 0.0087999999523162841797 0.35049998760223388672 0 0.070100001990795135498 0.51700001955032348633 0 0 0.087600000202655792236 0.25409999489784240723 0.71850001811981201172 10.978699684143066406 45.058200836181640625 35.494598388671875 21.090000152587890625 8.6129999160766601563 32.1475982666015625 23.902599334716796875 36.555500030517578125 36.16049957275390625 40.375 44.12509918212890625 41.505298614501953125 11.539500236511230469 6.0545001029968261719 26.958499908447265625 11.64459991455078125 32.112499237060546875 10.181400299072265625 0.070100001990795135498 5.6427001953125 1.3636000156402587891 17.480100631713867188 15.622500419616699219 0 0 0.043800000101327896118 0.59060001373291015625 0 0.035000000149011611938 0 0 0.22779999673366546631 0 0 0 0 0 1.1390999555587768555 0.3474000096321105957 0 0 0 0 0 0 0 0 0 0 0 0 0 0 0.78860002756118774414 0.28040000796318054199 1.1215000152587890625 0.19280000030994415283 0.026100000366568565369 0 0 0 0 0 0 0 0 0 0.043800000101327896118 0 0.017400000244379043579 0 0.92000001668930053711 14.921600341796875 1.4808000326156616211 0 0 0 0 0 0.62209999561309814453 1.6734999418258666992 16.753499984741210938 0 0.44690001010894775391 26.18939971923828125 8.9371995925903320313 9.804599761962890625 28.117099761962890625 15.346500396728515625 5.9580998420715332031 9.3928003311157226563 12.328000068664550781 5.9843997955322265625 1.6822999715805053711 0.72089999914169311523 0.45559999346733093262 1.4019000530242919922 0 0 
0 0 53.67259979248046875 69.8583984375 92.21050262451171875 83.61949920654296875 93.35399627685546875 80.38050079345703125 77.177001953125 94.79650115966796875 72.1139984130859375 86.42479705810546875 84.716796875 3.2123999595642089844 39.389400482177734375 53.83190155029296875 6.0788998603820800781 0 0 0 0 0 0 0 0 0 0.15929999947547912598 6.5310001373291015625 0 0.88499999046325683594 38.29199981689453125 48.026500701904296875 35.610599517822265625 4.0619001388549804688 29.5438995361328125 0.90270000696182250977 1.7167999744415283203 15.885000228881835938 43.371700286865234375 81 65.97350311279296875 19.657899856567382813 13.531000137329101563 31.805299758911132813 60.628299713134765625 89.035400390625 76.752197265625 78.07019805908203125 70.99120330810546875 52.8406982421875 1.8673000335693359375 0.141599997878074646 0 9.859600067138671875 11.938099861145019531 2.1858000755310058594 61.176998138427734375 70.893798828125 67.51329803466796875 10.605299949645996094 0.17700000107288360596 0.035399999469518661499 0.061900001019239425659 0.47789999842643737793 0.34509998559951782227 0.078900001943111419678 0.2301000058650970459 0.061900001019239425659 2.5044000148773193359 0.21240000426769256592 56.867298126220703125 91.35959625244140625 81.106201171875 89.25659942626953125 19.9822998046875 38.34510040283203125 30.513299942016601563 89.2017974853515625 97.681396484375 90.09729766845703125 98.58409881591796875 94.8583984375 33.132701873779296875 15.283200263977050781 62.035099029541015625 69.81420135498046875 85.07080078125 69.62830352783203125 26.778799057006835938 58.65489959716796875 12.973699569702148438 76.83190155029296875 54.407100677490234375 0 0 0.141599997878074646 1.2806999683380126953 1.7964999675750732422 1.0441999435424804688 0.01769999973475933075 0.035399999469518661499 0.01769999973475933075 0 0 0.0087999999523162841797 0 0 4.5928997993469238281 0.38600000739097595215 0.35400000214576721191 0.10620000213384628296 0.026499999687075614929 0.070799998939037322998 0 0 0 0 0 0 0 0 0 0.0087999999523162841797 0.29199999570846557617 0.90270000696182250977 2.3894000053405761719 0.47789999842643737793 0 0 0.16809999942779541016 0 2.1681001186370849609 0 0.5 0.044199999421834945679 0.0087999999523162841797 0 0.60180002450942993164 9.8407001495361328125 8.5438995361328125 18.566400527954101563 36.16809844970703125 54.16809844970703125 7.70800018310546875 0 0 0 0 0 0 0 32.3946990966796875 0 0.40709999203681945801 3.5397999286651611328 0.20350000262260437012 45.60179901123046875 33.22119903564453125 13 35.194698333740234375 45.061901092529296875 31.336299896240234375 15.867300033569335938 1.9558000564575195313 3.3157999515533447266 0.15929999947547912598 3.9468998908996582031 0.5928999781608581543 0 
0 0 64.1110992431640625 81.135498046875 93.73809814453125 95.9694976806640625 80.197998046875 93.2707977294921875 79.54090118408203125 86.7870025634765625 65.77210235595703125 93.1219024658203125 77.8936004638671875 52.17729949951171875 51.160999298095703125 93.16570281982421875 27.297199249267578125 14.448399543762207031 5.7916002273559570313 0 0 0 0 0 0 0 2.2606000900268554688 0 0 0 4.4072999954223632813 44.580699920654296875 48.436000823974609375 4.0654997825622558594 11.655400276184082031 3.6800000667572021484 29.317399978637695313 32.156299591064453125 37.212001800537109375 58.1529998779296875 50.1708984375 17.213800430297851563 8.8495998382568359375 78.91880035400390625 89.2841033935546875 92.21939849853515625 81.1179962158203125 77.21900177001953125 87.0673980712890625 89.3191986083984375 75.83460235595703125 40.93579864501953125 3.6098999977111816406 0.22579999268054962158 8.0609998703002929688 75.81710052490234375 65.828399658203125 77.30660247802734375 95.2947998046875 43.538299560546875 1.6471999883651733398 0.53450000286102294922 0.35049998760223388672 0 0 0 0.51700001955032348633 0.70969998836517333984 1.9889999628067016602 5.4499001502990722656 90.51080322265625 95.9875030517578125 92.14929962158203125 87.295196533203125 69.0791015625 11.08390045166015625 63.813201904296875 87.05919647216796875 98.49289703369140625 92.964202880859375 53.588001251220703125 82.651397705078125 48.278301239013671875 11.276599884033203125 1.7718000411987304688 0.0087999999523162841797 23.280500411987304688 61.68399810791015625 3.3120000362396240234 53.33390045166015625 2.4925999641418457031 58.0829010009765625 69.8238983154296875 2.1554000377655029297 7.07089996337890625 8.3676996231079101563 4.0124998092651367188 6.33489990234375 2.2430999279022216797 0.0087999999523162841797 2.041500091552734375 0.22779999673366546631 0 0 0.078900001943111419678 0 0 3.7325999736785888672 1.6936000585556030273 0 0 0 0 0.21899999678134918213 0 0.043800000101327896118 0 0 0 0 0 0 0.0087999999523162841797 0 0 0 0 0.22579999268054962158 0 1.6384999752044677734 0.10509999841451644897 4.2758002281188964844 0 0.19979999959468841553 1.9276000261306762695 2.2955999374389648438 0.0087999999523162841797 2.5934998989105224609 12.398099899291992188 34.097599029541015625 10.908599853515625 29.168500900268554688 34.741100311279296875 21.834699630737304688 0.3680000007152557373 0 0.16650000214576721191 0 3.1280000209808349609 1.2266999483108520508 6.0982999801635742188 48.063201904296875 0.6571000218391418457 3.5048000812530517578 0.4643999934196472168 0.29789999127388000488 40.6641998291015625 16.761600494384765625 16.319299697875976563 13.178000450134277344 39.779201507568359375 19.836999893188476563 38.38610076904296875 36.85269927978515625 7.46920013427734375 0.18400000035762786865 1.6822999715805053711 6.0282001495361328125 0 
0 0 83.22969818115234375 68.7548980712890625 86.04309844970703125 94.734100341796875 98.16880035400390625 91.70240020751953125 91.76380157470703125 86.90090179443359375 84.24530029296875 90.58969879150390625 83.518798828125 91.36949920654296875 92.7451019287109375 89.6345977783203125 35.435100555419921875 17.068300247192382813 64.19000244140625 54.367801666259765625 37.22949981689453125 4.0654997825622558594 0 0 0 6.6854000091552734375 0.017500000074505805969 0 0 0 0 15.797800064086914063 53.439098358154296875 16.376100540161132813 4.5162000656127929688 10.382900238037109375 70.77020263671875 91.22049713134765625 93.4723968505859375 95.8292999267578125 89.7310028076171875 41.184600830078125 44.738498687744140625 77.77970123291015625 77.52559661865234375 91.2906036376953125 92.1580963134765625 79.88539886474609375 69.534698486328125 69.86769866943359375 83.9217987060546875 87.6194000244140625 31.358999252319335938 0 2.2342998981475830078 68.72859954833984375 62.7967987060546875 49.469898223876953125 75.37020111083984375 86.82469940185546875 16.744100570678710938 2.9614999294281005859 0.95509999990463256836 0 0 0.22579999268054962158 0.91119998693466186523 0.7534999847412109375 0.77109998464584350586 0.27160000801086425781 77.0962982177734375 91.67099761962890625 83.64150238037109375 94.8217010498046875 56.803600311279296875 17.269800186157226563 83.24720001220703125 92.1486968994140625 95.7942962646484375 83.5276031494140625 34.609699249267578125 82.7039031982421875 21.063699722290039063 5.3010001182556152344 18.32550048828125 26.382200241088867188 19.416500091552734375 59.19570159912109375 1.9627000093460083008 42.416500091552734375 0.28659999370574951172 48.260799407958984375 93.16570281982421875 28.861799240112304688 76.807098388671875 65.70580291748046875 3.8561999797821044922 3.3821001052856445313 0 0.2890999913215637207 34.451900482177734375 18.22480010986328125 1.1812000274658203125 1.6648000478744506836 0.061299998313188552856 0 0 3.0229001045227050781 0.49500000476837158203 0 1.174100041389465332 0.043800000101327896118 0.17520000040531158447 0.017500000074505805969 0 0.052600000053644180298 0 0 0 0 0.026300000026822090149 0 0 0 0 0 0 0.017400000244379043579 0.11389999836683273315 0.38550001382827758789 3.3032999038696289063 2.0151998996734619141 3.7939000129699707031 2.7618999481201171875 2.0151998996734619141 8.9635000228881835938 0 0.087600000202655792236 0.061299998313188552856 0.14759999513626098633 18.145999908447265625 58.0829010009765625 65.25890350341796875 16.568799972534179688 0.096400000154972076416 0.017400000244379043579 0.0087999999523162841797 0 2.7774999141693115234 39.691600799560546875 29.930799484252929688 25.594900131225585938 15.166899681091308594 13.467100143432617188 0.40299999713897705078 0 0.85869997739791870117 0.2890999913215637207 3.5782999992370605469 2.1554000377655029297 0.85869997739791870117 0 0 0 0 4.0216999053955078125 3.7237999439239501953 4.9593000411987304688 0.50410002470016479492 
0 0 76.106201171875 98.65940093994140625 89.03070068359375 89.643402099609375 92.7801971435546875 86.5417022705078125 99.50060272216796875 85.20980072021484375 91.96630096435546875 82.76529693603515625 85.59539794921875 97.92340087890625 95.40869903564453125 92.552398681640625 5.2718000411987304688 0 16.998199462890625 89.77480316162109375 95.7241973876953125 33.199001312255859375 5.5757999420166015625 5.1345000267028808594 0 0 0.017500000074505805969 0 0 0 0 0.20149999856948852539 21.931100845336914063 34.092700958251953125 15.702599525451660156 8.6304998397827148438 61.797901153564453125 78.73480224609375 83.03690338134765625 94.252197265625 92.2631988525390625 67.28330230712890625 75.5366973876953125 54.420398712158203125 60.413600921630859375 78.93630218505859375 91.1154022216796875 95.71829986572265625 94.70780181884765625 75.67690277099609375 50.582698822021484375 87.51419830322265625 33.137699127197265625 0 0.026300000026822090149 45.12400054931640625 71.7689971923828125 74.35379791259765625 82.76529693603515625 63.861400604248046875 39.752899169921875 2.9440000057220458984 0.19280000030994415283 0.035000000149011611938 0.087600000202655792236 0 0 0.070100001990795135498 1.305500030517578125 0 51.467601776123046875 96.71700286865234375 85.95459747314453125 88.82849884033203125 28.134599685668945313 53.964801788330078125 68.00140380859375 93.99859619140625 93.93669891357421875 95.7592010498046875 81.512298583984375 81.8014984130859375 10.803500175476074219 30.798200607299804688 81.67449951171875 75.6067962646484375 16.849199295043945313 49.277099609375 3.8113999366760253906 32.182598114013671875 28.217800140380859375 21.484300613403320313 62.43759918212890625 77.81479644775390625 74.51149749755859375 43.3014984130859375 35.8694000244140625 6.4663000106811523438 0.26289999485015869141 11.101400375366210938 57.57469940185546875 45.045101165771484375 57.286800384521484375 67.6421966552734375 27.118200302124023438 0 0 1.691100001335144043 0.39079999923706054688 2.6110999584197998047 2.2342998981475830078 0.087600000202655792236 0.017500000074505805969 0 0.0087000001221895217896 0 0.078900001943111419678 0.0087999999523162841797 0 0.6571000218391418457 2.5671999454498291016 1.6936000585556030273 0 0 0.16650000214576721191 0 0.21899999678134918213 0 0 0 0.4731000065803527832 5.0117998123168945313 3.0229001045227050781 0 4.8102998733520507813 0.68339997529983520508 0.017500000074505805969 6.5977001190185546875 2.0239999294281005859 0 5.4674000740051269531 9.7783002853393554688 32.0074005126953125 39.79669952392578125 45.982700347900390625 16.605899810791015625 1.8224999904632568359 0 4.1093001365661621094 2.2079999446868896484 5.6339001655578613281 37.43270111083984375 64.60179901123046875 39.428699493408203125 19.600500106811523438 11.828599929809570313 0.140200003981590271 0 0.38209998607635498047 0.23659999668598175049 1.0339000225067138672 3.8640000820159912109 13.397000312805175781 6.4225001335144042969 0.55580002069473266602 0.35920000076293945313 10.847299575805664063 1.9714000225067138672 0.37799999117851257324 
0 0 88.18579864501953125 98.681396484375 84.877197265625 93.3363037109375 75.99120330810546875 85.6990966796875 92.99120330810546875 86.70800018310546875 71.81580352783203125 62.20349884033203125 77.61949920654296875 89.77880096435546875 93.93810272216796875 25.893800735473632813 1.0439000129699707031 0 1.2388999462127685547 44.54869842529296875 96.47789764404296875 74.177001953125 15.517499923706054688 15.371700286865234375 2.4070999622344970703 2.3273999691009521484 0.070799998939037322998 0 0 0 0 0.0087999999523162841797 0 2.0531001091003417969 36.464900970458984375 26 6.4779000282287597656 45.973499298095703125 78.99120330810546875 83.46900177001953125 85.60179901123046875 95.1053009033203125 92 95 96.716796875 94.61060333251953125 88.11499786376953125 90.58769989013671875 88.6636962890625 89.02649688720703125 66.15039825439453125 83.63719940185546875 38 0.03510000184178352356 0 6.8229999542236328125 27.752199172973632813 64.88500213623046875 95.0531005859375 74.2281036376953125 79.106201171875 37.973499298095703125 23.150400161743164063 1.5310000181198120117 0.40709999203681945801 0.5 0.061900001019239425659 0.20350000262260437012 0.097300000488758087158 0.0087999999523162841797 1.5310000181198120117 87.7631988525390625 79.30970001220703125 92.035400390625 58.663700103759765625 56.557498931884765625 76.29199981689453125 79.97370147705078125 72.55750274658203125 84.283203125 89.15039825439453125 84.36280059814453125 22.539800643920898438 7.6105999946594238281 94.18419647216796875 49.424800872802734375 59.026500701904296875 15.9822998046875 30.663700103759765625 68.964599609375 6.9825000762939453125 10.548700332641601563 67.84960174560546875 47.389400482177734375 41.575199127197265625 50.477901458740234375 69.63159942626953125 16.008800506591796875 0.68140000104904174805 31.194700241088867188 66.54869842529296875 18.398199081420898438 86.46489715576171875 79.318603515625 36.955799102783203125 0 0 0.71679997444152832031 0.6491000056266784668 39.58409881591796875 34.628299713134765625 18.407100677490234375 0 0.17700000107288360596 0 0.01769999973475933075 0.061900001019239425659 0 0.16809999942779541016 0 1.442499995231628418 2.0701999664306640625 8.5752000808715820313 1.6813999414443969727 0.31859999895095825195 0.2212000042200088501 1.1947000026702880859 0.0087999999523162841797 0.026499999687075614929 0 0 0 0.42480000853538513184 3.7718999385833740234 2.7344999313354492188 0.035399999469518661499 2.6814000606536865234 0 0 0.03510000184178352356 0.21240000426769256592 2.1858000755310058594 23.849599838256835938 21.30970001220703125 53.663700103759765625 87.85959625244140625 14.902700424194335938 19.805299758911132813 9.2655000686645507813 0.0087999999523162841797 0 0 0.41589999198913574219 0.24779999256134033203 1.0530999898910522461 7.645999908447265625 5.1680998802185058594 0.070799998939037322998 0.070200003683567047119 0.079599998891353607178 0 0 0.89380002021789550781 15.902700424194335938 1.8509000539779663086 1.5398000478744506836 7.2477998733520507813 3.4512999057769775391 0.054499998688697814941 
0 0 90.2566986083984375 97.15239715576171875 95.3881988525390625 78.77860260009765625 87.53179931640625 87.566802978515625 92.245697021484375 91.43959808349609375 66.64060211181640625 63.856998443603515625 96.61789703369140625 99.21140289306640625 89.6259002685546875 55.27030181884765625 3.7780001163482666016 0.035000000149011611938 8.332599639892578125 5.3359999656677246094 36.861499786376953125 20.616800308227539063 44.34600067138671875 4.5124001502990722656 1.7611000537872314453 3.5485999584197998047 1.9276000261306762695 0.42059999704360961914 0 0 0 0 0 0 0.96399998664855957031 28.213399887084960938 38.5261993408203125 24.463300704956054688 29.95709991455078125 75.55419921875 97.1085968017578125 92.61769866943359375 93.84909820556640625 58.231800079345703125 63.760601043701171875 81.7664031982421875 96.80190277099609375 96.30879974365234375 90.4844970703125 88.03119659423828125 81.38089752197265625 72.36479949951171875 45.693500518798828125 6.1838002204895019531 0 0 0.13140000402927398682 0.035000000149011611938 58.880199432373046875 87.42400360107421875 54.5167999267578125 80.32939910888671875 11.11009979248046875 2.9702999591827392578 0.23659999668598175049 0.29530000686645507813 0.16650000214576721191 0.28040000796318054199 0.10509999841451644897 0.69220000505447387695 0.68339997529983520508 23.8404998779296875 31.639400482177734375 82.2133026123046875 85.58660125732421875 27.7052001953125 73.43379974365234375 74.50060272216796875 94.11199951171875 97.196197509765625 96.65290069580078125 70.980499267578125 47.568599700927734375 1.4895000457763671875 73.44100189208984375 40.17350006103515625 72.35610198974609375 53.430301666259765625 5.3273000717163085938 3.8201999664306640625 0.94669997692108154297 39.367401123046875 93.55120086669921875 25.725099563598632813 1.7874000072479248047 47.095401763916015625 82.57769775390625 21.510599136352539063 0 13.440799713134765625 57.11029815673828125 61.175899505615234375 90.57669830322265625 59.055500030517578125 23.429399490356445313 26.093099594116210938 14.974200248718261719 0 0.51239997148513793945 66.16139984130859375 57.34690093994140625 50.898101806640625 1.3406000137329101563 4.6087999343872070313 1.2245999574661254883 15.385999679565429688 0 0.13140000402927398682 0 0.24529999494552612305 0 1.2941000461578369141 20.555500030517578125 0 0.16650000214576721191 0 0.3680000007152557373 0 0.76230001449584960938 6.9657001495361328125 0 0 2.8389000892639160156 12.671500205993652344 1.6822999715805053711 0.41179999709129333496 0.035000000149011611938 0.32420000433921813965 7.5177001953125 0 0 0.0087999999523162841797 33.5670013427734375 23.280500411987304688 13.773799896240234375 67.60469818115234375 11.469400405883789063 2.9702999591827392578 0 0.0087999999523162841797 0 0 0 0 0.096400000154972076416 0 20.774599075317382813 15.184399604797363281 6.756999969482421875 0.84990000724792480469 0.44690001010894775391 0.41179999709129333496 1.2530000209808349609 4.205699920654296875 1.632799983024597168 9.156200408935546875 2.5146999359130859375 6.4663000106811523438 1.6921999454498291016 
0 0 90.8701019287109375 85.56909942626953125 96.30879974365234375 90.615997314453125 75.0897979736328125 74.45020294189453125 89.3542022705078125 99.6056976318359375 56.392200469970703125 65.25890350341796875 83.553802490234375 94.00679779052734375 97.58170318603515625 93.9893035888671875 6.8351998329162597656 0 1.9538999795913696289 3.0053000450134277344 13.160400390625 8.4553003311157226563 54.438098907470703125 3.2945001125335693359 0 0.49070000648498535156 3.6273999214172363281 0 0 0 0 0 0 0 0 2.3745000362396240234 58.757598876953125 45.7899017333984375 46.035198211669921875 38.666400909423828125 61.850498199462890625 96.6822967529296875 74.485198974609375 70.55989837646484375 66.24030303955078125 97.783203125 95.40869903564453125 95.5446014404296875 88.12760162353515625 83.45749664306640625 85.44640350341796875 82.0467987060546875 71.35720062255859375 82.2216033935546875 43.748401641845703125 6.1420998573303222656 0 0.10509999841451644897 25.602399826049804688 89.9774017333984375 79.427001953125 96.7667999267578125 32.463001251220703125 5.5637998580932617188 0.140200003981590271 0.7555999755859375 0.21029999852180480957 0.28040000796318054199 0.078900001943111419678 3.2418999671936035156 0.94630002975463867188 0 0.052600000053644180298 24.699899673461914063 40.8218994140625 50.07450103759765625 79.33930206298828125 45.5792999267578125 63.92710113525390625 67.414398193359375 90.43199920654296875 62.393798828125 51.32740020751953125 0 38.257801055908203125 66.62580108642578125 60.282100677490234375 65.67949676513671875 12.941399574279785156 0 1.9628000259399414063 85.2886962890625 61.394901275634765625 0 4.1970000267028808594 68.2292022705078125 75.2041015625 9.7170000076293945313 0 0 1.9364000558853149414 41.49649810791015625 77.08879852294921875 92.28949737548828125 81.56490325927734375 6.9218997955322265625 1.4982999563217163086 0 2.6837000846862792969 48.84780120849609375 74.1873016357421875 30.421400070190429688 23.77989959716796875 66.275299072265625 52.44049835205078125 61.4824981689453125 0 1.0339000225067138672 1.305500030517578125 3.8903000354766845703 2.2430999279022216797 0.095499999821186065674 0 0 0.24529999494552612305 0.0087999999523162841797 0.89370000362396240234 0.026100000366568565369 4.004199981689453125 0 0.061299998313188552856 0 0 10.830300331115722656 13.221799850463867188 1.5157999992370605469 0 0 0.67470002174377441406 0 1.1915999650955200195 5.6339001655578613281 0.24529999494552612305 37.711399078369140625 24.060300827026367188 76.8022003173828125 41.47029876708984375 0.16650000214576721191 0 0.061299998313188552856 0 0 0 0 0 0 0 0 18.594800949096679688 33.3303985595703125 4.7227001190185546875 0.13140000402927398682 0.27160000801086425781 0.043800000101327896118 0.57319998741149902344 7.4126000404357910156 0.4731000065803527832 3.9340999126434326172 0 
0 0 94.182098388671875 86.82199859619140625 96.06569671630859375 82.9055023193359375 88.59200286865234375 69.03530120849609375 78.78730010986328125 92.4998016357421875 69.3069000244140625 94.69899749755859375 78.52449798583984375 74.85320281982421875 90.4844970703125 86.58550262451171875 21.026599884033203125 0 0 6.6677999496459960938 1.2617000341415405273 37.623798370361328125 44.54579925537109375 6.5100998878479003906 0 0 1.9189000129699707031 0.26289999485015869141 1.8411999940872192383 0 0 0 0 0 4.7333998680114746094 0.41179999709129333496 20.83589935302734375 76.84220123291015625 36.344501495361328125 14.982899665832519531 6.9569997787475585938 45.084201812744140625 25.435899734497070313 29.895700454711914063 31.113599777221679688 77.946197509765625 83.82550048828125 90.15979766845703125 84.28980255126953125 88.3291015625 82.93170166015625 69.49970245361328125 83.81670379638671875 98.93170166015625 97.84459686279296875 37.334598541259765625 0 0.10509999841451644897 14.106699943542480469 90.4290008544921875 69.8238983154296875 92.7100982666015625 51.54650115966796875 0.35049998760223388672 1.7173000574111938477 0.37349998950958251953 1.1915999650955200195 0.052600000053644180298 0 0.73600000143051147461 0 0.026100000366568565369 0 17.874399185180664063 87.51419830322265625 49.198299407958984375 55.979999542236328125 41.43650054931640625 16.454900741577148438 67.03759765625 51.283599853515625 51.79180145263671875 17.839300155639648438 0 0.086900003254413604736 17.278499603271484375 62.507701873779296875 62.262298583984375 7.2548999786376953125 1.7962000370025634766 0.060800001025199890137 47.568599700927734375 76.07109832763671875 6.010700225830078125 0 39.288501739501953125 81.4051971435546875 0 0 0 0.21899999678134918213 20.853399276733398438 75.80339813232421875 79.847503662109375 72.610198974609375 10.558099746704101563 0 0 23.745000839233398438 11.092599868774414063 51.01200103759765625 71.42729949951171875 86.2350006103515625 67.5720977783203125 45.058200836181640625 56.829898834228515625 0.56950002908706665039 26.872900009155273438 48.84780120849609375 49.110698699951171875 31.148700714111328125 1.1117000579833984375 0 0.0087999999523162841797 0.17520000040531158447 0 0.096400000154972076416 42.88690185546875 48.190700531005859375 0.27160000801086425781 1.305500030517578125 0.026300000026822090149 0 0 0.32420000433921813965 0.096400000154972076416 2.6461000442504882813 0.052600000053644180298 0.27160000801086425781 0 1.2441999912261962891 4.004199981689453125 0 3.1017000675201416016 14.614899635314941406 34.19319915771484375 25.059099197387695313 0 0 0 0 0 0 0 0 0 0 0.14900000393390655518 4.3425002098083496094 15.648799896240234375 31.656900405883789063 0.017500000074505805969 1.5595999956130981445 0.035000000149011611938 0 8.0784997940063476563 11.039999961853027344 1.2704999446868896484 1.1160999536514282227 
0 0 78.57520294189453125 90.7344970703125 69 86.20349884033203125 89.92040252685546875 73.43360137939453125 79.8760986328125 62.1239013671875 58.47370147705078125 63.716800689697265625 85.60179901123046875 76.247802734375 71.21240234375 78.2301025390625 51.210498809814453125 0 0 1.0707999467849731445 4.4689998626708984375 32.18579864501953125 15.561400413513183594 59.575199127197265625 0.070799998939037322998 7.4689998626708984375 5.8053002357482910156 1.2742999792098999023 2.2632000446319580078 0.40709999203681945801 11.044199943542480469 0 0 0 0.20180000364780426025 2.2388999462127685547 12.531000137329101563 54.22119903564453125 31.72570037841796875 9.2655000686645507813 38.72570037841796875 18.947399139404296875 7.645999908447265625 20.32740020751953125 26.699100494384765625 72.9114990234375 75.92919921875 91.6139984130859375 90.76110076904296875 84.318603515625 81.27429962158203125 74.74340057373046875 80.8760986328125 98.6667022705078125 98.0885009765625 24.106199264526367188 0 1.7611000537872314453 44.424800872802734375 64.0175018310546875 66.9114990234375 70.60179901123046875 78.752197265625 19.840700149536132813 6.8937997817993164063 8.4561004638671875 3.0973000526428222656 3.8761000633239746094 0.49559998512268066406 1.0885000228881835938 0 0 0 19.354000091552734375 67.53980255126953125 53.079601287841796875 70.34510040283203125 27.157899856567382813 40.354000091552734375 45.43360137939453125 82.1239013671875 77.2301025390625 0.92919999361038208008 0 0 0 21.477899551391601563 74.92919921875 21 0.16809999942779541016 0 21.300899505615234375 78.76110076904296875 25.778799057006835938 0.01769999973475933075 72.48670196533203125 70.7368011474609375 0 0 0 0.141599997878074646 24.858400344848632813 91.5789031982421875 85.283203125 72.035400390625 11.929200172424316406 0.30090001225471496582 10.283200263977050781 31.71929931640625 43.407100677490234375 60.477901458740234375 85.21240234375 51.72570037841796875 17.468999862670898438 77.31580352783203125 45.23889923095703125 35.955799102783203125 91.83190155029296875 66.63719940185546875 66.964599609375 84.61060333251953125 5.08769989013671875 0.44249999523162841797 0.43360000848770141602 0.044199999421834945679 0.20350000262260437012 2.3805000782012939453 64.02629852294921875 29.663700103759765625 0 0 0.053100001066923141479 0.46900001168251037598 0 0.026499999687075614929 0.25659999251365661621 2.1681001186370849609 0 0.01769999973475933075 0.03510000184178352356 0 0 0 0 1.0264999866485595703 25.552600860595703125 14.389399528503417969 0.0087999999523162841797 0.29199999570846557617 0.75220000743865966797 0.20350000262260437012 0.33329999446868896484 0 0 0.044199999421834945679 0 0 0.0087999999523162841797 0 48.74340057373046875 67.45130157470703125 5.2123999595642089844 0.01769999973475933075 9.9469003677368164063 0.20180000364780426025 3.4335999488830566406 6.8407001495361328125 14.026499748229980469 4.3635997772216796875 
0 0 84.09709930419921875 67.59839630126953125 77.9051971435546875 88.18890380859375 69.81510162353515625 80.10160064697265625 64.750701904296875 84.78929901123046875 65.97190093994140625 68.5446014404296875 54.4553985595703125 81.266998291015625 85.83190155029296875 56.821201324462890625 0 0 0 0 0.28040000796318054199 14.360799789428710938 18.203899383544921875 52.948398590087890625 9.4891996383666992188 2.4621000289916992188 0 0 1.2419999837875366211 0.79729998111724853516 20.397800445556640625 26.899200439453125 0.14900000393390655518 0 0 1.5157999992370605469 37.69390106201171875 51.537700653076171875 56.9087982177734375 20.949800491333007813 72.81169891357421875 56.8003997802734375 4.573699951171875 9.5155000686645507813 26.391000747680664063 12.187899589538574219 55.2089996337890625 43.3907012939453125 84.56150054931640625 92.657501220703125 81.2494964599609375 84.2985992431640625 73.92449951171875 95.22319793701171875 92.72760009765625 47.629901885986328125 40.629100799560546875 26.81150054931640625 79.47080230712890625 89.16100311279296875 92.4384002685546875 85.34999847412109375 70.59490203857421875 74.897003173828125 46.14910125732421875 43.712001800537109375 16.279699325561523438 5.5374999046325683594 3.6800000667572021484 1.2266999483108520508 0.13140000402927398682 0 0 0.043800000101327896118 3.4960000514984130859 74.02089691162109375 56.987598419189453125 21.547700881958007813 11.741000175476074219 51.178501129150390625 71.66390228271484375 43.49430084228515625 2.7162001132965087891 0 0.052099999040365219116 0 39.9720001220703125 54.481700897216796875 51.25730133056640625 2.8826999664306640625 0.0087000001221895217896 33.120098114013671875 77.4029998779296875 30.57920074462890625 1.2530000209808349609 48.409698486328125 46.743099212646484375 0.140200003981590271 0 0 14.34329986572265625 72.3209991455078125 73.40630340576171875 91.4833984375 50.54759979248046875 0.140200003981590271 21.642000198364257813 20.082399368286132813 41.905498504638671875 28.520099639892578125 4.8190999031066894531 62.52519989013671875 16.446199417114257813 47.51599884033203125 20.627099990844726563 13.773799896240234375 56.050098419189453125 94.5063018798828125 46.60469818115234375 57.4608001708984375 73.67040252685546875 3.5522000789642333984 3.3382999897003173828 1.9364000558853149414 0.42930001020431518555 0.69220000505447387695 0.10509999841451644897 3.9082999229431152344 0.70099997520446777344 0 0.0087999999523162841797 0 0.84990000724792480469 0 0.56950002908706665039 0.10509999841451644897 0 1.2879999876022338867 0.29789999127388000488 0 0 0 0 0 0.061299998313188552856 3.2743000984191894531 3.3032999038696289063 0 0 0.37680000066757202148 0.59579998254776000977 0.12160000205039978027 0.30669999122619628906 0.140200003981590271 0.017500000074505805969 0 0 0 6.3575000762939453125 14.798899650573730469 16.305999755859375 7.0096001625061035156 2.2255001068115234375 25.041599273681640625 39.438899993896484375 0.19280000030994415283 0 1.6210000514984130859 1.7461999654769897461 
0 0 75.66809844970703125 87.400299072265625 89.7516021728515625 91.518402099609375 84.79799652099609375 80.8990020751953125 77.56939697265625 93.22699737548828125 76.88899993896484375 84.386199951171875 56.2165985107421875 74.99340057373046875 90.475799560546875 40.95330047607421875 0 0 0 0 0.55199998617172241211 40.77809906005859375 50.764301300048828125 60.395999908447265625 6.5275998115539550781 0 0.39430001378059387207 0 3.3176999092102050781 0 1.2704999446868896484 11.97760009765625 5.966899871826171875 0 0 0 1.5858999490737915039 12.310500144958496094 83.16829681396484375 90.68609619140625 77.84110260009765625 57.651599884033203125 38.48239898681640625 18.680500030517578125 1.7348999977111816406 6.212200164794921875 43.844699859619140625 0.3386999964714050293 8.2274999618530273438 78.322998046875 92.412200927734375 93.29709625244140625 83.02809906005859375 90.22930145263671875 97.41519927978515625 79.55840301513671875 80.60109710693359375 80.69750213623046875 76.82469940185546875 97.420501708984375 97.11730194091796875 85.48149871826171875 99.74590301513671875 99.87729644775390625 96.61789703369140625 74.7176971435546875 80.32070159912109375 78.45439910888671875 10.70709991455078125 0.32420000433921813965 1.1303000450134277344 0.034699998795986175537 10.181400299072265625 43.63449859619140625 32.88359832763671875 64.08480072021484375 25.900299072265625 23.22389984130859375 20.739500045776367188 21.887300491333007813 33.43560028076171875 67.33550262451171875 27.109399795532226563 0 0 0 49.7239990234375 47.586101531982421875 78.1038970947265625 23.613399505615234375 0.0087000001221895217896 0 49.347198486328125 76.0186004638671875 10.908599853515625 57.74990081787109375 25.872900009155273438 0.10509999841451644897 0.0087999999523162841797 0 37.69390106201171875 75.89589691162109375 80.40650177001953125 75.47530364990234375 24.568500518798828125 0.20149999856948852539 38.48239898681640625 20.818399429321289063 57.703701019287109375 38.824100494384765625 13.721199989318847656 22.369199752807617188 26.066799163818359375 73.75800323486328125 0.76429998874664306641 46.385700225830078125 62.016998291015625 77.83229827880859375 39.779201507568359375 52.15110015869140625 76.30770111083984375 7.486499786376953125 11.4430999755859375 14.430899620056152344 6.5275998115539550781 0.92879998683929443359 2.1905000209808349609 2.336299896240234375 0 0.17520000040531158447 0.12269999831914901733 0 0 1.6849000453948974609 1.1653000116348266602 1.4808000326156616211 0 0 0.20149999856948852539 5.3934001922607421875 0 0 0.0087999999523162841797 0.026300000026822090149 0 2.3276000022888183594 0.017500000074505805969 0 0.0087999999523162841797 0.31540000438690185547 0.9375 0.24320000410079956055 0.078900001943111419678 0.39430001378059387207 0.10509999841451644897 0.026300000026822090149 0.026300000026822090149 0.35920000076293945313 6.756999969482421875 2.330699920654296875 0 0 0.070100001990795135498 3.9428999423980712891 21.695299148559570313 9.0159997940063476563 0.11389999836683273315 0.052600000053644180298 0 
0 0.43709999322891235352 89.15270233154296875 64.4878997802734375 82.308502197265625 72.575103759765625 86.31390380859375 65.6707000732421875 75.02850341796875 86.4102020263671875 60.1614990234375 76.561798095703125 75.238800048828125 79.53209686279296875 57.90760040283203125 0 0 0 0 0 4.740200042724609375 42.02230072021484375 42.05319976806640625 4.3547000885009765625 0 0 2.4094998836517333984 0 28.990800857543945313 21.107500076293945313 0 7.8681998252868652344 1.5595999956130981445 0.052600000053644180298 0.026100000366568565369 0 0 0 70.2969970703125 91.3256988525390625 78.24410247802734375 92.42659759521484375 79.12909698486328125 80.1804962158203125 13.414500236511230469 2.2869000434875488281 5.4060997962951660156 6.4616999626159667969 13.992799758911132813 70.77020263671875 89.74849700927734375 86.0684967041015625 86.3751983642578125 85.54799652099609375 75.1072998046875 87.12000274658203125 94.23459625244140625 73.5301971435546875 92.47350311279296875 90.87200164794921875 84.48259735107421875 86.08599853515625 81.44219970703125 94.83049774169921875 99.36910247802734375 96.7864990234375 79.8650970458984375 98.3177032470703125 62.183498382568359375 6.6677999496459960938 6.702899932861328125 55.21099853515625 84.25479888916015625 65.79340362548828125 34.916301727294921875 18.768100738525390625 63.611698150634765625 80.38909912109375 70.4810028076171875 51.607799530029296875 65.75830078125 71.72519683837890625 66.1175994873046875 7.47389984130859375 0 6.8868999481201171875 40.523998260498046875 63.611698150634765625 91.29940032958984375 10.926099777221679688 0.0087000001221895217896 0.087600000202655792236 2.4883999824523925781 34.478199005126953125 69.9203033447265625 86.19989776611328125 13.661600112915039063 5.8091998100280761719 0.061299998313188552856 0 50.03070068359375 84.72789764404296875 59.73600006103515625 73.43379974365234375 25.462200164794921875 0.17520000040531158447 62.183498382568359375 75.81710052490234375 82.308502197265625 60.930500030517578125 40.926998138427734375 1.323099970817565918 17.550199508666992188 10.794699668884277344 1.9802000522613525391 50.293498992919921875 74.83570098876953125 37.869098663330078125 38.421100616455078125 79.82129669189453125 54.89350128173828125 13.574799537658691406 64.5229034423828125 86.27880096435546875 32.690799713134765625 1.6822999715805053711 5.84420013427734375 1.6153999567031860352 5.073200225830078125 0.73600000143051147461 0.61330002546310424805 0.16650000214576721191 0.052600000053644180298 0 0.026300000026822090149 0 0 0 0 0.017400000244379043579 0.096400000154972076416 0 3.6800000667572021484 1.9012999534606933594 0 1.563300013542175293 2.1816999912261962891 0 0.17520000040531158447 0 0.087600000202655792236 0.0087000001221895217896 0.12269999831914901733 0.017500000074505805969 0 0 0 10.41790008544921875 33.12490081787109375 0.84990000724792480469 0 0 0 0.20149999856948852539 0.90319997072219848633 7.8069000244140625 0 0.052600000053644180298 0 
0 1.4414000511169433594 72.2301025390625 78.81420135498046875 91.24559783935546875 80.84960174560546875 53.407100677490234375 77.53980255126953125 74.0177001953125 71.8052978515625 9.859600067138671875 1.6195000410079956055 5.5752000808715820313 11.699099540710449219 23.699100494384765625 0 0 0 0 0 1.8319000005722045898 2.4070999622344970703 0 0 0 0 0 8.2566003799438476563 73.85959625244140625 89.50440216064453125 1.4779000282287597656 0.01769999973475933075 0.044199999421834945679 2.0353999137878417969 0.22810000181198120117 0 0 0.21240000426769256592 37.63719940185546875 70.1416015625 98.90270233154296875 98.09649658203125 82.46019744873046875 55.026500701904296875 37.495601654052734375 9.65489959716796875 18.354000091552734375 41.19300079345703125 15.805299758911132813 43.964599609375 81.1947021484375 62.69029998779296875 86.81420135498046875 94.21929931640625 82.99120330810546875 84.964599609375 67.61949920654296875 60.938098907470703125 90.95580291748046875 86.5614013671875 79.39820098876953125 80.1239013671875 83.893798828125 90.27429962158203125 75.36280059814453125 93.19300079345703125 88.62830352783203125 85.318603515625 83.1947021484375 59.300899505615234375 68.9468994140625 79.78070068359375 57.58409881591796875 8.6195001602172851563 0 0 14.070799827575683594 20.385999679565429688 51.84960174560546875 68.79650115966796875 94.25659942626953125 97.04419708251953125 95.81420135498046875 52.77880096435546875 0.21930000185966491699 36.504398345947265625 63.77880096435546875 81.60179901123046875 81.2301025390625 0.079599998891353607178 0 0.044199999421834945679 0.31859999895095825195 0.11500000208616256714 44.318599700927734375 57.823001861572265625 42.754398345947265625 0.053100001066923141479 1.4689999818801879883 0 53.079601287841796875 61.69029998779296875 23.78070068359375 34.65489959716796875 0.053100001066923141479 0.079599998891353607178 30.36280059814453125 90.46900177001953125 60.754398345947265625 43.92919921875 73.893798828125 0.95579999685287475586 24.221200942993164063 34.265499114990234375 12.105299949645996094 22.477899551391601563 76.88500213623046875 36.787601470947265625 66.035400390625 12.645999908447265625 10.32740020751953125 47.19300079345703125 72.41590118408203125 72.63719940185546875 39.32740020751953125 32.504398345947265625 50.575199127197265625 32.7631988525390625 78.53099822998046875 18.36280059814453125 7.3008999824523925781 0.026499999687075614929 0 0.078900001943111419678 0 0 0.026499999687075614929 0 0 0 0 0 0.026499999687075614929 0 0 0 0.0087999999523162841797 0 0.70800000429153442383 0 0 0 0.12389999628067016602 0.01769999973475933075 0 0 0 2.1770000457763671875 20.69300079345703125 24.911500930786132813 10.849599838256835938 10.601799964904785156 0.68140000104904174805 0 0 2.8406999111175537109 5.5486998558044433594 0.0087999999523162841797 0 
0 2.4082999229431152344 80.1367034912109375 85.67420196533203125 81.41390228271484375 67.00250244140625 73.7667999267578125 68.6147003173828125 77.61319732666015625 96.3813018798828125 34.705600738525390625 1.1565999984741210938 0 0 1.5595999956130981445 0 0 0 0 0.11389999836683273315 0.38550001382827758789 0 5.5324001312255859375 0 0 0 8.6129999160766601563 88.26779937744140625 95.30139923095703125 88.6970977783203125 35.03900146484375 0 0.91119998693466186523 0.061299998313188552856 0 0 0 0.12269999831914901733 0 12.047699928283691406 85.51650238037109375 93.74669647216796875 45.386798858642578125 48.8040008544921875 99.7722015380859375 92.00910186767578125 31.280099868774414063 6.730899810791015625 17.73419952392578125 26.198200225830078125 87.07610321044921875 65.69699859619140625 79.32180023193359375 82.2303009033203125 82.5198974609375 87.707000732421875 85.96340179443359375 94.4098968505859375 92.0178985595703125 90.87200164794921875 86.43650054931640625 81.61750030517578125 84.11460113525390625 91.4833984375 83.94809722900390625 93.67729949951171875 79.56719970703125 96.77559661865234375 92.3332977294921875 84.34239959716796875 62.34999847412109375 30.6930999755859375 0.38550001382827758789 0 0 0.140200003981590271 34.250400543212890625 10.482899665832519531 19.7406005859375 72.058197021484375 98.72080230712890625 76.1938018798828125 85.67420196533203125 68.4745025634765625 53.5522003173828125 56.88249969482421875 82.861602783203125 63.629199981689453125 59.186901092529296875 0 0.017400000244379043579 0 0 0 3.43470001220703125 85.8231964111328125 67.9521026611328125 3.0492000579833984375 44.221500396728515625 16.069400787353515625 88.924896240234375 65.54810333251953125 21.2089996337890625 0.44690001010894775391 0.13140000402927398682 0.087600000202655792236 0.061299998313188552856 48.40090179443359375 88.162200927734375 65.92479705810546875 73.8018035888671875 0.42930001020431518555 34.679798126220703125 74.23110198974609375 48.132701873779296875 28.143299102783203125 15.710200309753417969 71.43609619140625 58.4683990478515625 0.0087999999523162841797 46.75370025634765625 65.78949737548828125 27.039300918579101563 38.87670135498046875 82.581298828125 85.51650238037109375 60.238300323486328125 76.48079681396484375 96.363800048828125 47.209300994873046875 17.0858001708984375 0.49939998984336853027 0.035000000149011611938 0 0 0 0.035000000149011611938 0 0 0 0 1.3317999839782714844 1.7086000442504882813 0.052600000053644180298 0 0.57319998741149902344 0 0 0 0 0 0 0.0087999999523162841797 0.18400000035762786865 0 0 0 0.061299998313188552856 1.2506999969482421875 11.530699729919433594 43.3014984130859375 21.3441009521484375 37.413501739501953125 0.84109997749328613281 0 0.17520000040531158447 2.041500091552734375 6.2297000885009765625 0 
0 3.0506000518798828125 65.4604034423828125 79.12030029296875 75.38649749755859375 58.433399200439453125 74.9145965576171875 77.28910064697265625 71.94429779052734375 73.7843017578125 91.64499664306640625 62.130901336669921875 16.376100540161132813 2.6373000144958496094 0.33300000429153442383 0 0 0 0 0.56950002908706665039 0 4.0830998420715332031 66.171600341796875 80.62740325927734375 70.0166015625 42.951000213623046875 91.61479949951171875 96.67919921875 92.64369964599609375 91.860198974609375 52.922100067138671875 0.026300000026822090149 31.98979949951171875 3.7325999736785888672 0 0 0 0.55199998617172241211 0.026300000026822090149 0 48.0066986083984375 92.7826995849609375 47.997898101806640625 59.66880035400390625 99.9824981689453125 91.3607025146484375 40.9095001220703125 5.7407999038696289063 6.501399993896484375 10.812199592590332031 50.179599761962890625 75.44029998779296875 66.46810150146484375 84.05419921875 94.40110015869140625 84.43000030517578125 85.62169647216796875 92.59619903564453125 94.91809844970703125 80.79730224609375 80.2068023681640625 85.96340179443359375 69.8238983154296875 93.5774993896484375 75.13359832763671875 83.46360015869140625 85.17479705810546875 79.33930206298828125 92.517303466796875 96.79309844970703125 52.457698822021484375 0 0 0 0 0 68.30809783935546875 56.704898834228515625 71.26080322265625 93.07810211181640625 82.511199951171875 95.1371002197265625 95.25099945068359375 75.21250152587890625 77.158203125 75.36139678955078125 62.84059906005859375 85.67420196533203125 30.438999176025390625 0.096400000154972076416 2.0757000446319580078 0.11389999836683273315 0 0.052600000053644180298 2.1905000209808349609 68.70240020751953125 47.298900604248046875 51.08209991455078125 31.376499176025390625 26.242000579833984375 76.35150146484375 76.13249969482421875 36.060398101806640625 0 0 0 0 12.731100082397460938 35.73040008544921875 35.7837982177734375 59.213199615478515625 23.885000228881835938 5.8530001640319824219 38.955600738525390625 75.45600128173828125 14.150500297546386719 45.579601287841796875 88.59200286865234375 64.10230255126953125 0 54.94609832763671875 65.277099609375 57.557201385498046875 70.78769683837890625 98.7032012939453125 90.9402008056640625 78.498199462890625 93.59040069580078125 76.16750335693359375 87.04109954833984375 82.25710296630859375 35.345699310302734375 2.7337000370025634766 0.99010002613067626953 0.017500000074505805969 0.18400000035762786865 0.096400000154972076416 0 0 0 0.070100001990795135498 0.14900000393390655518 0.76230001449584960938 0.20149999856948852539 0.4643999934196472168 0 0 0.12269999831914901733 0 0 3.0492000579833984375 2.5620999336242675781 0 0 0.19280000030994415283 0 0 0.043800000101327896118 0.052099999040365219116 0 2.9965999126434326172 0.26289999485015869141 31.376499176025390625 26.820299148559570313 0 0 1.0777000188827514648 0.22779999673366546631 0 
0 2.5243000984191894531 58.26689910888671875 62.604000091552734375 25.386499404907226563 71.70770263671875 85.18360137939453125 77.805999755859375 70.428497314453125 75.6067962646484375 86.59020233154296875 74.625396728515625 65.07489776611328125 10.899900436401367188 0 1.0427000522613525391 0 0 6.5977001190185546875 0.69220000505447387695 0 20.774599075317382813 96.47389984130859375 98.86969757080078125 99.2288970947265625 99.08879852294921875 98.11620330810546875 99.763397216796875 92.7913970947265625 98.62439727783203125 74.2574005126953125 63.57659912109375 67.0464019775390625 43.4766998291015625 64.7733001708984375 58.48590087890625 34.110198974609375 4.0216999053955078125 0.67470002174377441406 0 6.501399993896484375 91.7144012451171875 72.49629974365234375 21.589399337768554688 95.04949951171875 77.3415985107421875 7.0008001327514648438 10.422100067138671875 4.0567998886108398438 16.209600448608398438 9.0073003768920898438 66.63449859619140625 86.58550262451171875 84.40160369873046875 97.57289886474609375 94.34850311279296875 80.58350372314453125 92.75389862060546875 88.846099853515625 88.6920013427734375 91.63230133056640625 82.6864013671875 85.32379913330078125 84.03569793701171875 88.53060150146484375 71.3218994140625 83.6239013671875 80.7675018310546875 98.5980987548828125 98.3878021240234375 89.38050079345703125 37.09400177001953125 0 0 0 7.5265002250671386719 48.926700592041015625 53.995098114013671875 57.50460052490234375 59.817798614501953125 91.8863983154296875 90.475799560546875 86.5417022705078125 82.81780242919921875 80.63230133056640625 34.61840057373046875 2.90019989013671875 63.471500396728515625 17.488800048828125 11.250300407409667969 1.9106999635696411133 0.140200003981590271 0.22779999673366546631 0 2.9528000354766845703 63.900798797607421875 75.49069976806640625 65.54810333251953125 10.102499961853027344 73.53890228271484375 82.10810089111328125 53.08860015869140625 0.50370001792907714844 0 0 0 0 0 5.1503000259399414063 54.96360015869140625 71.43609619140625 12.468199729919433594 13.440799713134765625 72.04070281982421875 46.317501068115234375 50.14459991455078125 94.76039886474609375 67.9839019775390625 6.9657001495361328125 0.070100001990795135498 53.185001373291015625 65.91970062255859375 93.8227996826171875 74.37129974365234375 79.356903076171875 83.87799835205078125 61.973201751708984375 93.70330047607421875 75.1598968505859375 94.95310211181640625 92.87650299072265625 74.791900634765625 15.017999649047851563 2.2321000099182128906 1.0427000522613525391 0.63090002536773681641 0.0087999999523162841797 0.052600000053644180298 0 0 0 0 0.51700001955032348633 3.2156000137329101563 0 0 0 0.27160000801086425781 0 0 1.4982999563217163086 0.15629999339580535889 0 0 0 0 0 0.017500000074505805969 0.034699998795986175537 0.017500000074505805969 0.043800000101327896118 0 0.061299998313188552856 0.15770000219345092773 0 0 0.15770000219345092773 2.4358000755310058594 0.52209997177124023438 
0 0.68470001220703125 21.876100540161132813 20.008800506591796875 44.7631988525390625 61.74340057373046875 83.20349884033203125 86.79650115966796875 82.46019744873046875 71.7344970703125 73.41230010986328125 86.2655029296875 95.92919921875 16.796499252319335938 0.1326999962329864502 0.85839998722076416016 5.6139998435974121094 1.8849999904632568359 12.840700149536132813 0.96460002660751342773 1.8938000202178955078 31.566400527954101563 94.41230010986328125 82.6636962890625 96.893798828125 99.3363037109375 55.938098907470703125 94.41590118408203125 94.122802734375 85.67259979248046875 73.49559783935546875 91.15039825439453125 66.752197265625 76.822998046875 99.00879669189453125 95.92919921875 98.1593017578125 56.247798919677734375 0.48669999837875366211 0.65490001440048217773 0 49.80699920654296875 92.84960174560546875 89.46900177001953125 90.70800018310546875 4.3982000350952148438 4.6549000740051269531 15.622799873352050781 24.407100677490234375 29.424800872802734375 17.70800018310546875 36.592899322509765625 84.95580291748046875 85.2718963623046875 70.84960174560546875 91.1239013671875 93.90270233154296875 77.49559783935546875 93.07080078125 86.28070068359375 93.25659942626953125 94.16809844970703125 82.8406982421875 69.55750274658203125 81.3363037109375 87.50879669189453125 89.09729766845703125 81.54869842529296875 94.25659942626953125 94.78759765625 86.61060333251953125 92.1753997802734375 5.3628001213073730469 0 0 0.026499999687075614929 57.991199493408203125 90.47370147705078125 50.22119903564453125 15.150400161743164063 30.194700241088867188 80.1416015625 87.21240234375 87.76110076904296875 71.24559783935546875 32.495601654052734375 21.424800872802734375 69.39820098876953125 63.194698333740234375 57.53099822998046875 0.21050000190734863281 1.3186000585556030273 0.079599998891353607178 0.061900001019239425659 15.247799873352050781 65.67259979248046875 93.4561004638671875 33.77880096435546875 1.3628000020980834961 56.787601470947265625 74.84960174560546875 36.65489959716796875 0 0 0 0 0 0 21.63159942626953125 39.115001678466796875 70.86730194091796875 34.36280059814453125 9.663700103759765625 91.46900177001953125 76.50879669189453125 94.86730194091796875 69.318603515625 8.9469003677368164063 32.9468994140625 45.69029998779296875 79.69029998779296875 70.84210205078125 95.35399627685546875 83.39820098876953125 96.1947021484375 91.69029998779296875 76.52210235595703125 73.46489715576171875 77.62830352783203125 90.49559783935546875 81.47789764404296875 75.07959747314453125 80.13269805908203125 57.2368011474609375 25.699100494384765625 1.3273999691009521484 0.29199999570846557617 0.097300000488758087158 0 0.03510000184178352356 0.01769999973475933075 0 0 0 0 0.017500000074505805969 1.7433999776840209961 1.3717000484466552734 0 0 5.2477998733520507813 0.44740000367164611816 0 3.5752000808715820313 1.9911999702453613281 0 0 0 0 0 0.053100001066923141479 0 0.035399999469518661499 0.24779999256134033203 0.62279999256134033203 0 0 0.026499999687075614929 0 
0 0.089199997484683990479 2.5409998893737792969 9.7870998382568359375 55.87110137939453125 78.9801025390625 82.2133026123046875 88.85479736328125 64.51419830322265625 78.358001708984375 79.07759857177734375 81.135498046875 71.7953033447265625 0.052600000053644180298 0 4.5473999977111816406 7.6255002021789550781 1.1653000116348266602 1.7524000406265258789 0 0 80.574798583984375 98.11530303955078125 98.94860076904296875 96.60040283203125 96.67919921875 65.8108978271484375 86.11229705810546875 96.30879974365234375 77.560699462890625 74.90579986572265625 68.071502685546875 48.926700592041015625 97.39769744873046875 95.82250213623046875 98.26509857177734375 95.74169921875 84.94699859619140625 0 0.71850001811981201172 0 16.2584991455078125 98.08989715576171875 90.75620269775390625 84.0182037353515625 20.266399383544921875 25.94409942626953125 61.994098663330078125 56.72480010986328125 30.824499130249023438 23.131500244140625 43.424198150634765625 85.72679901123046875 89.80370330810546875 78.804901123046875 83.66770172119140625 76.5442962646484375 90.69480133056640625 96.468902587890625 90.83719635009765625 93.06929779052734375 96.95960235595703125 66.9763031005859375 41.40019989013671875 45.947601318359375 86.5207977294921875 82.17819976806640625 76.96489715576171875 77.31529998779296875 82.82659912109375 92.21939849853515625 99.26180267333984375 9.0510997772216796875 0 0 3.0315999984741210938 50.223400115966796875 46.343601226806640625 1.375599980354309082 0.4731000065803527832 76.82469940185546875 53.079799652099609375 63.252399444580078125 60.799098968505859375 33.7415008544921875 40.059600830078125 36.283199310302734375 69.48220062255859375 69.66619873046875 76.77210235595703125 30.0764007568359375 2.9877998828887939453 0.21899999678134918213 3.0929999351501464844 31.928499221801757813 55.49810028076171875 73.4322967529296875 0.45559999346733093262 18.531499862670898438 75.14240264892578125 81.266998291015625 47.857700347900390625 0 0.061299998313188552856 0 0 0 0 30.4673004150390625 87.80339813232421875 68.22049713134765625 60.8516998291015625 0.061299998313188552856 48.64630126953125 90.11640167236328125 89.888702392578125 28.029399871826171875 14.930299758911132813 40.523998260498046875 24.9803009033203125 79.77739715576171875 82.10009765625 89.5558013916015625 82.33589935302734375 95.8206024169921875 80.86389923095703125 83.65899658203125 77.9311981201171875 79.2693023681640625 76.4040985107421875 73.09210205078125 71.12940216064453125 79.0677032470703125 79.8419036865234375 27.801599502563476563 10.111300468444824219 0.63959997892379760742 0.026300000026822090149 0.026300000026822090149 0.0087000001221895217896 0.32420000433921813965 1.9012999534606933594 0.026300000026822090149 0 0 2.3450000286102294922 3.6888000965118408203 0 0 0 0.84990000724792480469 0.65140002965927124023 0 0.061299998313188552856 2.3745000362396240234 2.0852999687194824219 0 0 0 0 1.8136999607086181641 0.2890999913215637207 5.39739990234375 2.0065000057220458984 0 0 0 0 0 
0 0.089199997484683990479 9.4540996551513671875 8.4639997482299804688 38.561798095703125 77.36789703369140625 79.69860076904296875 50.03070068359375 70.52480316162109375 59.0904998779296875 72.12960052490234375 74.83570098876953125 90.40570068359375 56.786098480224609375 0.39430001378059387207 3.8640000820159912109 0 0 0.19280000030994415283 0 5.84420013427734375 89.20529937744140625 96.942901611328125 86.27880096435546875 97.82700347900390625 99.3253021240234375 99.57939910888671875 99.3253021240234375 83.66339874267578125 65.22389984130859375 92.53479766845703125 84.938201904296875 65.583099365234375 67.4405975341796875 99.4788970947265625 97.9409027099609375 99.237701416015625 98.65070343017578125 7.438899993896484375 0.18400000035762786865 0.56950002908706665039 2.4925999641418457031 92.6399993896484375 96.79309844970703125 81.0478973388671875 21.484300613403320313 32.559398651123046875 53.439300537109375 28.274799346923828125 34.005100250244140625 29.878200531005859375 12.152799606323242188 55.65579986572265625 90.15110015869140625 77.8760986328125 90.89630126953125 85.33249664306640625 91.825103759765625 89.77480316162109375 84.74030303955078125 91.658599853515625 98.23889923095703125 84.96450042724609375 83.82550048828125 36.800098419189453125 18.681600570678710938 69.77130126953125 95.426300048828125 87.20760345458984375 75.3964996337890625 88.6269989013671875 46.708400726318359375 0.49939998984336853027 0 0 0 21.501800537109375 0 0 3.43470001220703125 60.212001800537109375 77.55190277099609375 76.23760223388671875 84.64029693603515625 85.99970245361328125 60.04560089111328125 58.652400970458984375 39.88430023193359375 70.80519866943359375 77.36789703369140625 73.96209716796875 10.233900070190429688 0.043800000101327896118 2.4270999431610107422 57.960201263427734375 48.6287994384765625 14.9990997314453125 3.2244000434875488281 48.60250091552734375 93.29709625244140625 79.9176025390625 14.001600265502929688 0.078199997544288635254 0 0 0 0 0 1.1463999748229980469 59.073001861572265625 91.44830322265625 68.64980316162109375 48.716400146484375 79.23419952392578125 50.47769927978515625 53.62310028076171875 2.1379001140594482422 36.791400909423828125 9.971099853515625 64.01470184326171875 93.1305999755859375 82.63849639892578125 84.50890350341796875 84.98200225830078125 83.6239013671875 69.28060150146484375 78.06009674072265625 91.7057037353515625 84.09709930419921875 85.86699676513671875 93.41100311279296875 80.79380035400390625 64.40019989013671875 43.70330047607421875 33.163898468017578125 37.00170135498046875 0.57829999923706054688 0.95509999990463256836 0 0.0087000001221895217896 0.096400000154972076416 0 0.087600000202655792236 5.2571997642517089844 4.5562000274658203125 4.6290998458862304688 5.4148998260498046875 0 0 0 0 0 0 0 0.20149999856948852539 0.070100001990795135498 0.63959997892379760742 10.566900253295898438 2.5013000965118408203 1.0427000522613525391 0.16650000214576721191 0.15770000219345092773 4.2407999038696289063 0.6571000218391418457 0 0 0.043800000101327896118 0 0 
0 0.48170000314712524414 18.82939910888671875 9.8220996856689453125 61.91590118408203125 71.05930328369140625 64.57550048828125 64.5930023193359375 88.43419647216796875 65.70580291748046875 79.80719757080078125 64.7332000732421875 86.24379730224609375 89.87999725341796875 26.9253997802734375 2.1466999053955078125 0 0.096400000154972076416 0.55199998617172241211 0.34169998764991760254 0 57.408199310302734375 98.11530303955078125 93.39350128173828125 90.74739837646484375 98.1425018310546875 93.27960205078125 99.83350372314453125 96.84729766845703125 49.68019866943359375 89.170196533203125 79.33930206298828125 81.959197998046875 45.75479888916015625 97.3076019287109375 98.26509857177734375 96.93329620361328125 93.104400634765625 20.669399261474609375 0 0.15770000219345092773 1.320099949836730957 42.197498321533203125 94.4449005126953125 93.1920013427734375 65.50420379638671875 27.153200149536132813 28.209100723266601563 15.990500450134277344 69.9990997314453125 42.7845001220703125 1.9627000093460083008 33.961299896240234375 36.668399810791015625 99.24649810791015625 99.19390106201171875 92.89409637451171875 87.49669647216796875 90.05519866943359375 84.497100830078125 83.7729034423828125 72.50499725341796875 96.40760040283203125 83.31729888916015625 93.3408966064453125 58.42449951171875 30.132299423217773438 89.4944000244140625 82.3621978759765625 81.1793975830078125 88.67960357666015625 61.881198883056640625 0 0 0 0.58700001239776611328 0.52569997310638427734 0 0.27160000801086425781 0.19280000030994415283 31.840900421142578125 90.81749725341796875 87.3916015625 92.30699920654296875 92.52210235595703125 88.6094970703125 73.11840057373046875 34.206600189208984375 78.498199462890625 87.812103271484375 74.4658966064453125 55.638301849365234375 16.901800155639648438 27.740299224853515625 53.745700836181640625 5.4324002265930175781 0.069499999284744262695 24.086599349975585938 81.85399627685546875 93.86660003662109375 81.32830047607421875 10.444199562072753906 0.51239997148513793945 0.30669999122619628906 0 0 0 0 0 26.671300888061523438 88.8636016845703125 82.2133026123046875 51.63410186767578125 90.46700286865234375 69.06369781494140625 70.9279022216796875 73.96829986572265625 6.7993001937866210938 47.21810150146484375 98.20379638671875 78.4281005859375 90.60269927978515625 85.74430084228515625 94.94439697265625 89.818603515625 92.63120269775390625 87.2425994873046875 77.29720306396484375 91.579803466796875 90.53710174560546875 86.82199859619140625 45.947601318359375 59.1605987548828125 72.58119964599609375 41.8470001220703125 8.954700469970703125 0.95509999990463256836 2.9177000522613525391 0.57829999923706054688 4.9071002006530761719 0.86739999055862426758 0.0087999999523162841797 0.31540000438690185547 8.4289999008178710938 20.59059906005859375 7.8947000503540039063 4.573699951171875 0 0 0 0 0 0 0 0 0 1.9012999534606933594 0.11389999836683273315 0 2.2167999744415283203 0.052600000053644180298 0.92879998683929443359 2.9089999198913574219 0 0 0 12.862500190734863281 2.6549000740051269531 0.01799999922513961792 
0 3.0179998874664306641 33.805301666259765625 59.823001861572265625 64 73.32740020751953125 89.07080078125 70.22119903564453125 69.81420135498046875 72.6636962890625 73.0175018310546875 65.74340057373046875 79.81420135498046875 89.035400390625 22.849599838256835938 0.01769999973475933075 15.719300270080566406 1.7876000404357910156 1.6991000175476074219 3.4690001010894775391 0 26.433599472045898438 94.50879669189453125 96.54869842529296875 93.88500213623046875 98.59290313720703125 97.9822998046875 99.69029998779296875 97.35089874267578125 93.07080078125 91.02649688720703125 74.81420135498046875 89.29199981689453125 96.76110076904296875 95.64040374755859375 99.76110076904296875 95.41590118408203125 98.76110076904296875 64.21240234375 19.76110076904296875 13.32740020751953125 0.0087999999523162841797 7.6283001899719238281 88.893798828125 87.43360137939453125 26.63719940185546875 3.8938000202178955078 6.5088000297546386719 2.2832000255584716797 32.504398345947265625 53.681400299072265625 2.2388999462127685547 33.54869842529296875 54.964900970458984375 86.93810272216796875 91.752197265625 93.35399627685546875 93.30970001220703125 96.8583984375 84.28070068359375 87.9468994140625 92.56639862060546875 95.21240234375 95.55750274658203125 95.11499786376953125 53.657901763916015625 22.548700332641601563 94.37169647216796875 66.42479705810546875 90.57520294189453125 40.991199493408203125 75.14910125732421875 0.0087999999523162841797 0 0 0 0 0 0.51330000162124633789 0.5928999781608581543 2.5220999717712402344 67.02649688720703125 97.716796875 97 89.5175018310546875 90.54869842529296875 80.40709686279296875 31.716800689697265625 75.74340057373046875 79.177001953125 82.59649658203125 84.27429962158203125 45.72570037841796875 49.522098541259765625 49.39820098876953125 0.01769999973475933075 0.087700001895427703857 7.4956002235412597656 65.0885009765625 93.93810272216796875 79.95580291748046875 21.504400253295898438 0.71050000190734863281 0 0 0 0 0 1.1052999496459960938 6.8229999542236328125 77.39820098876953125 87.23889923095703125 38.132701873779296875 62.41590118408203125 25.9561004638671875 36.9822998046875 31.132699966430664063 0.53100001811981201172 71.35399627685546875 81.64600372314453125 79.69029998779296875 82.7281036376953125 83.8583984375 71.53099822998046875 86.8406982421875 81.84960174560546875 79.50440216064453125 88.6753997802734375 81.61060333251953125 97.1593017578125 89.1947021484375 74.40709686279296875 45.592899322509765625 73.36840057373046875 5.0619001388549804688 0.4602000117301940918 0 0 0 6.1841998100280761719 6.3982000350952148438 11.619500160217285156 6.5486998558044433594 13.814200401306152344 17.805299758911132813 2.41230010986328125 1.0264999866485595703 0 0.088500000536441802979 0 0 0 0 0 0 0 0 0 1.2982000112533569336 0 0.68140000104904174805 0 1.0707999467849731445 0 0 3.7611000537872314453 42.63719940185546875 9.5044002532958984375 0.30910000205039978027 
0 8.5719003677368164063 48.22570037841796875 59.06420135498046875 76.42870330810546875 75.177398681640625 86.4716033935546875 79.12030029296875 84.622802734375 82.25710296630859375 62.34149932861328125 81.433502197265625 74.686798095703125 81.88030242919921875 3.7325999736785888672 0 3.66510009765625 0.61330002546310424805 0.63959997892379760742 5.6163997650146484375 0 24.375699996948242188 95.55319976806640625 98.72949981689453125 68.351898193359375 98.65070343017578125 87.99610137939453125 95.96070098876953125 93.90309906005859375 95.41750335693359375 88.95999908447265625 90.0814971923828125 94.9268035888671875 91.7375030517578125 94.9452972412109375 97.9058990478515625 98.3177032470703125 93.91919708251953125 96.53029632568359375 97.3538970947265625 55.2790985107421875 0.0087000001221895217896 0.035000000149011611938 16.84040069580078125 78.75229644775390625 42.241298675537109375 34.390598297119140625 26.367900848388671875 3.1631000041961669922 27.88050079345703125 12.766099929809570313 2.2430999279022216797 89.196502685546875 77.08010101318359375 83.3610992431640625 86.98850250244140625 89.82740020751953125 92.02660369873046875 90.7035980224609375 93.80750274658203125 80.40830230712890625 83.063201904296875 91.7375030517578125 93.06929779052734375 93.3408966064453125 82.13480377197265625 5.0205998420715332031 84.42130279541015625 46.814998626708984375 70.6125030517578125 45.97389984130859375 89.10019683837890625 2.7511999607086181641 0 0 0 0 0 0.80610001087188720703 0.29789999127388000488 1.2879999876022338867 10.5055999755859375 52.86080169677734375 95.80300140380859375 21.382699966430664063 18.180999755859375 92.4822998046875 76.9561004638671875 38.578800201416015625 53.588001251220703125 90.472503662109375 73.88069915771484375 77.4029998779296875 79.77739715576171875 14.325799942016601563 6.9920001029968261719 0 5.1256999969482421875 61.83300018310546875 99.1501007080078125 85.1573028564453125 56.645900726318359375 2.336299896240234375 0.043800000101327896118 0 0 0 0.0087999999523162841797 0 9.524200439453125 57.381900787353515625 80.17169952392578125 52.0634002685546875 7.3863000869750976563 0 0 0 0.19280000030994415283 75.99230194091796875 82.37969970703125 99.3253021240234375 84.3668975830078125 83.43990325927734375 68.5796966552734375 83.72910308837890625 82.87039947509765625 81.18810272216796875 69.17669677734375 64.6631011962890625 75.6417999267578125 63.962100982666015625 88.91609954833984375 57.6360015869140625 82.36060333251953125 12.126500129699707031 0.35920000076293945313 0.21029999852180480957 0.017500000074505805969 0.84990000724792480469 1.0943000316619873047 25.619899749755859375 2.7511999607086181641 7.5265002250671386719 4.6437997817993164063 7.4651999473571777344 2.7618999481201171875 0 0 0.017500000074505805969 0 0 0 0 0 0 0 0 0 1.5980999469757080078 2.7511999607086181641 0 0.15770000219345092773 0.26289999485015869141 0 0.034699998795986175537 0 8.7707004547119140625 1.5684000253677368164 0 
0 11.729599952697753906 67.52829742431640625 69.18430328369140625 83.2639007568359375 83.66770172119140625 74.8795013427734375 84.9031982421875 65.136199951171875 82.651397705078125 91.7230987548828125 90.5458984375 90.7035980224609375 81.2494964599609375 53.93849945068359375 0.017500000074505805969 0 0 4.5650000572204589844 15.902899742126464844 0.21899999678134918213 53.412799835205078125 96.56939697265625 88.58319854736328125 89.1439971923828125 98.10739898681640625 87.42659759521484375 80.8990020751953125 75.71649932861328125 90.0989990234375 91.43959808349609375 97.64299774169921875 93.62129974365234375 95.88189697265625 82.50830078125 98.8433990478515625 93.52490234375 92.92910003662109375 98.71199798583984375 98.12490081787109375 44.458099365234375 0 0 0.80610001087188720703 73.27610015869140625 83.063201904296875 48.1118011474609375 7.1739001274108886719 11.478099822998046875 15.762700080871582031 21.983699798583984375 11.811100006103515625 53.79830169677734375 86.71179962158203125 92.552398681640625 69.21929931640625 83.5363006591796875 87.8822021484375 75.47530364990234375 79.69429779052734375 80.8289031982421875 47.480899810791015625 88.74970245361328125 97.09100341796875 89.7310028076171875 97.82869720458984375 8.6393003463745117188 48.392200469970703125 94.79540252685546875 81.302001953125 46.078998565673828125 82.08270263671875 14.842700004577636719 0.13140000402927398682 0 0 0 0 0 0 0 0 5.0468997955322265625 98.46669769287109375 20.262300491333007813 0 57.0839996337890625 90.2566986083984375 47.2444000244140625 16.340999603271484375 84.74900054931640625 89.398101806640625 76.176300048828125 60.772800445556640625 36.186798095703125 79.30429840087890625 43.8683013916015625 25.900299072265625 48.36589813232421875 93.8141021728515625 79.68109893798828125 81.7400970458984375 27.357999801635742188 2.4358000755310058594 9.401599884033203125 0 0 0 0.2691999971866607666 2.7599999904632568359 32.98870086669921875 73.13590240478515625 63.848201751708984375 3.4172000885009765625 2.197299957275390625 0 0.50819998979568481445 1.7611000537872314453 55.36669921875 85.34130096435546875 90.6685028076171875 84.88800048828125 79.47949981689453125 89.27539825439453125 83.09819793701171875 81.99420166015625 71.1732025146484375 82.50830078125 82.94049835205078125 90.8701019287109375 90.5634002685546875 94.66400146484375 79.90889739990234375 86.5207977294921875 78.5507965087890625 65.43419647216796875 15.65760040283203125 1.1128000020980834961 19.749399185180664063 7.4257001876831054688 20.695699691772460938 4.6788997650146484375 3.83769989013671875 7.9383001327514648438 7.5791001319885253906 8.659000396728515625 0 0 0.061299998313188552856 0 0.10509999841451644897 0.078199997544288635254 0 0 0 0 0 0 0 1.9189000129699707031 0.86739999055862426758 0 0 0.140200003981590271 0 0 0 0 0 
0 12.086299896240234375 84.1759033203125 73.722900390625 80.2675018310546875 77.98999786376953125 89.43309783935546875 64.198699951171875 66.92369842529296875 86.36640167236328125 72.88520050048828125 74.7743988037109375 85.9196014404296875 85.691802978515625 80.9076995849609375 22.64080047607421875 0 0.0087999999523162841797 4.004199981689453125 8.0522003173828125 0.22779999673366546631 74.9496002197265625 99.74810028076171875 99.80719757080078125 90.51080322265625 95.0670013427734375 88.37290191650390625 93.77030181884765625 93.28639984130859375 86.9447021484375 88.16259765625 79.0677032470703125 89.8361968994140625 97.87079620361328125 87.97989654541015625 99.33409881591796875 99.19390106201171875 98.5279998779296875 98.65070343017578125 98.17749786376953125 78.8224029541015625 19.14189910888671875 0.061299998313188552856 0.10509999841451644897 7.8594999313354492188 53.973499298095703125 76.9561004638671875 1.8325999975204467773 7.4475998878479003906 29.562799453735351563 16.744100570678710938 14.711299896240234375 24.87509918212890625 76.31580352783203125 89.196502685546875 90.4232025146484375 75.79949951171875 72.11080169677734375 96.8983001708984375 92.3224029541015625 55.67340087890625 74.12599945068359375 88.67960357666015625 96.7667999267578125 98.510498046875 99.07939910888671875 45.0802001953125 18.610399246215820313 26.601200103759765625 74.66919708251953125 80.4871978759765625 81.12729644775390625 31.236299514770507813 0.39430001378059387207 0.73600000143051147461 0 0 2.8139998912811279297 1.6033999919891357422 0 0 0 0.77979999780654907227 45.220401763916015625 87.6150970458984375 7.0357999801635742188 11.723500251770019531 95.978302001953125 38.87670135498046875 27.363500595092773438 69.2808990478515625 77.8760986328125 87.777099609375 92.02660369873046875 67.55449676513671875 68.66729736328125 83.35070037841796875 85.94589996337890625 64.2863006591796875 90.0113983154296875 80.960296630859375 73.2498016357421875 6.895999908447265625 0.12269999831914901733 0 0 0.052600000053644180298 0 0.42559999227523803711 0.56950002908706665039 35.407001495361328125 54.54309844970703125 65.8022003173828125 50.52130126953125 0.84249997138977050781 0.20149999856948852539 0 0 51.6428985595703125 66.17890167236328125 99.15889739990234375 89.62129974365234375 81.6875 94.90059661865234375 69.762603759765625 66.30159759521484375 87.02359771728515625 90.55930328369140625 93.6125030517578125 84.21970367431640625 92.30699920654296875 83.47499847412109375 74.66049957275390625 87.727996826171875 87.90850067138671875 88.4868011474609375 78.8135986328125 66.967498779296875 52.62419891357421875 9.8662004470825195313 8.2449998855590820313 1.305500030517578125 4.9942998886108398438 10.803500175476074219 15.491100311279296875 11.690099716186523438 0 0.22779999673366546631 0 0 0 0.28659999370574951172 0 0 0 0 0 0 0 0 0.2890999913215637207 0.69220000505447387695 0.72719997167587280273 0 0 0 0 0 0 
0 9.2613000869750976563 58 76.21240234375 81.21050262451171875 73.6636962890625 88 76.55750274658203125 73.1947021484375 76.60179901123046875 84.4385986328125 75.1239013671875 90.44249725341796875 89.54869842529296875 77.38050079345703125 75.38939666748046875 2.1315999031066894531 0.90270000696182250977 0 1.1680999994277954102 0.63719999790191650391 58.769901275634765625 91.5175018310546875 98.0177001953125 85.81420135498046875 98.34510040283203125 90.00879669189453125 75.88500213623046875 86.8246002197265625 89.79650115966796875 89.38939666748046875 97.15039825439453125 90.67259979248046875 95.62830352783203125 94.9561004638671875 89.57520294189453125 97.90270233154296875 97.21240234375 93.2655029296875 98.78759765625 98.44249725341796875 93.7718963623046875 13.451299667358398438 0.25659999251365661621 0.70800000429153442383 0.99119997024536132813 0.30970001220703125 0 0 4.1504001617431640625 20.25659942626953125 45.283199310302734375 27.548700332641601563 34.2368011474609375 73.39820098876953125 90.106201171875 74.61060333251953125 53.74340057373046875 94.1416015625 78.85959625244140625 68.02649688720703125 67.61060333251953125 75.70800018310546875 94.90270233154296875 98.04419708251953125 99.122802734375 79.20349884033203125 7.1770000457763671875 2.336299896240234375 7.9380998611450195313 68.67259979248046875 76.6667022705078125 48.43360137939453125 4.6813998222351074219 1.4513000249862670898 0.72570002079010009766 0 0.4298000037670135498 8.9380998611450195313 0 0 0 0 0.45129999518394470215 27.771900177001953125 0 2.7876000404357910156 72.60179901123046875 66.681396484375 34.0177001953125 41.2368011474609375 68.61949920654296875 66.09729766845703125 53.884998321533203125 53.973499298095703125 60.1239013671875 53.5175018310546875 91.11499786376953125 85.40709686279296875 87.77880096435546875 88.63719940185546875 51.67259979248046875 0.026300000026822090149 0.10620000213384628296 0.49559998512268066406 0.0087999999523162841797 0 0.20350000262260437012 0 0.36280000209808349609 7.4335999488830566406 49.9822998046875 75.9114990234375 56.513301849365234375 0.40349999070167541504 0.0087999999523162841797 0 29.699100494384765625 68.42479705810546875 63.902698516845703125 88.2655029296875 70.18419647216796875 74.76110076904296875 91.46019744873046875 87.34510040283203125 76.99120330810546875 94.46019744873046875 78.8860015869140625 94.1416015625 94.35399627685546875 74.3009033203125 82.22119903564453125 85.893798828125 89.74559783935546875 88.97350311279296875 89.1239013671875 89.53980255126953125 79.11499786376953125 20.584100723266601563 10.552599906921386719 4.6813998222351074219 6.1149997711181640625 31.150400161743164063 26.522100448608398438 29.849599838256835938 6.7368001937866210938 0.044199999421834945679 0 0.10620000213384628296 0 0 0 0 0.026499999687075614929 0 0.0087999999523162841797 0 0.01769999973475933075 0 0 0 0 0.026499999687075614929 0 0 0 0 0 0 
0 14.539299964904785156 75.83460235595703125 74.064697265625 70.9745025634765625 67.23909759521484375 94.874298095703125 80.189300537109375 92.3332977294921875 58.90650177001953125 72.61589813232421875 77.31529998779296875 78.804901123046875 92.902801513671875 96.127197265625 81.60870361328125 1.511199951171875 0 0.9375 0 0.052600000053644180298 0.043800000101327896118 81.3618011474609375 82.53749847412109375 88.20639801025390625 89.50319671630859375 91.78130340576171875 72.42620086669921875 83.57649993896484375 99.72840118408203125 88.21520233154296875 98.03730010986328125 97.15239715576171875 95.8907012939453125 90.8285980224609375 97.6255035400390625 98.81710052490234375 97.222503662109375 99.36910247802734375 96.87200164794921875 99.6757965087890625 93.89440155029296875 68.57089996337890625 4.6964001655578613281 1.2617000341415405273 0 0 0 0 0 37.25579833984375 61.52629852294921875 36.747600555419921875 23.70159912109375 0.56950002908706665039 20.467899322509765625 49.215801239013671875 77.15760040283203125 75.098602294921875 86.13860321044921875 94.76039886474609375 87.25140380859375 83.01059722900390625 90.69480133056640625 98.5980987548828125 95.683502197265625 83.5276031494140625 19.7406005859375 52.720600128173828125 32.156299591064453125 2.4094998836517333984 58.6156005859375 87.295196533203125 7.9995999336242675781 11.145199775695800781 2.3394000530242919922 0 0 9.3051996231079101563 0 0 0 0 0 0 0 0 0.68339997529983520508 0.087600000202655792236 14.194299697875976563 3.0311000347137451172 27.267200469970703125 51.7480010986328125 40.33119964599609375 45.010101318359375 18.925800323486328125 34.288700103759765625 86.567901611328125 87.68070220947265625 79.1378021240234375 81.135498046875 44.466800689697265625 4.0472002029418945313 6.0194997787475585938 0.18400000035762786865 1.1303000450134277344 0 0 0 0.2890999913215637207 5.1170001029968261719 43.327800750732421875 58.0829010009765625 13.782500267028808594 0.095499999821186065674 0 0 6.7642002105712890625 50.92440032958984375 71.365997314453125 90.52829742431640625 56.0447998046875 78.804901123046875 98.510498046875 86.0684967041015625 69.19300079345703125 90.169097900390625 67.1443023681640625 76.0186004638671875 67.44940185546875 76.52680206298828125 82.0467987060546875 76.1938018798828125 84.3755035400390625 86.8571014404296875 81.3195037841796875 79.61969757080078125 54.823398590087890625 9.8396997451782226563 4.0819997787475585938 20.949800491333007813 63.252399444580078125 73.53890228271484375 18.680500030517578125 14.956600189208984375 2.2581000328063964844 0 0 0 0 0 0 0.12269999831914901733 0 0 0.0087999999523162841797 0.087600000202655792236 0.078900001943111419678 0.12160000205039978027 0 0 3.4609999656677246094 13.397000312805175781 0.3680000007152557373 2.4839000701904296875 0 0 17.436300277709960938 3.4382998943328857422 
0 10.596699714660644531 77.53440093994140625 80.15419769287109375 79.16449737548828125 52.317501068115234375 82.2834014892578125 77.2628021240234375 90.169097900390625 80.67120361328125 83.19439697265625 63.497798919677734375 80.37329864501953125 92.39459991455078125 95.3473968505859375 96.258697509765625 54.464099884033203125 0.69220000505447387695 0 0 7.6229000091552734375 81.40720367431640625 96.96019744873046875 93.84909820556640625 81.126800537109375 94.7516021728515625 72.6977996826171875 63.46269989013671875 87.9364013671875 99.8509979248046875 78.34929656982421875 98.8433990478515625 98.40529632568359375 98.1511993408203125 91.54940032958984375 82.57250213623046875 94.48000335693359375 98.24759674072265625 93.17449951171875 89.22280120849609375 95.62779998779296875 88.60520172119140625 98.62439727783203125 59.230701446533203125 0.70099997520446777344 1.2879999876022338867 0 0 0 8.7618999481201171875 77.70960235595703125 92.000396728515625 60.80789947509765625 24.431100845336914063 15.263299942016601563 3.0141000747680664063 34.451900482177734375 76.20259857177734375 85.8495025634765625 96.7864990234375 94.10320281982421875 87.78589630126953125 88.04869842529296875 94.60260009765625 93.630096435546875 96.9080963134765625 95.119598388671875 94.94439697265625 96.24990081787109375 80.9076995849609375 42.11859893798828125 22.650699615478515625 52.992198944091796875 2.7425000667572021484 1.4457000494003295898 4.5212001800537109375 26.250799179077148438 0.80769997835159301758 26.785200119018554688 8.1485996246337890625 0 0.14900000393390655518 0 0.17520000040531158447 0.27790001034736633301 0 0.77109998464584350586 0.66589999198913574219 0 0 7.7730998992919921875 84.9907989501953125 75.8784027099609375 87.260101318359375 25.9878997802734375 2.698699951171875 19.202699661254882813 65.48670196533203125 79.847503662109375 76.99990081787109375 87.58429718017578125 69.94660186767578125 41.184600830078125 29.974599838256835938 0.59579998254776000977 0.2890999913215637207 0.48190000653266906738 0.0087999999523162841797 0 1.6998000144958496094 8.1223001480102539063 72.610198974609375 93.735198974609375 71.3047027587890625 7.5212998390197753906 0.0087999999523162841797 0 6.6591000556945800781 68.045196533203125 53.482898712158203125 98.43160247802734375 86.58159637451171875 74.064697265625 83.61519622802734375 73.933197021484375 87.57559967041015625 93.11309814453125 80.67569732666015625 91.36949920654296875 79.21669769287109375 74.064697265625 87.049896240234375 62.0959014892578125 50.651401519775390625 49.03179931640625 63.471500396728515625 63.900798797607421875 10.899900436401367188 5.9493999481201171875 15.659199714660644531 34.118999481201171875 44.580699920654296875 54.24520111083984375 19.284999847412109375 12.845000267028808594 0 0 0 0 0 0 0 0 0 0 0 0 0.0087999999523162841797 0 0.0087999999523162841797 0.0087999999523162841797 0 0.6571000218391418457 0.61330002546310424805 2.4665999412536621094 1.4106999635696411133 1.9627000093460083008 0.35049998760223388672 0 
0 13.01399993896484375 78.12139892578125 68.045196533203125 87.12870025634765625 82.12560272216796875 85.00830078125 82.1869964599609375 90.8000030517578125 77.70960235595703125 91.2628021240234375 80.3820037841796875 86.04219818115234375 92.9553985595703125 92.5084991455078125 85.96340179443359375 86.2776031494140625 11.784799575805664063 0 0 45.4832000732421875 94.15579986572265625 95.31009674072265625 97.7306976318359375 95.04949951171875 93.31459808349609375 95.07579803466796875 71.4010009765625 97.0991973876953125 88.61820220947265625 95.15460205078125 98.9748992919921875 99.86859893798828125 79.64600372314453125 93.3385009765625 90.8787994384765625 98.0724029541015625 93.38469696044921875 99.86859893798828125 69.70999908447265625 98.49289703369140625 98.90570068359375 98.16880035400390625 99.132598876953125 48.15560150146484375 0.56950002908706665039 0 0 0 31.569299697875976563 56.129001617431640625 91.60610198974609375 76.73709869384765625 24.639600753784179688 20.862199783325195313 0.8324000239372253418 33.137699127197265625 85.910797119140625 92.92040252685546875 93.93779754638671875 94.812896728515625 95.6540985107421875 92.58740234375 98.81710052490234375 86.98850250244140625 95.29270172119140625 87.91729736328125 87.3040008544921875 92.1930999755859375 81.00409698486328125 42.460399627685546875 31.5876007080078125 56.26039886474609375 4.9593000411987304688 5.966899871826171875 25.260700225830078125 43.80970001220703125 2.2321000099182128906 6.9306998252868652344 7.1936001777648925781 0 0.087600000202655792236 0.19280000030994415283 0 0 0.63090002536773681641 0.63090002536773681641 0.0087999999523162841797 0 0 10.317899703979492188 9.5504999160766601563 83.1244964599609375 91.22049713134765625 60.6501007080078125 70.8314971923828125 14.834099769592285156 31.534200668334960938 54.709499359130859375 96.749298095703125 85.51650238037109375 86.11229705810546875 62.3936004638671875 6.6065001487731933594 0.7534999847412109375 2.3043999671936035156 0.50819998979568481445 0.20149999856948852539 0.086900003254413604736 0 27.591299057006835938 65.09239959716796875 67.16899871826171875 77.63079833984375 16.87509918212890625 0.026300000026822090149 0 3.9867000579833984375 48.952899932861328125 66.2928009033203125 76.79840087890625 81.64839935302734375 88.8722991943359375 76.8860015869140625 62.490100860595703125 59.081699371337890625 73.7843017578125 89.69080352783203125 86.19120025634765625 82.09059906005859375 76.07990264892578125 76.76329803466796875 42.837100982666015625 14.590900421142578125 0 2.0852999687194824219 4.004199981689453125 3.9340999126434326172 51.5027008056640625 76.12470245361328125 77.7884979248046875 65.5919036865234375 64.47029876708984375 10.584400177001953125 5.4674000740051269531 0 0 0 0 0 0 0.0087000001221895217896 0 0.0087999999523162841797 0.10509999841451644897 0 0 0.69220000505447387695 0 0 0 0 0 0 0 0 0.53450000286102294922 2.6198000907897949219 0.27000001072883605957 
0 17.855899810791015625 73.8760986328125 76.16809844970703125 89.21929931640625 84.07959747314453125 89.035400390625 93.283203125 79.247802734375 86.9114990234375 73.00879669189453125 91.2301025390625 91.74340057373046875 82.8583984375 73.46019744873046875 53.336299896240234375 31.63159942626953125 0.0087999999523162841797 0 22.557500839233398438 89.45130157470703125 83.84960174560546875 96.2017974853515625 99.43360137939453125 94.47789764404296875 97.44249725341796875 78.78759765625 82.2655029296875 94.4824981689453125 97.07080078125 95.893798828125 98.283203125 90.58409881591796875 92.1593017578125 89.2017974853515625 93.37169647216796875 99.00879669189453125 96.7344970703125 100 89.99120330810546875 86.04419708251953125 99.02629852294921875 97.3363037109375 97.35399627685546875 64.90270233154296875 1.0088000297546386719 0 0 0 35.699100494384765625 60.477901458740234375 89.29199981689453125 92.52210235595703125 56.1139984130859375 16.177000045776367188 9.5929002761840820313 30.645999908447265625 88.02649688720703125 95.3009033203125 94.30699920654296875 95.95580291748046875 95.15039825439453125 97.18579864501953125 89.0531005859375 94.53099822998046875 90.50879669189453125 97.7344970703125 90.51329803466796875 97.39820098876953125 79.3009033203125 88.6990966796875 95.3946990966796875 98.54869842529296875 69.44249725341796875 22.964599609375 24.123899459838867188 8.7875995635986328125 22.201799392700195313 0 0 0 0.15039999783039093018 4.9204001426696777344 0 0 3.6282999515533447266 4.67259979248046875 0 0 0 1.8509000539779663086 2.2565999031066894531 54.34510040283203125 11.70800018310546875 45.25659942626953125 89.36280059814453125 40.421100616455078125 0 32 89.32740020751953125 99.44249725341796875 85.40709686279296875 88.85959625244140625 34.25659942626953125 4.9026999473571777344 1.3451000452041625977 6.1238999366760253906 0 0.27189999818801879883 0.070799998939037322998 2.7699000835418701172 9.6372003555297851563 90.07959747314453125 82.63719940185546875 27.157899856567382813 0 0 0.76109999418258666992 85.16809844970703125 97.61949920654296875 93.50440216064453125 83.35089874267578125 91.39820098876953125 89.18579864501953125 66.29199981689453125 93.38050079345703125 90.53099822998046875 80.34210205078125 71.9822998046875 78.0531005859375 40.23889923095703125 51.681400299072265625 56.787601470947265625 43.728099822998046875 1.8673000335693359375 1.1947000026702880859 3.663700103759765625 35.522098541259765625 76.1416015625 80.84210205078125 70.61060333251953125 79.3009033203125 23.575199127197265625 15.885000228881835938 5.5928997993469238281 0 0 0.77880001068115234375 1.9735000133514404297 0.035399999469518661499 0 0 0.1326999962329864502 0.12389999628067016602 1.0885000228881835938 4.0795998573303222656 1.8938000202178955078 0.026499999687075614929 0 0 0 0 0 0.27430000901222229004 0 0 0.061900001019239425659 0 0.63639998435974121094 
0 17.143899917602539063 77.83229827880859375 47.28820037841796875 86.48600006103515625 80.60109710693359375 92.000396728515625 68.28179931640625 89.53820037841796875 85.96340179443359375 86.11260223388671875 95.1371002197265625 92.37709808349609375 80.94280242919921875 63.497798919677734375 63.63800048828125 45.683498382568359375 0 0.68339997529983520508 63.63800048828125 88.81980133056640625 84.85939788818359375 78.46970367431640625 69.12290191650390625 89.5644989013671875 88.881103515625 84.4651031494140625 89.20529937744140625 93.63379669189453125 95.99579620361328125 98.58930206298828125 99.80719757080078125 79.00640106201171875 96.98590087890625 95.726898193359375 69.1405029296875 95.99579620361328125 97.70439910888671875 99.49179840087890625 95.61029815673828125 99.824798583984375 96.97760009765625 82.3535003662109375 78.18280029296875 60.264598846435546875 0.76230001449584960938 0 0 0 4.6964001655578613281 42.25009918212890625 61.780399322509765625 46.701099395751953125 36.755298614501953125 48.91790008544921875 33.76850128173828125 6.9657001495361328125 66.3542022705078125 90.28299713134765625 86.7378997802734375 96.33750152587890625 89.2490997314453125 97.20490264892578125 95.25099945068359375 90.53710174560546875 88.60520172119140625 95.86440277099609375 95.08460235595703125 96.62670135498046875 88.11879730224609375 92.1143035888671875 89.51709747314453125 92.92040252685546875 97.231201171875 94.76039886474609375 36.36199951171875 9.3402004241943359375 33.35070037841796875 1.4457000494003295898 0 0 0 0.043800000101327896118 0.0087999999523162841797 0 0.0087999999523162841797 4.8014998435974121094 0.28040000796318054199 0 10.95240020751953125 79.87670135498046875 30.018400192260742188 0 0.28040000796318054199 87.3040008544921875 91.50969696044921875 55.20240020751953125 8.3063001632690429688 53.62310028076171875 72.39990234375 84.32489776611328125 72.2509002685546875 90.55059814453125 96.9069976806640625 59.98419952392578125 15.377200126647949219 6.413700103759765625 2.0678000450134277344 0.28659999370574951172 0 0.035000000149011611938 11.259099960327148438 55.647098541259765625 67.94879913330078125 19.645599365234375 1.0951999425888061523 2.1991999149322509766 0.29789999127388000488 75.6417999267578125 87.91729736328125 80.127899169921875 93.35590362548828125 89.993896484375 80.54850006103515625 87.33899688720703125 77.253997802734375 63.83950042724609375 79.68560028076171875 77.30660247802734375 54.989898681640625 21.589399337768554688 29.51020050048828125 63.559101104736328125 66.63189697265625 11.08390045166015625 2.1554000377655029297 10.838500022888183594 53.079799652099609375 83.61519622802734375 68.143096923828125 73.97699737548828125 77.0962982177734375 17.769199371337890625 4.0392999649047851563 0 0 0 0.77979999780654907227 0 0 1.5595999956130981445 0.62529999017715454102 0.40299999713897705078 0.56950002908706665039 0.070100001990795135498 0.84990000724792480469 0.14900000393390655518 0 0 0 0 0 0 0.052600000053644180298 0 0 0 0 0 
0 17.4561004638671875 77.5782012939453125 82.9842987060546875 81.214202880859375 87.154998779296875 88.81099700927734375 86.0597991943359375 89.73979949951171875 90.1865997314453125 85.06169891357421875 79.8300018310546875 93.8227996826171875 93.980499267578125 89.0738983154296875 71.81279754638671875 7.5907998085021972656 46.75370025634765625 80.268096923828125 96.5915985107421875 64.60179901123046875 33.242801666259765625 2.3796999454498291016 14.991700172424316406 97.783203125 88.4781036376953125 94.22589874267578125 84.11460113525390625 87.12000274658203125 91.6410980224609375 94.60260009765625 87.68070220947265625 90.40570068359375 73.100799560546875 58.042400360107421875 20.7220001220703125 36.22190093994140625 93.31459808349609375 91.60610198974609375 65.39029693603515625 80.8376007080078125 80.67569732666015625 94.3748016357421875 94.8217010498046875 10.847299575805664063 2.3218998908996582031 0 0 0 0 1.0427000522613525391 3.7676000595092773438 52.562900543212890625 79.312103271484375 91.79010009765625 94.593902587890625 15.727700233459472656 7.2986998558044433594 70.638702392578125 90.48979949951171875 94.48870086669921875 92.6750030517578125 92.7451019287109375 97.11730194091796875 95.1284027099609375 86.442596435546875 95.8206024169921875 96.78440093994140625 96.37259674072265625 90.82630157470703125 83.5977020263671875 69.03769683837890625 76.3865966796875 95.41750335693359375 98.510498046875 61.45619964599609375 14.641200065612792969 53.83879852294921875 36.239398956298828125 0 0 0 0 0 0 9.7082004547119140625 0.15770000219345092773 0 0 16.796600341796875 70.00170135498046875 47.76129913330078125 0 1.743600010871887207 79.1027984619140625 77.22769927978515625 53.83879852294921875 2.2430999279022216797 1.3668999671936035156 15.350899696350097656 14.255700111389160156 22.658399581909179688 64.2261962890625 93.6475982666015625 98.78209686279296875 88.2415008544921875 58.48590087890625 25.663700103759765625 0.99879997968673706055 0.043800000101327896118 0.34169998764991760254 53.658100128173828125 71.59380340576171875 77.63079833984375 55.34999847412109375 5.7302999496459960938 43.04740142822265625 25.435899734497070313 89.1439971923828125 90.81749725341796875 82.32720184326171875 81.90899658203125 91.77249908447265625 72.0055999755859375 84.14969635009765625 78.804901123046875 82.5988006591796875 72.92859649658203125 70.40219879150390625 68.64980316162109375 38.9029998779296875 46.744899749755859375 67.624603271484375 13.982999801635742188 0.0087999999523162841797 2.8038001060485839844 61.771701812744140625 79.52339935302734375 85.7794036865234375 71.5823974609375 89.476898193359375 66.5906982421875 10.908599853515625 8.5516996383666992188 0 0 0 1.7698999643325805664 1.6033999919891357422 0.40299999713897705078 7.5089998245239257813 12.211199760437011719 0 0.26289999485015869141 0.052600000053644180298 0 0 0 0 0 0 0.0087999999523162841797 0 0 0 0 0 0 0.01799999922513961792 
0 15.538299560546875 63.541599273681640625 82.6864013671875 76.31580352783203125 75.484100341796875 81.87149810791015625 85.078399658203125 85.9897003173828125 72.2158966064453125 87.74539947509765625 91.8863983154296875 92.89409637451171875 67.17780303955078125 97.5991973876953125 96.04840087890625 81.38790130615234375 96.79309844970703125 98.41410064697265625 76.9561004638671875 12.363100051879882813 0 0 0 85.20110321044921875 98.08989715576171875 95.05829620361328125 83.9217987060546875 98.5670013427734375 95.86440277099609375 97.48529815673828125 99.64949798583984375 99.6757965087890625 91.72869873046875 79.24269866943359375 18.67169952392578125 11.960000038146972656 95.119598388671875 85.910797119140625 38.981899261474609375 74.42389678955078125 92.9302978515625 96.915802001953125 97.71309661865234375 17.217199325561523438 0.67470002174377441406 0 0 0 0 0 6.2648000717163085938 59.037899017333984375 38.987300872802734375 66.47679901123046875 89.3191986083984375 19.994699478149414063 0.21029999852180480957 4.7839999198913574219 80.0503997802734375 98.12490081787109375 95.7241973876953125 90.5458984375 91.59729766845703125 92.02660369873046875 90.4029998779296875 94.3047027587890625 95.16339874267578125 90.028900146484375 89.04759979248046875 86.182403564453125 87.43270111083984375 92.87650299072265625 91.00150299072265625 99.49179840087890625 98.08989715576171875 94.8917999267578125 38.969898223876953125 35.170398712158203125 0 0 0 0 0 0.80769997835159301758 26.277099609375 0.3680000007152557373 3.4258999824523925781 0 0 3.9430000782012939453 36.09040069580078125 0.40299999713897705078 0 12.003899574279785156 91.23809814453125 85.0009002685546875 43.336498260498046875 16.630199432373046875 0 0 1.9189000129699707031 45.622699737548828125 83.8430023193359375 94.5238037109375 99.30780029296875 79.9701995849609375 77.53440093994140625 35.600101470947265625 0.74479997158050537109 0.86739999055862426758 1.5420999526977539063 44.0287017822265625 94.16449737548828125 46.8993988037109375 20.940999984741210938 64.505401611328125 77.81479644775390625 82.88790130615234375 91.15920257568359375 87.943603515625 78.69550323486328125 96.67919921875 85.62169647216796875 79.2079010009765625 91.4922027587890625 71.15570068359375 63.444499969482421875 82.23079681396484375 73.7667999267578125 52.273700714111328125 62.227298736572265625 35.8889007568359375 0.034699998795986175537 0.90249997377395629883 22.754800796508789063 80.960296630859375 77.8936004638671875 75.6593017578125 74.4138031005859375 77.1313018798828125 47.700000762939453125 5.7740998268127441406 3.9077999591827392578 0.20149999856948852539 0 1.1039999723434448242 17.252300262451171875 40.19100189208984375 42.258800506591796875 12.757399559020996094 20.470699310302734375 0.12269999831914901733 0.10509999841451644897 0 0 0 0 0 0 0.0087999999523162841797 0.30669999122619628906 0 0 0 0.18400000035762786865 0.035000000149011611938 0 0 
0 17.198200225830078125 65.50440216064453125 84.77880096435546875 88.86840057373046875 82.57520294189453125 88.06189727783203125 77.18579864501953125 73.83190155029296875 85.81420135498046875 80.71929931640625 85.34510040283203125 84.9468994140625 92.64600372314453125 91.16809844970703125 91.00879669189453125 87.50879669189453125 97.83190155029296875 75.1416015625 97.51329803466796875 88.49559783935546875 2.1326999664306640625 0 0 58.991199493408203125 96.3009033203125 89.77880096435546875 82.177001953125 92.0438995361328125 89.716796875 97.46019744873046875 98.9822998046875 99.84960174560546875 94.21240234375 71.3946990966796875 46.1239013671875 63.539798736572265625 89.50440216064453125 97.20349884033203125 94.964599609375 97.893798828125 87.35089874267578125 98.48670196533203125 73.62830352783203125 36.354000091552734375 0 0.15929999947547912598 0 0 0 0 45.0885009765625 91.23889923095703125 78.4385986328125 64.23889923095703125 73.70800018310546875 25.177000045776367188 19.36280059814453125 27.451299667358398438 87 93.23889923095703125 88.64600372314453125 93.38050079345703125 84.18579864501953125 46.41590118408203125 84.3860015869140625 92.1593017578125 97.06189727783203125 91.318603515625 87.9468994140625 83.95580291748046875 70.2982025146484375 88.7344970703125 88.0531005859375 91.07080078125 86.44249725341796875 97.47789764404296875 52.0438995361328125 86.27429962158203125 40.354000091552734375 14.734499931335449219 8.1326999664306640625 0.44249999523162841797 0 0 0 0 3.4247999191284179688 0 6.7698998451232910156 6.4560999870300292969 0.76109999418258666992 0 0 0 12.539799690246582031 37.64910125732421875 83.0177001953125 70.93810272216796875 0.54869997501373291016 0 0 0 25.610599517822265625 86.92040252685546875 99.6990966796875 75.46900177001953125 94.09729766845703125 77 34.9822998046875 1.5751999616622924805 0 46.1416015625 51.32740020751953125 48.35089874267578125 33.407100677490234375 90.283203125 92.72570037841796875 77.54869842529296875 88.318603515625 89.76110076904296875 92.57019805908203125 98.1239013671875 63.389400482177734375 97.54869842529296875 77.72570037841796875 86.35399627685546875 73.35959625244140625 81.40709686279296875 78.964599609375 59.70800018310546875 34.026500701904296875 1.9558000564575195313 6.3070001602172851563 6.5486998558044433594 39.265499114990234375 81.15039825439453125 70.20349884033203125 85.8052978515625 71.21929931640625 83.69029998779296875 27.044200897216796875 14.035400390625 11.185799598693847656 1.2832000255584716797 0 1.7345000505447387695 24.34510040283203125 82.84960174560546875 28.265499114990234375 11.778800010681152344 5.5439000129699707031 0.44249999523162841797 0.0087999999523162841797 0 0 0 0 0 0 0 0 0 0 0 0.026499999687075614929 0 0 0 
0 22.326299667358398438 74.651702880859375 87.943603515625 92.5915985107421875 77.92870330810546875 88.714599609375 82.56369781494140625 86.077301025390625 90.72989654541015625 83.80229949951171875 88.85479736328125 88.02239990234375 75.06349945068359375 84.95580291748046875 85.0258026123046875 89.4302978515625 87.3302001953125 75.89589691162109375 99.4654998779296875 98.930999755859375 13.0727996826171875 0 0.017500000074505805969 0.0087999999523162841797 31.280099868774414063 97.4503021240234375 88.8722991943359375 96.23940277099609375 91.860198974609375 93.77899932861328125 98.2126007080078125 94.4449005126953125 86.14739990234375 90.42040252685546875 91.7375030517578125 91.64990234375 79.76869964599609375 97.2837982177734375 94.7165985107421875 92.972900390625 91.21939849853515625 99.0800018310546875 99.0625 90.14279937744140625 25.8302001953125 0 0.13030000030994415283 0 0 0 39.72660064697265625 92.1230010986328125 42.313701629638671875 17.506399154663085938 72.1457977294921875 37.816501617431640625 30.51779937744140625 86.83080291748046875 78.47840118408203125 94.5149993896484375 95.64530181884765625 95.1020965576171875 86.3751983642578125 20.082399368286132813 49.4701995849609375 81.678802490234375 91.167999267578125 94.80419921875 88.6970977783203125 94.3748016357421875 94.68470001220703125 94.9705963134765625 95.2947998046875 95.5225982666015625 86.839599609375 92.9904022216796875 56.201099395751953125 94.11199951171875 69.9203033447265625 71.75150299072265625 35.98529815673828125 53.9822998046875 20.012300491333007813 0.026100000366568565369 0 0 0.6484000086784362793 0 1.8487999439239501953 6.8699002265930175781 0 0.84109997749328613281 0 0 0 14.981800079345703125 85.6829986572265625 88.46929931640625 2.5322000980377197266 0 0 0 5.4148998260498046875 37.527400970458984375 35.494598388671875 86.0072021484375 85.58660125732421875 98.98380279541015625 62.043300628662109375 67.87870025634765625 38.377300262451171875 62.54270172119140625 43.599399566650390625 0.13899999856948852539 8.8583002090454101563 75.177398681640625 91.097900390625 97.71309661865234375 79.80370330810546875 91.53600311279296875 86.98110198974609375 97.441497802734375 73.97699737548828125 85.96340179443359375 92.7451019287109375 83.58010101318359375 87.24160003662109375 89.03009796142578125 79.52339935302734375 82.029296875 47.402099609375 6.9745001792907714844 18.35160064697265625 45.3079986572265625 76.0973968505859375 75.79949951171875 84.43000030517578125 81.3896026611328125 78.74759674072265625 65.55680084228515625 24.80500030517578125 11.767299652099609375 3.0315999984741210938 0.98129999637603759766 0 1.2441999912261962891 46.04399871826171875 67.28289794921875 5.5637998580932617188 26.11930084228515625 7.3822999000549316406 0 0 0 0 0 0 0 0 0 0 0.026300000026822090149 0 0 0 0 0.035000000149011611938 0 
0 18.258899688720703125 69.3069000244140625 84.89440155029296875 84.3582000732421875 83.95690155029296875 76.67569732666015625 88.881103515625 77.55190277099609375 89.46820068359375 83.43759918212890625 82.5198974609375 59.922901153564453125 72.548797607421875 97.77449798583984375 89.1439971923828125 86.45999908447265625 96.64420318603515625 95.4613037109375 99.0800018310546875 96.94210052490234375 44.27410125732421875 0 0.043800000101327896118 0.017500000074505805969 46.341899871826171875 96.2761993408203125 83.4662017822265625 97.420501708984375 90.79119873046875 98.48419952392578125 97.80950164794921875 91.965301513671875 99.6056976318359375 87.1808013916015625 96.4427032470703125 93.209503173828125 98.03730010986328125 98.48419952392578125 81.27570343017578125 99.24649810791015625 77.592498779296875 92.85900115966796875 77.90239715576171875 99.35160064697265625 41.925899505615234375 0 0 0.0087999999523162841797 0 0 8.5254001617431640625 31.998600006103515625 0 1.3931000232696533203 18.11090087890625 71.18199920654296875 16.796600341796875 33.978801727294921875 71.8430023193359375 96.23239898681640625 89.3542022705078125 92.89409637451171875 90.45819854736328125 80.95149993896484375 51.103000640869140625 65.92479705810546875 86.3751983642578125 88.0048980712890625 87.57559967041015625 96.31999969482421875 91.88809967041015625 95.47010040283203125 87.64569854736328125 67.26540374755859375 87.02359771728515625 85.20980072021484375 79.7030029296875 74.651702880859375 72.2422027587890625 72.776702880859375 91.15920257568359375 74.485198974609375 12.144000053405761719 14.651700019836425781 2.1730000972747802734 0 2.6373000144958496094 0 0.096400000154972076416 49.227001190185546875 29.641599655151367188 0.59579998254776000977 0.17520000040531158447 0 0 9.2582998275756835938 87.22509765625 87.260101318359375 82.1432037353515625 12.757399559020996094 0 0 1.2266999483108520508 32.804698944091796875 0.97259998321533203125 26.469800949096679688 77.4029998779296875 97.88950347900390625 59.528598785400390625 70.15679931640625 91.13289642333984375 74.98470306396484375 37.133098602294921875 10.126799583435058594 48.479801177978515625 70.18309783935546875 93.21829986572265625 95.86440277099609375 78.83989715576171875 96.02210235595703125 89.43890380859375 83.51000213623046875 62.113399505615234375 81.6699981689453125 88.08380126953125 81.17060089111328125 72.57250213623046875 88.924896240234375 54.034900665283203125 68.5885009765625 3.9428999423980712891 17.60269927978515625 78.660797119140625 87.59310150146484375 70.8489990234375 81.62619781494140625 92.1580963134765625 86.708099365234375 77.34929656982421875 30.60540008544921875 27.757799148559570313 4.2933001518249511719 0.21029999852180480957 0 6.1055998802185058594 28.791700363159179688 79.61100006103515625 73.5565032958984375 22.816099166870117188 56.821201324462890625 28.28730010986328125 4.3284001350402832031 0.096400000154972076416 0 0 0 0 0 0 0 0 0.45559999346733093262 0 0 0 0.026300000026822090149 0 0 
0 22.254899978637695313 50.96820068359375 84.000701904296875 90.3943023681640625 69.3594970703125 97.4503021240234375 86.04219818115234375 86.156097412109375 61.114498138427734375 89.5518035888671875 78.4105987548828125 78.45439910888671875 84.5352020263671875 94.33100128173828125 85.81439971923828125 85.94750213623046875 70.6212005615234375 95.531402587890625 94.4449005126953125 67.2216033935546875 30.710599899291992188 0 0 2.5058999061584472656 33.92620086669921875 75.2563018798828125 94.1996002197265625 99.4268035888671875 97.39769744873046875 98.11620330810546875 91.5623016357421875 93.52490234375 89.15270233154296875 72.1121978759765625 75.96600341796875 69.42079925537109375 87.51419830322265625 97.16989898681640625 96.02210235595703125 98.65070343017578125 99.48760223388671875 98.5980987548828125 87.96109771728515625 93.07810211181640625 19.644300460815429688 0 0 0.20149999856948852539 0.37680000066757202148 0 3.1717998981475830078 1.7698999643325805664 0 0 2.0852999687194824219 66.38919830322265625 67.87870025634765625 11.504400253295898438 16.154199600219726563 37.29959869384765625 56.111499786376953125 95.505096435546875 95.5839996337890625 87.1374969482421875 18.099700927734375 37.93920135498046875 79.87380218505859375 85.7881011962890625 80.197998046875 86.6118011474609375 91.618896484375 95.8907012939453125 88.04869842529296875 97.55539703369140625 89.2666015625 96.07469940185546875 89.9860992431640625 95.3473968505859375 94.21710205078125 91.720001220703125 98.7382965087890625 47.20059967041015625 32.506801605224609375 36.242801666259765625 44.160198211669921875 13.002699851989746094 0.19280000030994415283 1.6648000478744506836 0 25.49069976806640625 48.523601531982421875 2.2167999744415283203 0.10509999841451644897 0 0.15770000219345092773 0 44.484401702880859375 97.56420135498046875 88.05750274658203125 21.966199874877929688 0 0 0 0 0 7.105899810791015625 14.360799789428710938 53.83010101318359375 42.75830078125 62.34999847412109375 91.308197021484375 87.8296966552734375 68.57089996337890625 64.860198974609375 53.079799652099609375 64.84709930419921875 93.72650146484375 96.3988037109375 74.2223968505859375 89.783599853515625 99.31390380859375 83.48370361328125 62.490100860595703125 74.3188018798828125 84.4387969970703125 77.2628021240234375 75.69049835205078125 71.98809814453125 81.24069976806640625 27.854200363159179688 21.098699569702148438 81.2144012451171875 75.52539825439453125 93.55999755859375 76.15000152587890625 82.589996337890625 87.1024017333984375 86.41899871826171875 68.28209686279296875 22.588300704956054688 24.971500396728515625 12.722299575805664063 0.44690001010894775391 0 53.760601043701171875 38.578800201416015625 70.41970062255859375 85.76190185546875 64.8733978271484375 54.67449951171875 77.64459991455078125 10.409199714660644531 0 0.087600000202655792236 0 0 0 0 0 0 0 0.38550001382827758789 0 0 0.0087999999523162841797 0.31540000438690185547 0.78860002756118774414 0 
0 20.68470001220703125 73.46900177001953125 76.74340057373046875 74.24559783935546875 79.83190155029296875 97.035400390625 75.46900177001953125 92.56639862060546875 81.3363037109375 94.07019805908203125 89.2655029296875 71.9822998046875 72.30970001220703125 89.9822998046875 85.86730194091796875 98.6053009033203125 90.60179901123046875 41 38.8583984375 0 0.92040002346038818359 0 0 0.053100001066923141479 0 38.442501068115234375 98 99.1053009033203125 95.43360137939453125 96.56639862060546875 88.27429962158203125 58.902698516845703125 16.796499252319335938 78.3860015869140625 99.822998046875 98.64600372314453125 93.3363037109375 99.247802734375 89.9468994140625 96.79650115966796875 98.9210968017578125 81.29199981689453125 95.58409881591796875 88.8583984375 52.54869842529296875 73.52210235595703125 7.2982001304626464844 0 5.3008999824523925781 1.6548999547958374023 1.1680999994277954102 0.053100001066923141479 0 0 43.8760986328125 88.41590118408203125 85.84960174560546875 48.424800872802734375 7.2895002365112304688 0.98229998350143432617 24.911500930786132813 29.920400619506835938 44.176998138427734375 71.35399627685546875 45.289501190185546875 68.34510040283203125 86.41590118408203125 84.04419708251953125 68.8760986328125 92.23889923095703125 92.8332977294921875 90.51329803466796875 94.9114990234375 92.72570037841796875 87.74340057373046875 93.04419708251953125 85.35089874267578125 85.681396484375 91.16809844970703125 91.2301025390625 84.7698974609375 76.69029998779296875 65.3363037109375 31.728099822998046875 19.36280059814453125 62.893798828125 37.460201263427734375 0.15929999947547912598 1.442499995231628418 0 0.23890000581741333008 9.5929002761840820313 9.7522001266479492188 0.026499999687075614929 0 0 1.4601999521255493164 47.902698516845703125 30.097299575805664063 9.1149997711181640625 13.114999771118164063 0 0 0 0 0 0 3.3157999515533447266 58.18579864501953125 21.70800018310546875 85.06189727783203125 92.964599609375 88.247802734375 99.78070068359375 75.6636962890625 68.83190155029296875 67.34510040283203125 92.42479705810546875 83.8406982421875 88.32740020751953125 92.4385986328125 74.59290313720703125 88.16809844970703125 88.70800018310546875 89.177001953125 69.45130157470703125 68.0614013671875 59.84960174560546875 32.16809844970703125 58.46900177001953125 79.035400390625 90.8760986328125 82.57019805908203125 68.78759765625 70.106201171875 75.84960174560546875 77.53980255126953125 85.70800018310546875 71.25440216064453125 26.495599746704101563 7.1946997642517089844 1.6991000175476074219 3.0353999137878417969 16.194700241088867188 60.2631988525390625 80.893798828125 74.86730194091796875 36.645999908447265625 62.645999908447265625 34.8583984375 0.017500000074505805969 0 0 0 0 0 0 0 0 0 0 0.32739999890327453613 0.24779999256134033203 0 0 0.11500000208616256714 0.35400000214576721191 0.12729999423027038574 
0 22.72769927978515625 23.587099075317382813 70.086700439453125 65.4073028564453125 68.55339813232421875 81.87149810791015625 83.35230255126953125 87.35649871826171875 84.692901611328125 91.88809967041015625 76.4741973876953125 76.5531005859375 79.9701995849609375 90.09020233154296875 63.471500396728515625 14.556200027465820313 25.602399826049804688 0 0 0 0 0 0.39430001378059387207 0.52569997310638427734 0.026300000026822090149 78.27919769287109375 95.25980377197265625 95.86589813232421875 97.63430023193359375 92.4384002685546875 99.5531005859375 95.6365966796875 91.308197021484375 88.37940216064453125 81.29329681396484375 93.39350128173828125 94.182098388671875 96.43389892578125 83.10700225830078125 97.64299774169921875 80.63230133056640625 93.53369903564453125 98.3177032470703125 92.53479766845703125 46.893901824951171875 82.87920379638671875 82.50830078125 60.80789947509765625 88.57440185546875 57.162899017333984375 4.4072999954223632813 34.1977996826171875 2.197299957275390625 0 17.225999832153320313 73.95079803466796875 92.70130157470703125 96.810699462890625 38.431499481201171875 8.9284000396728515625 8.0347003936767578125 35.161701202392578125 57.066501617431640625 73.09210205078125 97.81999969482421875 66.69589996337890625 64.95220184326171875 92.4384002685546875 94.53260040283203125 92.0879974365234375 95.3968963623046875 83.81670379638671875 94.19080352783203125 83.93060302734375 65.86350250244140625 96.17099761962890625 96.17859649658203125 79.6548004150390625 87.2339019775390625 84.70169830322265625 81.60870361328125 83.553802490234375 38.68399810791015625 38.153598785400390625 29.492700576782226563 49.513698577880859375 84.70169830322265625 7.6140999794006347656 0 0 0.17520000040531158447 0.38550001382827758789 2.6373000144958496094 9.4190998077392578125 0 0 0 0 0 1.9364000558853149414 5.8267002105712890625 6.8611998558044433594 0.17520000040531158447 5.9755997657775878906 0 0 0 0.19979999959468841553 23.122800827026367188 26.049200057983398438 16.121999740600585938 34.583400726318359375 42.04850006103515625 39.62129974365234375 76.30770111083984375 72.96070098876953125 79.77739715576171875 73.3988037109375 87.25140380859375 78.36679840087890625 85.43509674072265625 81.53859710693359375 97.20490264892578125 80.06659698486328125 86.43650054931640625 56.5933990478515625 31.448699951171875 3.5397999286651611328 37.00170135498046875 73.51270294189453125 85.86699676513671875 78.31420135498046875 79.04290008544921875 89.11769866943359375 90.1779022216796875 81.266998291015625 82.371002197265625 87.49669647216796875 63.166599273681640625 22.763500213623046875 3.7939000129699707031 1.8312000036239624023 38.508701324462890625 0.017500000074505805969 12.376199722290039063 40.4626007080078125 10.076199531555175781 8.6042003631591796875 73.1533966064453125 50.740398406982421875 6.0100998878479003906 1.8838000297546386719 0 0 0 0 0 0 0 3.0841999053955078125 2.7511999607086181641 0.67470002174377441406 0.86739999055862426758 0 0 0 1.0513999462127685547 0 
0 23.601800918579101563 62.99829864501953125 90.475799560546875 84.14099884033203125 83.2209014892578125 90.44950103759765625 66.73090362548828125 74.7042999267578125 71.6201019287109375 80.6844024658203125 88.19770050048828125 72.9430999755859375 74.485198974609375 55.9712982177734375 0 0 0 0 0.061299998313188552856 0 0 0 0 0 6.3523998260498046875 84.26360321044921875 96.39009857177734375 99.2357025146484375 98.25640106201171875 96.56529998779296875 97.9058990478515625 97.9409027099609375 99.789703369140625 97.47260284423828125 94.874298095703125 95.07579803466796875 99.64080047607421875 90.45819854736328125 98.46669769287109375 97.93219757080078125 92.30500030517578125 88.81980133056640625 99.30780029296875 94.5063018798828125 24.40200042724609375 82.64260101318359375 68.01290130615234375 92.4384002685546875 43.4066009521484375 77.77100372314453125 73.1708984375 73.81060028076171875 45.7790985107421875 7.6754999160766601563 0.15770000219345092773 31.078599929809570313 80.23310089111328125 98.9134979248046875 83.854400634765625 45.2378997802734375 10.838500022888183594 4.5473999977111816406 45.88629913330078125 58.144199371337890625 33.176998138427734375 68.597198486328125 72.548797607421875 80.5923004150390625 75.38770294189453125 81.5998992919921875 88.587799072265625 86.86589813232421875 81.60870361328125 77.61319732666015625 84.833099365234375 75.44029998779296875 86.82469940185546875 87.53179931640625 94.06819915771484375 97.18740081787109375 78.12139892578125 75.97480010986328125 66.16139984130859375 60.83029937744140625 25.059099197387695313 67.63339996337890625 88.90740203857421875 10.566900253295898438 0 0 0.77979999780654907227 1.2530000209808349609 1.1390999555587768555 0 0 0.10419999808073043823 0 0 0 0.2890999913215637207 0.2890999913215637207 2.5099999904632568359 20.844699859619140625 27.863000869750976563 0 0 0 0 2.0590999126434326172 38.666400909423828125 41.812000274658203125 60.492401123046875 71.99680328369140625 35.548000335693359375 33.9524993896484375 83.9918975830078125 81.27570343017578125 67.3704986572265625 87.96990203857421875 89.8011016845703125 81.46600341796875 84.2285003662109375 92.762603759765625 69.631103515625 85.87580108642578125 43.11750030517578125 4.603099822998046875 32.05120086669921875 77.73590087890625 91.75499725341796875 77.83229827880859375 82.3009033203125 95.5446014404296875 86.91840362548828125 77.4380035400390625 69.34200286865234375 88.21520233154296875 74.2223968505859375 27.3927001953125 8.332599639892578125 5.4236001968383789063 16.735300064086914063 62.19219970703125 2.5322000980377197266 12.523900032043457031 37.31710052490234375 0.26289999485015869141 28.458799362182617188 82.581298828125 60.641399383544921875 74.0055999755859375 46.5522003173828125 0.078900001943111419678 0.026300000026822090149 0.087600000202655792236 0 0 0 0 3.7676000595092773438 0.026300000026822090149 1.2617000341415405273 1.5946999788284301758 0 0 0 0.12269999831914901733 0.32400000095367431641 
0 27.090099334716796875 66.45130157470703125 91.46900177001953125 85.41230010986328125 75.681396484375 62.407100677490234375 77.44249725341796875 91.38939666748046875 81.22119903564453125 81.97370147705078125 87.18579864501953125 86.52210235595703125 91.9822998046875 28.203500747680664063 0 3.2718999385833740234 7.9911999702453613281 8.2477998733520507813 2.1503999233245849609 0 0 0.017500000074505805969 0.75220000743865966797 0.061900001019239425659 35.15039825439453125 82.23889923095703125 96.247802734375 97.84210205078125 94.752197265625 97.77880096435546875 98.1593017578125 91 77.318603515625 25.552600860595703125 99.11499786376953125 96.52210235595703125 77.8406982421875 89.86730194091796875 99.1239013671875 95.8760986328125 99.6753997802734375 97.40709686279296875 96.79650115966796875 92.21240234375 76.65489959716796875 87.30970001220703125 89.03510284423828125 91.27429962158203125 90.20349884033203125 96.16809844970703125 97.06189727783203125 95.9822998046875 50.157901763916015625 10.902700424194335938 0.070799998939037322998 0.30970001220703125 64.09729766845703125 76.58409881591796875 75.78070068359375 20.150400161743164063 21.336299896240234375 6.1326999664306640625 13.973500251770019531 24.716800689697265625 13.631600379943847656 46.354000091552734375 62.407100677490234375 92.0531005859375 94.39820098876953125 75.61060333251953125 88.86840057373046875 93.3009033203125 80.88500213623046875 95.78759765625 68.04419708251953125 70.3363037109375 48.52629852294921875 50.1593017578125 89.99120330810546875 80.21240234375 84.84960174560546875 86.39820098876953125 87.44249725341796875 47.8946990966796875 67.54869842529296875 73.78759765625 80.1947021484375 6.0531001091003417969 0 0 0 0 0 0 0.35400000214576721191 0 0.1326999962329864502 0 0 0 0 0 12.407099723815917969 33.34510040283203125 0 0 0 0.03510000184178352356 0 0 22.079599380493164063 60.938098907470703125 60.77880096435546875 96.14910125732421875 91.56639862060546875 86.247802734375 84.8052978515625 93.035400390625 92.07080078125 78.16809844970703125 93.3860015869140625 75.79650115966796875 85.77880096435546875 86.83190155029296875 96.681396484375 66.88500213623046875 9.2368001937866210938 56.716800689697265625 86.1593017578125 92.06189727783203125 71.893798828125 80.37169647216796875 85.1753997802734375 86.46019744873046875 83.45130157470703125 89.893798828125 91.41590118408203125 69.38939666748046875 39.64910125732421875 3.9381000995635986328 17.230100631713867188 68.1239013671875 85.53980255126953125 26.25659942626953125 20.91230010986328125 35.920398712158203125 0.50440001487731933594 54.787601470947265625 80.38050079345703125 80.22119903564453125 76.80699920654296875 7.645999908447265625 0 0 0 0 0 0 0.19470000267028808594 2.2388999462127685547 0 0.2212000042200088501 1.8052999973297119141 2.58769989013671875 0.49559998512268066406 2.0264999866485595703 0 0 
0 26.590000152587890625 80.294403076171875 92.3332977294921875 78.0093994140625 88.91609954833984375 76.07109832763671875 89.11769866943359375 75.4315032958984375 60.5449981689453125 74.361602783203125 75.98349761962890625 54.034900665283203125 8.8934001922607421875 9.4365997314453125 49.38230133056640625 85.38300323486328125 71.96179962158203125 79.45330047607421875 0 0 0 0 1.2179000377655029297 0.89370000362396240234 77.4380035400390625 83.65019989013671875 98.00229644775390625 80.44989776611328125 74.58159637451171875 96.4427032470703125 99.64080047607421875 95.74169921875 80.2154998779296875 8.0858001708984375 90.37059783935546875 92.9553985595703125 89.3892974853515625 95.76799774169921875 96.2061004638671875 64.72440338134765625 96.8907012939453125 99.684600830078125 98.93979644775390625 92.92040252685546875 74.59909820556640625 85.95459747314453125 89.447601318359375 92.657501220703125 99.79850006103515625 76.3865966796875 98.10739898681640625 65.4253997802734375 13.739800453186035156 24.016500473022460938 3.6273999214172363281 0.60460001230239868164 22.9738006591796875 29.3087005615234375 3.7780001163482666016 0 12.739899635314941406 6.0370001792907714844 7.3688001632690429688 14.264399528503417969 10.326600074768066406 28.57270050048828125 9.7958002090454101563 68.903900146484375 86.6118011474609375 87.20760345458984375 98.54959869384765625 92.66629791259765625 81.00409698486328125 87.8560028076171875 99.237701416015625 88.83730316162109375 42.209499359130859375 11.898699760437011719 82.2834014892578125 74.90579986572265625 84.50890350341796875 88.54810333251953125 89.06510162353515625 31.05780029296875 59.686298370361328125 70.5861968994140625 90.23919677734375 30.097299575805664063 12.450699806213378906 0.017400000244379043579 0 0 0 0 0 0 0 3.268199920654296875 2.1029000282287597656 0 0 0 0.25409999489784240723 0.11389999836683273315 0 0 0.017500000074505805969 0.81639999151229858398 0 22.903699874877929688 95.39119720458984375 83.88680267333984375 73.8018035888671875 92.3657989501953125 92.47350311279296875 85.34999847412109375 87.295196533203125 93.0518035888671875 94.86550140380859375 47.717498779296875 25.898899078369140625 29.203500747680664063 80.9691009521484375 80.75879669189453125 64.119903564453125 14.150500297546386719 24.09239959716796875 39.717899322509765625 98.6945037841796875 83.9131011962890625 84.7104034423828125 86.25250244140625 88.45749664306640625 89.93250274658203125 73.53890228271484375 70.64749908447265625 78.30539703369140625 39.5951995849609375 35.40039825439453125 12.328000068664550781 42.4691009521484375 87.80339813232421875 83.9918975830078125 53.991100311279296875 1.7369999885559082031 0 6.6765999794006347656 38.850399017333984375 87.45290374755859375 85.078399658203125 79.60739898681640625 55.848598480224609375 0.15770000219345092773 0.0087999999523162841797 0.017500000074505805969 0.15770000219345092773 0 0.15629999339580535889 0.026300000026822090149 0 0 0 0 0 0.087600000202655792236 0.035000000149011611938 0.58700001239776611328 0 
0 29.97949981689453125 66.8798980712890625 94.9093017578125 74.830596923828125 85.6479034423828125 76.973602294921875 78.5507965087890625 86.66429901123046875 84.33370208740234375 85.799896240234375 76.036102294921875 63.611698150634765625 12.398099899291992188 54.858501434326171875 86.6204986572265625 79.737701416015625 79.847503662109375 26.557399749755859375 0 0 0.061299998313188552856 0 0 27.284700393676757813 67.49320220947265625 99.24649810791015625 97.41519927978515625 94.45020294189453125 71.48870086669921875 94.83049774169921875 99.26399993896484375 99.2552032470703125 65.61820220947265625 0.88590002059936523438 83.553802490234375 98.992401123046875 94.7165985107421875 98.53679656982421875 89.29290008544921875 97.055999755859375 98.4192962646484375 98.86090087890625 98.852203369140625 98.17749786376953125 57.399501800537109375 86.6905975341796875 85.799896240234375 83.66770172119140625 82.71269989013671875 98.27390289306640625 93.3321990966796875 33.10260009765625 1.7195999622344970703 5.4499001502990722656 25.909099578857421875 6.3260998725891113281 0.017500000074505805969 0 0 0 27.6175994873046875 34.425701141357421875 9.1036996841430664063 3.8640000820159912109 4.5162000656127929688 20.581800460815429688 31.288900375366210938 13.414500236511230469 60.67639923095703125 65.14499664306640625 72.05139923095703125 95.5926971435546875 95.74169921875 78.2003021240234375 96.51270294189453125 88.91609954833984375 42.41790008544921875 74.85320281982421875 91.47460174560546875 73.27610015869140625 87.5579986572265625 91.9477996826171875 85.05210113525390625 82.2042999267578125 63.024600982666015625 86.82199859619140625 70.4459991455078125 77.07879638671875 38.19329833984375 23.814500808715820313 0 0 0 0 0 0 0 0.23659999668598175049 2.8213000297546386719 0.035000000149011611938 0 0 0.34169998764991760254 0 8.2449998855590820313 0 0 0 0 3.0841999053955078125 78.12139892578125 93.53369903564453125 83.9832000732421875 93.086700439453125 91.36949920654296875 92.6399993896484375 97.58170318603515625 94.61139678955078125 96.8282012939453125 86.13860321044921875 65.45079803466796875 61.28099822998046875 59.073001861572265625 19.3376007080078125 24.708700180053710938 39.0782012939453125 39.630001068115234375 86.28759765625 95.40000152587890625 69.8589019775390625 88.539398193359375 97.58170318603515625 81.87419891357421875 88.46929931640625 81.44219970703125 77.63950347900390625 82.9141998291015625 43.1613006591796875 30.397800445556640625 12.266699790954589844 71.23459625244140625 82.63379669189453125 88.2239990234375 36.589900970458984375 0 0 0.19280000030994415283 46.59600067138671875 76.8860015869140625 83.18579864501953125 86.67710113525390625 54.5343017578125 11.557000160217285156 4.205699920654296875 3.4084000587463378906 1.0163999795913696289 0.052600000053644180298 0 0 0 0 0 0 0 0 0 0 0 
0 24.163799285888671875 83.43990325927734375 94.7516021728515625 86.07779693603515625 83.45749664306640625 86.97100067138671875 90.2566986083984375 90.68609619140625 91.38700103759765625 80.97969818115234375 92.0879974365234375 91.05410003662109375 82.69519805908203125 76.62310028076171875 87.9347991943359375 90.298797607421875 69.93779754638671875 1.0513999462127685547 0 0 1.7698999643325805664 0 0 33.785999298095703125 68.6060028076171875 98.5630035400390625 87.14620208740234375 90.924102783203125 90.57219696044921875 97.75689697265625 97.54669952392578125 95.57520294189453125 52.273700714111328125 0.060800001025199890137 48.768901824951171875 94.62889862060546875 99.26399993896484375 98.27390289306640625 73.60900115966796875 95.4438018798828125 98.81009674072265625 99.0010986328125 98.23889923095703125 95.39119720458984375 85.8495025634765625 93.79650115966796875 89.88189697265625 87.35649871826171875 96.04840087890625 97.79199981689453125 76.35150146484375 60.60630035400390625 0.38209998607635498047 0.10509999841451644897 0 19.022199630737304688 0 0 0.060800001025199890137 5.5550999641418457031 69.07039642333984375 26.250799179077148438 5.1957998275756835938 19.398899078369140625 4.2644000053405761719 9.971099853515625 17.830499649047851563 5.9142999649047851563 50.90689849853515625 98.80840301513671875 68.75980377197265625 23.368099212646484375 61.324798583984375 98.89600372314453125 86.73439788818359375 66.10009765625 89.421600341796875 72.98690032958984375 92.972900390625 91.85140228271484375 76.60559844970703125 83.2910003662109375 92.4208984375 94.98000335693359375 49.662700653076171875 29.816900253295898438 8.2799997329711914063 1.4544999599456787109 0.12269999831914901733 1.7891000509262084961 1.4631999731063842773 1.2791999578475952148 3.5660998821258544922 0 0 0 0.11389999836683273315 0 0 0 0 0 0 0 34.99520111083984375 12.836199760437011719 0 0 0.017500000074505805969 0.19280000030994415283 28.318599700927734375 93.13939666748046875 90.30930328369140625 95.1277008056640625 94.69899749755859375 93.08679962158203125 98.6945037841796875 93.980499267578125 93.349700927734375 66.40670013427734375 56.652801513671875 50.1269989013671875 39.446201324462890625 78.76979827880859375 49.61009979248046875 62.00820159912109375 41.445201873779296875 93.1920013427734375 85.01709747314453125 68.30809783935546875 78.18280029296875 93.27960205078125 87.65850067138671875 83.76409912109375 86.41899871826171875 83.48370361328125 82.17819976806640625 48.0066986083984375 39.3433990478515625 14.921600341796875 54.4553985595703125 58.748798370361328125 45.57080078125 11.705900192260742188 0 0 12.442000389099121094 80.5572967529296875 81.95040130615234375 78.0337982177734375 67.04010009765625 15.096799850463867188 3.0929999351501464844 1.0690000057220458984 0.84109997749328613281 0.28040000796318054199 0 0 0 0 0 0 0 0 0 0 0 0 
0 24.279300689697265625 73.00879669189453125 89.84960174560546875 77.78949737548828125 86.1947021484375 89.06189727783203125 81.1947021484375 80.07080078125 83.035400390625 85.00879669189453125 72.07080078125 89.106201171875 77.0885009765625 88.51329803466796875 88.67259979248046875 11.649100303649902344 23.451299667358398438 0 0.026499999687075614929 0 3.0885000228881835938 0 1.9469000101089477539 70.54869842529296875 88.65489959716796875 97.56639862060546875 82.78759765625 82.7368011474609375 87.1416015625 92.99120330810546875 94.36280059814453125 99.681396484375 29 0 3.0796000957489013672 76.752197265625 98.36280059814453125 88.09729766845703125 94.60179901123046875 91.74340057373046875 98.3332977294921875 97.9822998046875 90.07959747314453125 85.65489959716796875 99.47789764404296875 73.13269805908203125 93.0438995361328125 91.58409881591796875 93.43360137939453125 94.3009033203125 95.55750274658203125 5.8407001495361328125 0 0.73449999094009399414 0 29.734500885009765625 2.1238999366760253906 0.026499999687075614929 0.03510000184178352356 65.92919921875 62.38050079345703125 15.619500160217285156 19.628299713134765625 1.3451000452041625977 27.333299636840820313 86.84960174560546875 23.69029998779296875 12.300900459289550781 63.026500701904296875 96.13269805908203125 97.2982025146484375 64.42479705810546875 94.681396484375 90.6636962890625 90.72570037841796875 82.63719940185546875 86.35959625244140625 98.18579864501953125 96.46019744873046875 99.97350311279296875 96.86730194091796875 69.11499786376953125 86.40709686279296875 98.30699920654296875 80.40709686279296875 2.5397999286651611328 0 0 0 4.4386000633239746094 28.920400619506835938 57.805301666259765625 12.079600334167480469 0 0 0 0.097300000488758087158 0 0 0 0 0 0 0 0 0 0.36280000209808349609 0 0 0 14.354000091552734375 91.0177001953125 99.61949920654296875 96.2368011474609375 86.04419708251953125 56.70800018310546875 90.3363037109375 95.07959747314453125 81.18579864501953125 70.44249725341796875 51.28070068359375 47.0885009765625 84.39820098876953125 85.46019744873046875 63.902698516845703125 73.25659942626953125 90.0438995361328125 88.00879669189453125 73.11499786376953125 85.45130157470703125 70.97350311279296875 79.7344970703125 87.30699920654296875 77.54869842529296875 91.02649688720703125 85.92919921875 88.84960174560546875 73.2301025390625 29.30699920654296875 14.132699966430664063 13.141599655151367188 15.849599838256835938 42 51.45130157470703125 0.62279999256134033203 0 11.29199981689453125 82.18579864501953125 76.50440216064453125 51.513301849365234375 19.964899063110351563 11.079600334167480469 5.7434000968933105469 0 0 0.044199999421834945679 0 0 0 0 0 0.0087999999523162841797 0 0 0 0 0 0 
0 8.7325000762939453125 83.94809722900390625 92.98169708251953125 82.4214019775390625 75.98349761962890625 82.1869964599609375 82.8441009521484375 80.714996337890625 85.8495025634765625 96.28279876708984375 86.357696533203125 87.41790008544921875 92.13179779052734375 82.02050018310546875 44.9225006103515625 0.40819999575614929199 0.30669999122619628906 2.2079999446868896484 0.078900001943111419678 0 0 0.52979999780654907227 44.7910003662109375 82.03800201416015625 91.4922027587890625 93.91049957275390625 97.86209869384765625 98.6885986328125 79.00640106201171875 96.64420318603515625 84.57019805908203125 99.40419769287109375 65.48670196533203125 3.1614000797271728516 0 36.71250152587890625 97.8007965087890625 97.57289886474609375 92.56109619140625 98.57180023193359375 90.2118988037109375 91.77249908447265625 89.22280120849609375 72.28600311279296875 88.81099700927734375 82.87920379638671875 94.27649688720703125 88.35540008544921875 87.18129730224609375 81.61750030517578125 95.96070098876953125 60.7816009521484375 0.30399999022483825684 2.1029000282287597656 0 15.727700233459472656 6.1946997642517089844 0.25409999489784240723 0 10.216400146484375 0.40299999713897705078 0 33.698398590087890625 66.2227020263671875 29.451099395751953125 56.444400787353515625 82.1869964599609375 14.09799957275390625 35.144100189208984375 31.420299530029296875 63.479198455810546875 70.03420257568359375 86.839599609375 90.69480133056640625 70.3583984375 82.8090972900390625 97.57689666748046875 98.72080230712890625 73.60030364990234375 88.881103515625 90.4844970703125 73.47760009765625 88.81099700927734375 97.68109893798828125 92.210601806640625 8.4639997482299804688 0.6484000086784362793 43.800899505615234375 63.23490142822265625 82.351898193359375 67.95760345458984375 61.850498199462890625 28.800500869750976563 11.758500099182128906 2.6373000144958496094 0 0 0 0.27160000801086425781 0 0.026300000026822090149 0 0 0 0 0 0 16.553800582885742188 1.9627000093460083008 0.2890999913215637207 62.910701751708984375 87.28639984130859375 97.06479644775390625 99.22699737548828125 91.45709991455078125 98.05480194091796875 97.9409027099609375 96.88079833984375 91.413299560546875 72.776702880859375 24.587499618530273438 34.390598297119140625 8.6830997467041015625 2.7599999904632568359 47.507198333740234375 56.36550140380859375 89.77770233154296875 74.30999755859375 78.31420135498046875 69.55229949951171875 89.170196533203125 93.4373016357421875 92.64369964599609375 78.0426025390625 90.9402008056640625 68.28179931640625 92.59619903564453125 56.5233001708984375 64.3130035400390625 10.058699607849121094 13.668600082397460938 16.358499526977539063 90.3881988525390625 26.145599365234375 0.26060000061988830566 0 0.18400000035762786865 47.69120025634765625 60.66770172119140625 22.781000137329101563 18.030199050903320313 7.1146998405456542969 6.33489990234375 0 0 0.096400000154972076416 0 0.060800001025199890137 0 0 0 0 0 0 0 0 0 0 
0 25.064699172973632813 73.8719024658203125 89.11769866943359375 74.8740997314453125 83.3961029052734375 85.14849853515625 90.966400146484375 82.47609710693359375 71.73400115966796875 90.941497802734375 89.65219879150390625 89.40679931640625 75.30010223388671875 53.24629974365234375 71.42729949951171875 0 0 0.96380001306533813477 0.096400000154972076416 0.66589999198913574219 2.49720001220703125 5.8102998733520507813 40.322399139404296875 94.17330169677734375 97.08229827880859375 94.252197265625 99.47429656982421875 96.71700286865234375 97.49410247802734375 94.5238037109375 98.96610260009765625 99.66699981689453125 96.915802001953125 13.461899757385253906 0 24.594800949096679688 96.78440093994140625 99.80719757080078125 98.0724029541015625 94.9618988037109375 97.5334014892578125 94.22589874267578125 95.83809661865234375 97.08229827880859375 84.5438995361328125 83.2384033203125 92.28759765625 88.99500274658203125 90.642303466796875 99.0010986328125 98.2826995849609375 36.300701141357421875 7.7470998764038085938 7.5089998245239257813 0.026300000026822090149 10.95240020751953125 13.230500221252441406 1.3406000137329101563 0.017400000244379043579 1.1215000152587890625 0.026300000026822090149 0 0 22.7285003662109375 2.2493999004364013672 0 61.105800628662109375 66.88860321044921875 10.996199607849121094 6.501399993896484375 2.7878999710083007813 1.323099970817565918 7.3425002098083496094 13.11660003662109375 23.271699905395507813 36.677501678466796875 77.44480133056640625 98.2913970947265625 95.47010040283203125 85.44640350341796875 88.8636016845703125 89.74849700927734375 98.47540283203125 92.1399993896484375 84.64910125732421875 52.028400421142578125 73.52140045166015625 88.1714019775390625 64.56670379638671875 72.27719879150390625 95.17220306396484375 80.50469970703125 32.68199920654296875 54.78839874267578125 58.293201446533203125 0 0.70969998836517333984 5.3885998725891113281 0.74479997158050537109 0 0.11389999836683273315 0 0 0 0 1.3844000101089477539 1.3317999839782714844 3.04850006103515625 26.802799224853515625 60.73780059814453125 72.97820281982421875 79.7248992919921875 86.40149688720703125 95.43160247802734375 92.5785980224609375 77.68329620361328125 93.60379791259765625 86.28759765625 90.75620269775390625 77.0612030029296875 15.285699844360351563 53.1324005126953125 0 0.078900001943111419678 0.18400000035762786865 14.352100372314453125 59.805500030517578125 80.6623992919921875 90.4232025146484375 93.7176971435546875 85.49019622802734375 86.25250244140625 90.88939666748046875 75.343902587890625 73.468902587890625 86.0072021484375 89.75730133056640625 63.120998382568359375 80.64099884033203125 53.973499298095703125 15.727700233459472656 36.47589874267578125 76.07990264892578125 3.7676000595092773438 0 0 14.404600143432617188 76.32520294189453125 42.9160003662109375 13.432100296020507813 73.545196533203125 62.4989013671875 10.593199729919433594 0 0 0 0 0.0087000001221895217896 0 0 0.026300000026822090149 0 0.043800000101327896118 0.034699998795986175537 0 0 0.035000000149011611938 0 
0 30.523599624633789063 63.410099029541015625 84.18470001220703125 85.4091033935546875 77.29779815673828125 72.8468017578125 80.3556976318359375 91.61479949951171875 67.107696533203125 87.32849884033203125 98.2212982177734375 87.59310150146484375 89.4944000244140625 63.88330078125 8.2011995315551757813 0 0 0 3.5311000347137451172 2.7599999904632568359 2.7950999736785888672 80.44120025634765625 82.1519012451171875 89.950103759765625 98.5630035400390625 98.9134979248046875 99.72840118408203125 66.80560302734375 95.31240081787109375 89.398101806640625 98.67690277099609375 98.79090118408203125 95.6540985107421875 27.201700210571289063 0 5.966899871826171875 94.24340057373046875 94.0243988037109375 97.362701416015625 98.9134979248046875 97.15129852294921875 92.105499267578125 97.73940277099609375 95.39119720458984375 94.1996002197265625 93.38469696044921875 99.8524017333984375 98.12490081787109375 81.897796630859375 96.56529998779296875 86.91840362548828125 52.3350982666015625 25.890199661254882813 0.16650000214576721191 0.34169998764991760254 0.27160000801086425781 20.248800277709960938 5.4937000274658203125 1.3461999893188476563 1.8574999570846557617 6.4751000404357910156 3.4609999656677246094 0.21899999678134918213 0.10509999841451644897 5.8450999259948730469 0 74.3188018798828125 58.056598663330078125 80.16300201416015625 54.28900146484375 82.36060333251953125 76.5792999267578125 67.6772003173828125 58.73130035400390625 53.2725982666015625 11.381799697875976563 47.44660186767578125 80.22429656982421875 98.34400177001953125 95.86440277099609375 90.00260162353515625 90.03769683837890625 86.24379730224609375 91.85340118408203125 89.87999725341796875 89.7660980224609375 89.03009796142578125 98.80840301513671875 83.57140350341796875 72.78099822998046875 94.32230377197265625 57.162899017333984375 30.474000930786132813 29.396299362182617188 56.41809844970703125 44.88449859619140625 0.76230001449584960938 15.683899879455566406 1.7260999679565429688 0 1.0339000225067138672 12.011500358581542969 0.77979999780654907227 0 0.140200003981590271 3.83769989013671875 6.1771998405456542969 33.88050079345703125 80.8376007080078125 66.722198486328125 36.5635986328125 65.14499664306640625 85.60410308837890625 90.064300537109375 97.2926025390625 78.95379638671875 31.954799652099609375 67.0550994873046875 80.65360260009765625 82.99310302734375 30.6930999755859375 2.3131999969482421875 0.53450000286102294922 0.54320001602172851563 0.140200003981590271 0 1.2158999443054199219 5.1345000267028808594 19.20619964599609375 37.15940093994140625 57.960201263427734375 70.3845977783203125 80.2848968505859375 73.267303466796875 86.63800048828125 90.36190032958984375 85.0959014892578125 43.643199920654296875 37.1808013916015625 44.5457000732421875 13.519700050354003906 83.343597412109375 57.451999664306640625 1.2091000080108642578 0 0.12269999831914901733 40.725498199462890625 18.952100753784179688 17.0858001708984375 39.297298431396484375 84.1324005126953125 77.84980010986328125 40.77809906005859375 0 0 0 0.34169998764991760254 0.74690002202987670898 1.9451999664306640625 0 0.0087999999523162841797 0.087600000202655792236 1.323099970817565918 0.078199997544288635254 0 0 0.35049998760223388672 0 
0 29.05410003662109375 77.34510040283203125 83.57520294189453125 85.0175018310546875 73.7698974609375 86.88500213623046875 80.81420135498046875 84.40709686279296875 68.30970001220703125 83.58769989013671875 91.70800018310546875 81.13269805908203125 98.30970001220703125 88.69029998779296875 40.734500885009765625 0 0 0.23890000581741333008 3.9646000862121582031 3.6372001171112060547 45.92919921875 87.7017974853515625 85.52210235595703125 85.51329803466796875 99.90270233154296875 99.52210235595703125 87.1239013671875 87.3860015869140625 91.53980255126953125 97.69029998779296875 98.88500213623046875 98.83190155029296875 98.58409881591796875 89.8860015869140625 72.36280059814453125 43.699100494384765625 93.48670196533203125 98.9114990234375 98.318603515625 98.61949920654296875 96.8860015869140625 92.752197265625 91.43360137939453125 99.177001953125 93.6636962890625 84.21240234375 91.50879669189453125 72.318603515625 93.716796875 88.63719940185546875 96.9114990234375 94.283203125 30.298200607299804688 0 0 1.6371999979019165039 19.72570037841796875 7.5220999717712402344 0.54390001296997070313 0.37169998884201049805 0.070799998939037322998 3.5841000080108642578 0.44249999523162841797 0.42480000853538513184 22.63159942626953125 48.061901092529296875 94.9114990234375 96.283203125 97.247802734375 94.18579864501953125 92.7281036376953125 91.84960174560546875 72.95580291748046875 85.84960174560546875 92.58409881591796875 19.805299758911132813 20.289499282836914063 31.955799102783203125 79.88500213623046875 98.318603515625 97.247802734375 83.67259979248046875 96.1239013671875 92.40350341796875 86.8583984375 68.247802734375 71.11499786376953125 80.92919921875 87.50440216064453125 96.7718963623046875 64.76110076904296875 56.628299713134765625 92.29199981689453125 16.557500839233398438 3.5309998989105224609 38.8946990966796875 13.29199981689453125 0 6.4513001441955566406 0.19470000267028808594 7.5574998855590820313 45.2631988525390625 81.7344970703125 29.460199356079101563 0.01769999973475933075 36.300899505615234375 39.46900177001953125 70.0789031982421875 98.3363037109375 92.47789764404296875 60.83190155029296875 73.7698974609375 96.23889923095703125 89.1753997802734375 92.6990966796875 95.42479705810546875 87.63719940185546875 95.42479705810546875 99.70800018310546875 87.61060333251953125 84.28070068359375 51.079601287841796875 10 12.761099815368652344 3.6726000308990478516 0 0 0 0.63719999790191650391 29.061899185180664063 33.592899322509765625 2.2123999595642089844 1.4824999570846557617 14.584099769592285156 28.867300033569335938 46.1239013671875 45.867298126220703125 4.9026999473571777344 11.1753997802734375 3.4512999057769775391 36.699100494384765625 74.9468994140625 7.4247999191284179688 10.141599655151367188 46.964900970458984375 40.69029998779296875 14.946900367736816406 9.8937997817993164063 13.132699966430664063 66.95580291748046875 81.2017974853515625 73.38939666748046875 22.858400344848632813 0 0 0 5.5840997695922851563 11.938599586486816406 31.451299667358398438 44.938098907470703125 5.9734997749328613281 0 0 0.043900001794099807739 0.67259997129440307617 0.21240000426769256592 0.141599997878074646 0.018200000748038291931 
0 24.707899093627929688 89.1614990234375 87.68070220947265625 84.5839996337890625 86.4452972412109375 76.04489898681640625 56.111499786376953125 72.855499267578125 77.92870330810546875 79.67690277099609375 85.94589996337890625 88.013702392578125 99.763397216796875 86.3401031494140625 45.50949859619140625 0 0 0.34169998764991760254 2.4270999431610107422 20.38899993896484375 91.63230133056640625 98.10669708251953125 70.3845977783203125 73.95079803466796875 99.544403076171875 90.46700286865234375 96.4427032470703125 90.88939666748046875 95.356201171875 95.76799774169921875 92.1930999755859375 99.40419769287109375 99.6056976318359375 97.7592010498046875 97.49410247802734375 96.77559661865234375 96.35500335693359375 99.12380218505859375 98.40529632568359375 95.62779998779296875 98.1414031982421875 97.84459686279296875 94.69899749755859375 99.483001708984375 85.463897705078125 85.88449859619140625 98.44539642333984375 97.2837982177734375 89.93250274658203125 62.954498291015625 96.95960235595703125 84.70169830322265625 36.06909942626953125 0 0 31.788299560546875 71.0066986083984375 33.558200836181640625 0.48640000820159912109 0.14900000393390655518 0.035000000149011611938 0.61330002546310424805 2.5759999752044677734 3.5223000049591064453 43.303798675537109375 97.48529815673828125 93.2707977294921875 96.02210235595703125 97.40650177001953125 97.61679840087890625 88.6660003662109375 78.24410247802734375 85.94589996337890625 86.08599853515625 62.919498443603515625 45.833698272705078125 23.145700454711914063 53.95600128173828125 62.490100860595703125 95.916900634765625 90.44069671630859375 82.651397705078125 96.01329803466796875 89.80370330810546875 96.258697509765625 97.96720123291015625 91.91269683837890625 92.63120269775390625 96.33750152587890625 96.50859832763671875 48.260799407958984375 54.657001495361328125 49.1894989013671875 32.533100128173828125 12.608400344848632813 27.2798004150390625 38.219600677490234375 4.4597997665405273438 12.783699989318847656 60.974300384521484375 78.20909881591796875 85.18329620361328125 94.47119903564453125 92.84149932861328125 65.53929901123046875 20.0298004150390625 91.38700103759765625 85.747802734375 94.83049774169921875 88.74089813232421875 64.20749664306640625 74.8795013427734375 71.2783966064453125 94.7194976806640625 86.04219818115234375 93.15689849853515625 94.22589874267578125 79.82129669189453125 97.96720123291015625 97.57289886474609375 83.57649993896484375 76.0010986328125 67.58080291748046875 50.468799591064453125 11.758500099182128906 0.28040000796318054199 0.069499999284744262695 0.33300000429153442383 0 26.145599365234375 38.736499786376953125 2.0065000057220458984 0 0 0.28040000796318054199 0 8.7356996536254882813 3.8464999198913574219 0.96399998664855957031 21.642000198364257813 64.23380279541015625 36.326999664306640625 0.54320001602172851563 54.867298126220703125 95.30139923095703125 87.78589630126953125 68.9564971923828125 7.6491999626159667969 60.7816009521484375 81.82769775390625 88.2751007080078125 23.569599151611328125 0.78860002756118774414 0 0 0 59.073001861572265625 91.76650238037109375 72.34729766845703125 92.29830169677734375 41.242401123046875 0 0 0 0.62209999561309814453 0.40299999713897705078 0 0 
0 31.620700836181640625 90.34429931640625 75.82579803466796875 91.4712982177734375 77.1051025390625 74.44139862060546875 75.91339874267578125 68.63230133056640625 66.0386962890625 79.529296875 89.4944000244140625 87.3126983642578125 92.210601806640625 96.87200164794921875 78.36679840087890625 7.0869998931884765625 0 0.71850001811981201172 2.5497000217437744141 32.67330169677734375 96.7317962646484375 98.5930023193359375 39.5251007080078125 91.54470062255859375 88.092498779296875 84.3511962890625 99.81600189208984375 98.67120361328125 92.16680145263671875 89.04759979248046875 90.37940216064453125 80.50469970703125 93.735198974609375 97.7332000732421875 97.301300048828125 98.3527984619140625 98.74700164794921875 98.510498046875 95.916900634765625 97.84459686279296875 96.81259918212890625 97.40650177001953125 92.7801971435546875 96.8368988037109375 95.8292999267578125 70.87529754638671875 97.47260284423828125 89.4156036376953125 90.169097900390625 93.27960205078125 85.7180023193359375 98.18630218505859375 82.569000244140625 12.538299560546875 0 2.0852999687194824219 44.247798919677734375 34.276699066162109375 4.3425002098083496094 0.71850001811981201172 0.017500000074505805969 0 0.15770000219345092773 1.7698999643325805664 50.19110107421875 98.0460968017578125 90.51080322265625 92.82399749755859375 91.8162994384765625 83.553802490234375 50.7555999755859375 55.436798095703125 95.21600341796875 87.2425994873046875 89.15270233154296875 92.94660186767578125 45.5446014404296875 77.3329010009765625 91.860198974609375 82.50240325927734375 84.63159942626953125 94.20839691162109375 96.99469757080078125 95.83119964599609375 96.31999969482421875 99.90360260009765625 99.8948974609375 74.96710205078125 61.535099029541015625 92.95639801025390625 30.141099929809570313 53.79830169677734375 24.174200057983398438 13.931500434875488281 6.9657001495361328125 10.291799545288085938 22.7985992431640625 20.117399215698242188 39.85810089111328125 1.3668999671936035156 75.15110015869140625 93.112701416015625 84.456298828125 95.6365966796875 89.12640380859375 57.618499755859375 89.862396240234375 90.4116973876953125 94.55879974365234375 89.38050079345703125 69.21929931640625 97.2136993408203125 80.39949798583984375 64.3130035400390625 94.22589874267578125 94.62020111083984375 97.2926025390625 98.1511993408203125 79.92639923095703125 94.812896728515625 91.75789642333984375 86.0684967041015625 60.729000091552734375 46.32440185546875 19.626699447631835938 2.0239999294281005859 3.5868999958038330078 0 0.29789999127388000488 22.7285003662109375 49.312198638916015625 1.6210000514984130859 0 0 2.0502998828887939453 0 3.8728001117706298828 1.2353999614715576172 0.25189998745918273926 32.576900482177734375 68.79000091552734375 65.30269622802734375 0 45.03639984130859375 77.2884979248046875 87.3040008544921875 42.442798614501953125 2.6285998821258544922 28.502599716186523438 85.49019622802734375 77.17559814453125 0.38550001382827758789 0 0 0 0 24.586000442504882813 52.666301727294921875 82.09059906005859375 87.2339019775390625 67.379302978515625 22.369199752807617188 0.017500000074505805969 1.3636000156402587891 22.886199951171875 0.23659999668598175049 0.017500000074505805969 0 
0 27.972499847412109375 89.2490997314453125 86.93599700927734375 80.7104034423828125 84.20220184326171875 82.16069793701171875 68.34310150146484375 74.4589996337890625 86.1649017333984375 88.587799072265625 87.26889801025390625 90.99269866943359375 95.07579803466796875 89.7660980224609375 92.91159820556640625 7.3127999305725097656 0.026300000026822090149 0.13140000402927398682 2.4621000289916992188 30.920900344848632813 93.06929779052734375 98.714599609375 75.790802001953125 88.04869842529296875 99.93869781494140625 95.87310028076171875 91.5885009765625 91.29759979248046875 90.2655029296875 97.63430023193359375 94.84799957275390625 90.14279937744140625 83.94809722900390625 98.897003173828125 98.39659881591796875 98.89600372314453125 92.9904022216796875 98.7646026611328125 98.4579010009765625 98.30889892578125 96.49990081787109375 96.915802001953125 92.37709808349609375 99.5531005859375 99.18509674072265625 95.4613037109375 96.06569671630859375 77.76219940185546875 82.40599822998046875 73.3988037109375 81.266998291015625 96.363800048828125 76.27239990234375 31.51670074462890625 1.6471999883651733398 1.1915999650955200195 0 6.1420998573303222656 24.943500518798828125 6.1245999336242675781 0 0 0 0 0.72089999914169311523 50.38990020751953125 90.3968963623046875 89.44190216064453125 65.60939788818359375 82.2220001220703125 96.0048980712890625 96.51270294189453125 99.21140289306640625 100 97.27500152587890625 82.7740020751953125 57.451801300048828125 63.7342987060546875 93.60379791259765625 70.62999725341796875 55.647098541259765625 76.106201171875 87.6280975341796875 95.2406005859375 95.80300140380859375 99.518096923828125 99.5355987548828125 97.53790283203125 96.37259674072265625 79.2079010009765625 15.81529998779296875 3.4872999191284179688 1.323099970817565918 2.8389000892639160156 2.6022999286651611328 28.40019989013671875 26.697599411010742188 85.4376983642578125 92.20189666748046875 61.74539947509765625 58.696201324462890625 78.1569976806640625 57.381900787353515625 65.94229888916015625 40.8394012451171875 69.32450103759765625 93.3672027587890625 93.321197509765625 85.0608978271484375 83.7465972900390625 84.32489776611328125 90.59839630126953125 91.6410980224609375 80.5106964111328125 98.89600372314453125 96.915802001953125 98.4579010009765625 99.763397216796875 97.16989898681640625 92.272003173828125 94.137603759765625 89.5644989013671875 68.0540008544921875 75.51909637451171875 42.591800689697265625 23.543300628662109375 9.9357004165649414063 3.3120000362396240234 1.743600010871887207 0 3.6974999904632568359 1.5420999526977539063 0.052099999040365219116 0 8.25370025634765625 0.67470002174377441406 0.43810001015663146973 4.1619000434875488281 0 2.7862999439239501953 74.50279998779296875 53.368999481201171875 0 13.686100006103515625 69.0724029541015625 76.5792999267578125 14.404600143432617188 1.1039999723434448242 9.401599884033203125 89.03009796142578125 71.0438995361328125 23.455699920654296875 0.0087999999523162841797 6.7203998565673828125 16.270900726318359375 1.2617000341415405273 0 40.87200164794921875 80.022796630859375 81.78389739990234375 82.80030059814453125 60.439800262451171875 0.017500000074505805969 26.315799713134765625 55.506900787353515625 0.070100001990795135498 0 0 
0 39.297298431396484375 82.06189727783203125 81.8406982421875 81.0525970458984375 77.15039825439453125 67.53980255126953125 68.79650115966796875 91.41590118408203125 88.04419708251953125 85.81580352783203125 84.6990966796875 89.02649688720703125 93.6990966796875 87.97350311279296875 47.8760986328125 0.096500001847743988037 0 20.858400344848632813 18.23889923095703125 0.5928999781608581543 43.681400299072265625 94.74559783935546875 79.02649688720703125 98.035400390625 83.78759765625 95.1416015625 95.92040252685546875 98.97370147705078125 98.716796875 99.52210235595703125 95.09729766845703125 95.77880096435546875 99.7698974609375 87.28070068359375 97.07959747314453125 97.9114990234375 98.78759765625 98.62830352783203125 98.8052978515625 99.39820098876953125 89.47370147705078125 97.30970001220703125 94.38050079345703125 76.64600372314453125 99 99.41590118408203125 70.09649658203125 88.7698974609375 96.29199981689453125 98.3009033203125 92.38050079345703125 94.0531005859375 88.9385986328125 33.46900177001953125 54.70800018310546875 18.973499298095703125 0.27430000901222229004 3.4425001144409179688 19.096500396728515625 26.991199493408203125 5.7434000968933105469 0 0 0 0 0.30090001225471496582 52.115001678466796875 73.92919921875 31.194700241088867188 95.48670196533203125 82.78070068359375 87.44249725341796875 92.58409881591796875 96.77880096435546875 97.53099822998046875 91.716796875 66.4385986328125 36.823001861572265625 84.02649688720703125 87.72570037841796875 83.38939666748046875 42.035400390625 82.77880096435546875 90.36840057373046875 76.283203125 99.55750274658203125 91.77880096435546875 95.83190155029296875 93.86730194091796875 95.4385986328125 76.58409881591796875 45.1593017578125 7.7610998153686523438 58.823001861572265625 78.67259979248046875 92.3860015869140625 90.69029998779296875 65.44249725341796875 69.64600372314453125 17.29199981689453125 12.132699966430664063 19.701799392700195313 8.0264997482299804688 4.9292001724243164063 43.920398712158203125 80.54869842529296875 88.36280059814453125 85.40350341796875 84.46019744873046875 96.59290313720703125 71.752197265625 92.22119903564453125 91.04419708251953125 84.09649658203125 96.11499786376953125 96.84960174560546875 99.67259979248046875 99.72570037841796875 90.9468994140625 95.83190155029296875 83.75440216064453125 86.8583984375 96.74340057373046875 73.77880096435546875 35.008800506591796875 23.061899185180664063 27.640399932861328125 15.814200401306152344 0.46900001168251037598 2 10.805299758911132813 48.354000091552734375 1.5701999664306640625 0.40709999203681945801 0 0 2.7434000968933105469 2.30970001220703125 35.166698455810546875 7.9204001426696777344 12.840700149536132813 2.0441999435424804688 0 23.460199356079101563 90.5438995361328125 49.495601654052734375 0.66369998455047607422 0.16809999942779541016 17.716800689697265625 74.035400390625 65.9385986328125 82.49559783935546875 4.0619001388549804688 29.752199172973632813 23.36280059814453125 38.008800506591796875 43.504398345947265625 87.08769989013671875 67.92919921875 73.88500213623046875 87.9468994140625 33.81420135498046875 0.32739999890327453613 4 0.90270000696182250977 0.070799998939037322998 0.026499999687075614929 0.072700001299381256104 
0 40.861698150634765625 75.29129791259765625 87.19000244140625 81.1707000732421875 73.8018035888671875 80.47840118408203125 61.92060089111328125 96.07469940185546875 77.56939697265625 81.62239837646484375 95.5225982666015625 85.27989959716796875 84.6139984130859375 98.0811004638671875 81.33709716796875 11.203800201416015625 0 12.450699806213378906 68.48329925537109375 79.9176025390625 93.595001220703125 85.14849853515625 89.3892974853515625 89.02130126953125 92.7100982666015625 98.86969757080078125 90.62470245361328125 90.00350189208984375 90.2566986083984375 91.4833984375 97.41519927978515625 81.678802490234375 99.01869964599609375 98.7841033935546875 99.2201995849609375 93.042999267578125 98.49289703369140625 99.10630035400390625 97.5290985107421875 98.24759674072265625 83.828399658203125 95.40869903564453125 80.1103973388671875 37.22949981689453125 89.73979949951171875 85.665496826171875 95.249298095703125 97.3802032470703125 89.8712005615234375 88.02239990234375 77.4817962646484375 87.48799896240234375 89.5431976318359375 93.70020294189453125 87.57559967041015625 9.6644001007080078125 0.69220000505447387695 0.2890999913215637207 8.70240020751953125 12.547100067138671875 26.662599563598632813 20.538000106811523438 0 0 0 0.0087999999523162841797 22.877399444580078125 92.82399749755859375 70.33209991455078125 96.56529998779296875 91.7317962646484375 93.0518035888671875 86.38390350341796875 82.651397705078125 87.3827972412109375 83.063201904296875 84.44499969482421875 83.9217987060546875 39.630199432373046875 64.15489959716796875 85.41139984130859375 62.201000213623046875 73.86309814453125 85.20059967041015625 93.52490234375 84.246002197265625 91.61479949951171875 93.13939666748046875 52.072200775146484375 97.60289764404296875 92.5699005126953125 92.87650299072265625 83.32599639892578125 90.62470245361328125 88.6269989013671875 96.6302032470703125 87.07610321044921875 44.9925994873046875 87.4792022705078125 24.349399566650390625 30.824499130249023438 75.14330291748046875 37.737701416015625 45.58840179443359375 73.13590240478515625 72.575103759765625 93.9893035888671875 82.79489898681640625 79.497100830078125 89.46820068359375 72.470001220703125 50.45999908447265625 95.41750335693359375 93.93779754638671875 91.8162994384765625 87.20760345458984375 84.0182037353515625 95.54889678955078125 95.40000152587890625 85.4727020263671875 90.74169921875 98.33519744873046875 96.51270294189453125 55.550701141357421875 18.627899169921875 27.363500595092773438 14.234800338745117188 32.90110015869140625 18.7154998779296875 2.7950999736785888672 10.531800270080566406 63.88330078125 43.3907012939453125 42.33769989013671875 1.2968000173568725586 6.3699002265930175781 11.530699729919433594 65.31150054931640625 86.59889984130859375 77.3415985107421875 12.038900375366210938 1.3493000268936157227 0.3680000007152557373 23.026399612426757813 83.4810028076171875 10.181400299072265625 0 0 15.298299789428710938 70.919097900390625 89.62129974365234375 81.03040313720703125 17.8656005859375 0 3.066699981689453125 37.623798370361328125 79.5847015380859375 75.42120361328125 80.8376007080078125 90.1865997314453125 83.8430023193359375 13.24810028076171875 0.38550001382827758789 20.470699310302734375 1.4193999767303466797 4.8102998733520507813 2.7337000370025634766 0 
0 36.285800933837890625 88.06620025634765625 87.3126983642578125 96.517303466796875 75.5366973876953125 89.08260345458984375 87.3302001953125 95.1371002197265625 91.6410980224609375 92.75659942626953125 85.34999847412109375 91.69370269775390625 83.73780059814453125 96.54779815673828125 99.11499786376953125 93.55570220947265625 13.703700065612792969 47.1743011474609375 94.00679779052734375 96.78440093994140625 93.1305999755859375 77.64459991455078125 96.7667999267578125 93.6826019287109375 97.47660064697265625 93.06929779052734375 95.6190032958984375 90.46379852294921875 98.53679656982421875 93.0518035888671875 95.2071990966796875 91.35199737548828125 92.06169891357421875 98.6363983154296875 99.31659698486328125 85.2886962890625 95.78549957275390625 96.6880035400390625 96.17099761962890625 96.7581024169921875 82.05660247802734375 95.33860015869140625 26.171899795532226563 21.08119964599609375 69.95529937744140625 66.3628997802734375 95.19719696044921875 77.805999755859375 94.29599761962890625 95.5839996337890625 91.167999267578125 89.18779754638671875 56.48780059814453125 76.2639007568359375 12.109000205993652344 0 1.5420999526977539063 0 0.15629999339580535889 5.0030999183654785156 0 7.7980999946594238281 6.1859002113342285156 0 0 2.2518000602722167969 1.6210000514984130859 81.16179656982421875 93.9542999267578125 98.47540283203125 86.59889984130859375 98.2913970947265625 93.4197998046875 97.17870330810546875 76.5706024169921875 81.96790313720703125 92.51349639892578125 84.0182037353515625 87.75080108642578125 49.30339813232421875 18.005800247192382813 86.73439788818359375 43.765899658203125 82.091400146484375 97.43280029296875 72.11080169677734375 90.1779022216796875 97.0384979248046875 86.4803009033203125 95.17980194091796875 96.35500335693359375 87.87349700927734375 89.862396240234375 89.888702392578125 81.5998992919921875 98.50620269775390625 81.8365020751953125 94.34850311279296875 89.87999725341796875 88.04869842529296875 85.26239776611328125 87.25029754638671875 73.98580169677734375 83.19460296630859375 81.00409698486328125 87.321502685546875 96.64420318603515625 48.037200927734375 27.871700286865234375 75.2738037109375 87.19000244140625 83.61519622802734375 89.398101806640625 97.78530120849609375 93.49859619140625 98.33519744873046875 85.4026031494140625 92.83270263671875 92.37709808349609375 98.33519744873046875 97.420501708984375 95.0319976806640625 48.663799285888671875 2.8125998973846435547 33.54949951171875 19.284999847412109375 12.133099555969238281 2.9790999889373779297 13.677399635314941406 8.2713003158569335938 28.835500717163085938 15.254500389099121094 30.988399505615234375 27.863000869750976563 0 0.80610001087188720703 68.8249969482421875 99.83350372314453125 99.08809661865234375 69.55229949951171875 6.7115998268127441406 28.712900161743164063 75.12490081787109375 89.87999725341796875 89.656097412109375 18.890699386596679688 0.17520000040531158447 0.043800000101327896118 25.78639984130859375 84.76300048828125 82.90779876708984375 80.1367034912109375 69.60479736328125 11.951299667358398438 8.2449998855590820313 71.80410003662109375 65.40789794921875 87.32849884033203125 71.71649932861328125 87.99610137939453125 78.93630218505859375 2.9790999889373779297 0.77109998464584350586 53.369800567626953125 33.540699005126953125 47.1128997802734375 16.279699325561523438 0 
0 10.355899810791015625 45.4656982421875 84.4738006591796875 94.01599884033203125 86.89209747314453125 90.20420074462890625 74.9496002197265625 82.309600830078125 98.510498046875 91.11519622802734375 91.106597900390625 86.83080291748046875 89.51200103759765625 82.39730072021484375 90.4844970703125 90.53330230712890625 73.67910003662109375 90.00260162353515625 92.6750030517578125 97.82700347900390625 93.27960205078125 82.17819976806640625 99.12380218505859375 80.23310089111328125 94.61139678955078125 92.5699005126953125 91.64990234375 86.15599822998046875 99.42169952392578125 92.00910186767578125 93.11309814453125 87.05860137939453125 99.29900360107421875 90.02950286865234375 99.64949798583984375 93.00800323486328125 91.5009002685546875 99.97370147705078125 99.6757965087890625 97.8358001708984375 76.43740081787109375 98.92230224609375 51.248600006103515625 12.599699974060058594 14.72010040283203125 25.348300933837890625 31.188100814819335938 68.66729736328125 90.65979766845703125 87.83840179443359375 85.88449859619140625 44.2303009033203125 8.9195995330810546875 0.54320001602172851563 19.258699417114257813 31.3852996826171875 0.86739999055862426758 0 0.052099999040365219116 10.382900238037109375 4.0479998588562011719 0 14.395899772644042969 0 0 0 0 16.253400802612304688 92.20189666748046875 81.94159698486328125 85.65219879150390625 89.3542022705078125 84.55269622802734375 83.48370361328125 92.972900390625 90.22170257568359375 93.2082977294921875 93.21829986572265625 78.76979827880859375 88.27649688720703125 30.474000930786132813 64.435302734375 87.0323028564453125 94.72820281982421875 99.50930023193359375 87.8560028076171875 99.87729644775390625 95.356201171875 82.03800201416015625 84.236602783203125 98.65070343017578125 97.94969940185546875 97.441497802734375 91.84259796142578125 92.3332977294921875 91.19329833984375 82.8090972900390625 99.15889739990234375 85.9196014404296875 76.58809661865234375 12.941399574279785156 19.237499237060546875 87.09369659423828125 83.43990325927734375 97.914703369140625 95.7505035400390625 95.11080169677734375 90.0989990234375 69.044097900390625 90.82630157470703125 90.60720062255859375 92.762603759765625 97.0735015869140625 79.546600341796875 53.9822998046875 84.75420379638671875 78.393096923828125 26.94300079345703125 47.0428009033203125 94.9093017578125 88.8831024169921875 52.35260009765625 3.5748999118804931641 11.337900161743164063 41.73310089111328125 27.512500762939453125 11.238499641418457031 15.622500419616699219 21.738399505615234375 8.78820037841796875 16.454900741577148438 14.045399665832519531 0.16500000655651092529 0.8324000239372253418 0 0 42.35520172119140625 85.48149871826171875 71.504302978515625 10.821000099182128906 0 78.22660064697265625 95.71540069580078125 97.5204010009765625 97.23809814453125 42.3114013671875 0 2.7425000667572021484 75.96600341796875 81.95040130615234375 86.3556976318359375 82.589996337890625 92.31580352783203125 76.44789886474609375 84.9907989501953125 80.30319976806640625 85.665496826171875 78.36550140380859375 82.55500030517578125 65.89849853515625 44.151401519775390625 3.4433999061584472656 0.087600000202655792236 34.24530029296875 25.6725006103515625 8.8057003021240234375 0 0 
0 0.44139999151229858398 14.238900184631347656 78.2301025390625 88.74559783935546875 83.25659942626953125 78.45130157470703125 90.318603515625 81.02649688720703125 77.43360137939453125 88.4561004638671875 84.57520294189453125 90.716796875 92.716796875 94.69029998779296875 90.32740020751953125 88.65789794921875 98.23889923095703125 93.00879669189453125 92.9822998046875 97.16809844970703125 96.3363037109375 75.2368011474609375 82.99120330810546875 98.83190155029296875 77.86730194091796875 87.72570037841796875 94.9468994140625 98.71929931640625 98.1416015625 97.822998046875 88.86730194091796875 93.00879669189453125 99.25659942626953125 88.6753997802734375 98.76110076904296875 96.53980255126953125 96.16809844970703125 95.39820098876953125 98.30970001220703125 98.15039825439453125 67.622802734375 77.752197265625 83.27429962158203125 63.61949920654296875 21.141599655151367188 5.9558000564575195313 12.6753997802734375 43.132701873779296875 92.15039825439453125 88.1593017578125 75.1416015625 49.097301483154296875 52.842098236083984375 44.56639862060546875 64.822998046875 73.92919921875 5.6991000175476074219 0.11500000208616256714 0 1.3894000053405761719 0 1.0176999568939208984 6.0088000297546386719 29.300899505615234375 0 0 0 0 51.592899322509765625 96.64600372314453125 93.31580352783203125 93.177001953125 88.63719940185546875 98.62830352783203125 98.16809844970703125 83.38939666748046875 89.6139984130859375 84.20349884033203125 88.95580291748046875 83.681396484375 74.58409881591796875 43.318599700927734375 66.99120330810546875 79.49120330810546875 94.50440216064453125 97.7698974609375 99.29199981689453125 95.38939666748046875 86.49559783935546875 89.86840057373046875 79.3009033203125 87.035400390625 91.53980255126953125 96.47789764404296875 94.18579864501953125 87.59649658203125 81.48670196533203125 94.41590118408203125 91.56639862060546875 94.72570037841796875 42.522098541259765625 42.228099822998046875 97.177001953125 74.70800018310546875 93.2655029296875 86.3363037109375 64.77880096435546875 75.97370147705078125 83.57520294189453125 97.07080078125 87.46900177001953125 86.34510040283203125 84.16809844970703125 43.52629852294921875 0 14.778800010681152344 15.29199981689453125 17.424800872802734375 16.991199493408203125 87.53980255126953125 70.85959625244140625 3.4425001144409179688 0 6.9292001724243164063 11.65489959716796875 25.318599700927734375 6.6315999031066894531 17.30970001220703125 6.8053002357482910156 2.3185999393463134766 1.8760999441146850586 23.805299758911132813 1.6754000186920166016 0 0 0 0 0.69029998779296875 0.070200003683567047119 0 0 85.62830352783203125 88.6990966796875 96.177001953125 73.53510284423828125 47.07080078125 1.6991000175476074219 15.371700286865234375 84.8760986328125 93.78759765625 86.1753997802734375 91.46019744873046875 93.29199981689453125 89.44249725341796875 82 87.34510040283203125 92.53099822998046875 67.30699920654296875 57.902698516845703125 55.061901092529296875 26.796499252319335938 30.159299850463867188 1.0973000526428222656 0.27189999818801879883 0.23890000581741333008 0 0 0 
0 21.2201995849609375 48.5587005615234375 88.75839996337890625 71.10469818115234375 75.28260040283203125 92.972900390625 82.07309722900390625 85.27120208740234375 91.38700103759765625 93.91179656982421875 90.75620269775390625 85.00830078125 86.73439788818359375 83.685302734375 95.2772979736328125 97.420501708984375 85.3675994873046875 95.94319915771484375 92.45600128173828125 97.20490264892578125 69.674896240234375 94.69339752197265625 88.9337005615234375 94.70780181884765625 94.33100128173828125 92.9904022216796875 97.3188018798828125 92.72190093994140625 90.85250091552734375 92.490997314453125 81.99420166015625 98.0460968017578125 94.94439697265625 86.9550018310546875 97.87960052490234375 81.71379852294921875 99.86859893798828125 94.16449737548828125 99.12380218505859375 99.33409881591796875 85.09639739990234375 97.61679840087890625 96.42510223388671875 97.46779632568359375 75.54540252685546875 49.68019866943359375 59.579601287841796875 45.649700164794921875 90.89630126953125 91.89520263671875 92.902801513671875 38.359798431396484375 6.71360015869140625 69.64859771728515625 49.662700653076171875 55.2790985107421875 0.0087999999523162841797 0.56950002908706665039 0 0.035000000149011611938 8.586700439453125 24.787500381469726563 0 12.58209991455078125 1.9193999767303466797 0 0 0 6.3523998260498046875 73.12709808349609375 98.16739654541015625 85.9983978271484375 89.4593963623046875 87.461700439453125 87.19879913330078125 95.8993988037109375 89.230499267578125 89.51200103759765625 92.16680145263671875 94.287200927734375 71.532501220703125 72.163299560546875 58.58229827880859375 19.793300628662109375 94.33100128173828125 92.517303466796875 99.4654998779296875 97.23999786376953125 65.723297119140625 83.785003662109375 92.4033966064453125 93.5074005126953125 88.43419647216796875 94.85669708251953125 99.56189727783203125 92.3224029541015625 86.6819000244140625 91.9564971923828125 84.49140167236328125 96.30249786376953125 92.17559814453125 92.41790008544921875 85.32379913330078125 96.65290069580078125 90.71230316162109375 92.09670257568359375 57.224201202392578125 46.97760009765625 69.28060150146484375 81.678802490234375 93.9893035888671875 94.120697021484375 63.655498504638671875 30.033000946044921875 0.12269999831914901733 3.2593998908996582031 16.59510040283203125 8.9722003936767578125 58.64369964599609375 81.02159881591796875 34.922698974609375 0.48190000653266906738 0 0.23659999668598175049 0 13.949000358581542969 5.0894999504089355469 16.06060028076171875 2.2167999744415283203 0.78860002756118774414 52.878299713134765625 26.03170013427734375 54.11669921875 25.952899932861328125 0.0087999999523162841797 0 0 0 0 0 0 68.16790008544921875 91.798797607421875 96.1885986328125 96.95149993896484375 94.041900634765625 46.035198211669921875 10.54940032958984375 41.189899444580078125 33.14640045166015625 92.3744964599609375 89.5558013916015625 78.21779632568359375 76.70200347900390625 87.1374969482421875 89.15270233154296875 73.4250030517578125 68.368896484375 18.364999771118164063 16.822900772094726563 56.111499786376953125 50.47750091552734375 21.9048004150390625 28.721599578857421875 7.8069000244140625 0.26289999485015869141 0 0 
0 43.733798980712890625 88.02239990234375 67.52829742431640625 84.46240234375 89.93250274658203125 81.5298004150390625 72.96939849853515625 89.52069854736328125 86.874603271484375 87.753997802734375 89.10009765625 96.88950347900390625 80.679901123046875 85.14849853515625 90.82630157470703125 97.1251983642578125 94.672698974609375 93.901702880859375 95.02320098876953125 95.11080169677734375 79.68109893798828125 94.98000335693359375 92.22820281982421875 98.3878021240234375 92.1230010986328125 97.98480224609375 93.735198974609375 94.0334014892578125 97.6781005859375 86.0597991943359375 91.8162994384765625 96.5740966796875 97.441497802734375 98.11530303955078125 98.9748992919921875 78.12139892578125 87.47039794921875 67.2041015625 46.9552001953125 60.387298583984375 94.15489959716796875 98.0460968017578125 97.87960052490234375 98.606903076171875 82.81780242919921875 93.6826019287109375 86.47730255126953125 92.22820281982421875 84.75420379638671875 84.77179718017578125 79.12030029296875 41.005901336669921875 26.923700332641601563 58.6260986328125 73.90689849853515625 46.97280120849609375 1.4282000064849853516 0.23659999668598175049 0 0 11.478099822998046875 18.4001007080078125 8.4289999008178710938 1.6998000144958496094 17.205099105834960938 6.9920001029968261719 0 0 0 2.8475999832153320313 69.880096435546875 99.15889739990234375 88.539398193359375 98.75579833984375 94.55010223388671875 98.78209686279296875 94.79759979248046875 93.69139862060546875 91.37830352783203125 70.49859619140625 94.76039886474609375 77.36789703369140625 75.23000335693359375 35.270099639892578125 43.9936981201171875 85.35880279541015625 94.49749755859375 68.39569854736328125 37.571201324462890625 52.51869964599609375 89.27539825439453125 95.74169921875 92.02660369873046875 92.13179779052734375 84.59649658203125 93.1909027099609375 94.48000335693359375 97.8358001708984375 99.377899169921875 73.4951019287109375 83.01940155029296875 98.81009674072265625 94.88300323486328125 76.8159027099609375 77.8235015869140625 84.447601318359375 85.96340179443359375 82.14350128173828125 81.126800537109375 81.61750030517578125 83.40489959716796875 93.55999755859375 85.81439971923828125 71.1134033203125 15.4822998046875 59.51979827880859375 50.37239837646484375 16.936800003051757813 87.943603515625 80.1367034912109375 70.479400634765625 22.378000259399414063 37.036701202392578125 7.2023000717163085938 0 9.6205997467041015625 4.8896999359130859375 23.998899459838867188 6.3523998260498046875 0.6484000086784362793 62.332401275634765625 90.9488983154296875 90.68090057373046875 71.05059814453125 0 0 0 0 0 0 0 6.2648000717163085938 83.63269805908203125 70.02539825439453125 95.60540008544921875 88.46929931640625 99.05370330810546875 51.967098236083984375 0.4643999934196472168 10.531800270080566406 36.381801605224609375 34.5746002197265625 15.97299957275390625 69.19300079345703125 83.49250030517578125 62.6566009521484375 53.5968017578125 27.714099884033203125 38.1407012939453125 5.677700042724609375 0 0 4.5212001800537109375 57.903400421142578125 52.203601837158203125 0.026300000026822090149 0 0.090000003576278686523 
0 43.252201080322265625 90.580902099609375 81.6699981689453125 77.08010101318359375 86.48909759521484375 97.01219940185546875 76.74579620361328125 87.21630096435546875 87.64569854736328125 90.08159637451171875 79.52339935302734375 92.000396728515625 81.70510101318359375 93.31459808349609375 98.55429840087890625 92.027099609375 87.09369659423828125 93.30590057373046875 95.55770111083984375 94.20839691162109375 77.23650360107421875 99.14019775390625 92.1930999755859375 96.48650360107421875 96.609100341796875 98.47540283203125 94.94439697265625 97.5334014892578125 96.03079986572265625 94.5149993896484375 91.77249908447265625 96.92459869384765625 91.860198974609375 99.03600311279296875 99.237701416015625 85.2886962890625 15.65760040283203125 0 0.035000000149011611938 30.728099822998046875 97.7592010498046875 98.48419952392578125 96.9683990478515625 99.04489898681640625 83.58010101318359375 89.2490997314453125 98.4801025390625 85.393798828125 96.8368988037109375 81.231903076171875 93.01670074462890625 77.21900177001953125 92.9998016357421875 81.302001953125 70.2093963623046875 4.1532001495361328125 0.84109997749328613281 0.12269999831914901733 0 0 18.032100677490234375 27.267200469970703125 0 0 17.448299407958984375 1.6560000181198120117 0 0 0 0 4.5770001411437988281 65.68830108642578125 96.67919921875 90.887603759765625 90.85250091552734375 85.58660125732421875 95.3621978759765625 79.260498046875 96.39009857177734375 63.57659912109375 85.41139984130859375 70.70880126953125 83.3961029052734375 63.018901824951171875 24.410800933837890625 13.0727996826171875 48.36589813232421875 53.5178985595703125 30.263700485229492188 12.202500343322753906 36.7212982177734375 94.21710205078125 96.62670135498046875 86.57669830322265625 85.14849853515625 75.881500244140625 91.37830352783203125 93.28839874267578125 97.055999755859375 84.96450042724609375 96.78440093994140625 95.22319793701171875 80.69750213623046875 53.33390045166015625 90.931396484375 87.50550079345703125 84.938201904296875 85.81729888916015625 93.79650115966796875 92.56109619140625 91.167999267578125 91.658599853515625 87.6981964111328125 94.72820281982421875 86.11229705810546875 93.3672027587890625 67.87870025634765625 74.9409027099609375 80.40830230712890625 40.033298492431640625 65.21630096435546875 92.806396484375 69.1316986083984375 28.739200592041015625 17.82180023193359375 48.479801177978515625 10.508899688720703125 16.831699371337890625 18.0233001708984375 13.6072998046875 74.897003173828125 86.839599609375 82.17819976806640625 93.656402587890625 15.447299957275390625 0 0 0 0 0 0 0 20.83589935302734375 96.47769927978515625 88.44879913330078125 97.13480377197265625 87.73329925537109375 83.73780059814453125 31.9459991455078125 58.450901031494140625 21.399999618530273438 21.764699935913085938 30.132299423217773438 22.421800613403320313 81.1443023681640625 52.168598175048828125 63.453998565673828125 66.86640167236328125 71.9705963134765625 45.9300994873046875 0 16.446199417114257813 84.09709930419921875 79.26869964599609375 46.657299041748046875 4.4247999191284179688 45.649700164794921875 47.48870086669921875 
0 48 80.09729766845703125 79.964599609375 69.7631988525390625 76.40709686279296875 98.61949920654296875 88.07080078125 83.35399627685546875 93.681396484375 91.63159942626953125 87.63719940185546875 75.21240234375 84.45130157470703125 83.52210235595703125 85.34510040283203125 92.0438995361328125 96.86730194091796875 96.77880096435546875 91.84960174560546875 93.3363037109375 84.7698974609375 88.00879669189453125 88.59290313720703125 98.2655029296875 88.44249725341796875 89.52210235595703125 97.9114990234375 86.35959625244140625 91.43360137939453125 94.15039825439453125 90.54869842529296875 98.53099822998046875 88.35399627685546875 99.2368011474609375 99.59290313720703125 97.11499786376953125 76.3363037109375 0.4602000117301940918 0.28319999575614929199 36.407100677490234375 97.74559783935546875 97.79650115966796875 96.49559783935546875 98.1947021484375 83.56639862060546875 70.21240234375 97.8332977294921875 82.65489959716796875 81.9822998046875 96.34510040283203125 96.95580291748046875 93.8760986328125 91.3946990966796875 93.177001953125 28.628299713134765625 1.8052999973297119141 2.2123999595642089844 0.15039999783039093018 2.6754000186920166016 0 0.76109999418258666992 17.955799102783203125 0 0 13.219300270080566406 14.769900321960449219 0 0 0.68140000104904174805 0.24779999256134033203 0 0 8.1326999664306640625 38.318599700927734375 75.52210235595703125 98.07080078125 92.5525970458984375 92.93810272216796875 97.44249725341796875 95.247802734375 77.18579864501953125 86.04419708251953125 90.9468994140625 87.63159942626953125 86.56639862060546875 58.1239013671875 16.177000045776367188 4.0531001091003417969 19.601800918579101563 32.0438995361328125 11.318599700927734375 25.132699966430664063 78.88500213623046875 81.55750274658203125 99.57520294189453125 93.78070068359375 88.16809844970703125 96.27429962158203125 93.7344970703125 66.30970001220703125 86.41590118408203125 92.3332977294921875 88.57520294189453125 91.18579864501953125 89.8583984375 78.65489959716796875 57.026500701904296875 86.36840057373046875 83.90270233154296875 89.09729766845703125 90.77880096435546875 97.43360137939453125 91.6990966796875 98.21050262451171875 82.49559783935546875 93.1593017578125 92.2655029296875 90.92919921875 76.18579864501953125 65.752197265625 76.21050262451171875 59.920398712158203125 75.8583984375 81.8052978515625 88.0177001953125 91.681396484375 2.1228001117706298828 23.283199310302734375 79.63719940185546875 77.681396484375 86.0885009765625 74.92040252685546875 83.24559783935546875 84.81420135498046875 81.64600372314453125 31 0 0 0 0 0 0 0 40.72570037841796875 94.75440216064453125 98.64600372314453125 91 84.22119903564453125 86.283203125 90.18579864501953125 34.71929931640625 60.805301666259765625 78.752197265625 57.893798828125 57.1239013671875 54.787601470947265625 38.026500701904296875 65.9561004638671875 40.76110076904296875 23.601800918579101563 0.0087999999523162841797 43.15039825439453125 94.02649688720703125 88.15789794921875 79.83190155029296875 75.99120330810546875 83.72570037841796875 36.81819915771484375 
0 47.542598724365234375 74.7129974365234375 82.37969970703125 92.61769866943359375 80.94280242919921875 88.89859771728515625 96.17980194091796875 88.35540008544921875 88.72339630126953125 65.88500213623046875 86.3927001953125 88.7935028076171875 87.3040008544921875 78.69100189208984375 62.21849822998046875 53.795398712158203125 82.651397705078125 90.6685028076171875 86.839599609375 56.339298248291015625 73.2848968505859375 97.846099853515625 89.24030303955078125 91.44830322265625 91.15039825439453125 89.59960174560546875 88.1013031005859375 86.659698486328125 98.4490966796875 80.820098876953125 61.938098907470703125 90.74739837646484375 99.24649810791015625 97.75060272216796875 93.349700927734375 98.10739898681640625 96.2848968505859375 76.61440277099609375 41.40019989013671875 98.3878021240234375 98.1414031982421875 98.50170135498046875 98.02860260009765625 96.9770965576171875 81.05670166015625 90.91390228271484375 68.4297027587890625 80.539703369140625 94.62889862060546875 97.31009674072265625 93.5074005126953125 97.72190093994140625 88.73549652099609375 93.67389678955078125 19.819499969482421875 3.6712999343872070313 0.67470002174377441406 0.91119998693466186523 3.9170000553131103516 0 4.1970000267028808594 9.9535999298095703125 11.145199775695800781 16.770299911499023438 7.7123999595642089844 17.033199310302734375 14.290699958801269531 1.0865000486373901367 0.18400000035762786865 0 0 0 0 0 69.25440216064453125 86.909698486328125 96.95149993896484375 98.79959869384765625 80.714996337890625 93.6125030517578125 74.61669921875 95.8907012939453125 91.52719879150390625 97.18599700927734375 92.60489654541015625 93.07810211181640625 85.7180023193359375 73.1446990966796875 67.87870025634765625 24.6483001708984375 45.912601470947265625 50.600200653076171875 37.8339996337890625 85.27120208740234375 97.6255035400390625 97.33370208740234375 93.209503173828125 92.5084991455078125 93.39350128173828125 93.428497314453125 87.22509765625 88.08409881591796875 81.512298583984375 83.13330078125 91.84259796142578125 85.7530975341796875 88.06620025634765625 93.69460296630859375 96.77559661865234375 99.4654998779296875 91.5709991455078125 98.79090118408203125 88.60070037841796875 94.91919708251953125 90.8087005615234375 88.16259765625 81.2494964599609375 79.47949981689453125 86.34889984130859375 21.247699737548828125 80.6930999755859375 91.52719879150390625 92.69249725341796875 91.8162994384765625 97.4589996337890625 92.3332977294921875 10.943200111389160156 60.842899322509765625 70.94539642333984375 88.14510345458984375 71.7953033447265625 87.44409942626953125 77.61859893798828125 83.10700225830078125 96.51270294189453125 85.31500244140625 25.243099212646484375 12.836199760437011719 0 0 0 0 0 0.070100001990795135498 60.569698333740234375 79.61100006103515625 85.7794036865234375 87.8560028076171875 77.22769927978515625 81.50350189208984375 68.90740203857421875 39.139598846435546875 56.155300140380859375 85.41139984130859375 43.143798828125 32.585601806640625 0.13140000402927398682 37.371898651123046875 6.5977001190185546875 0.052600000053644180298 0.035000000149011611938 22.921199798583984375 88.504302978515625 93.981201171875 88.9423980712890625 95.1985015869140625 94.5850982666015625 56.72370147705078125 
0 50.031200408935546875 86.24379730224609375 85.770599365234375 73.1977996826171875 87.1725006103515625 97.9058990478515625 99.08879852294921875 87.22509765625 87.5493011474609375 93.3820037841796875 90.3180999755859375 89.66089630126953125 96.85449981689453125 90.81749725341796875 87.5579986572265625 59.98780059814453125 91.66739654541015625 98.65940093994140625 96.7317962646484375 91.5885009765625 79.9001007080078125 83.83709716796875 93.1920013427734375 95.96070098876953125 95.0319976806640625 97.61679840087890625 91.68489837646484375 96.109100341796875 91.658599853515625 82.53749847412109375 54.043598175048828125 59.59870147705078125 79.2429962158203125 93.79019927978515625 89.90619659423828125 97.6781005859375 95.8993988037109375 81.62619781494140625 94.94439697265625 98.65070343017578125 98.8274993896484375 98.5980987548828125 99.132598876953125 97.63430023193359375 90.69480133056640625 82.47609710693359375 92.40920257568359375 85.76190185546875 95.6891021728515625 89.12640380859375 89.2666015625 93.9893035888671875 97.34239959716796875 52.808200836181640625 6.8868999481201171875 3.43470001220703125 0 0 0.25189998745918273926 1.8400000333786010742 37.036701202392578125 87.78589630126953125 78.77860260009765625 71.28710174560546875 75.5861968994140625 13.256799697875976563 11.267900466918945313 15.491100311279296875 0 0 0 0 0.44690001010894775391 48.523601531982421875 79.02390289306640625 96.670501708984375 89.1089019775390625 85.81439971923828125 92.61370086669921875 92.517303466796875 89.15270233154296875 78.112701416015625 84.50890350341796875 97.9936981201171875 88.49559783935546875 92.0879974365234375 92.36840057373046875 86.93599700927734375 80.63610076904296875 57.92079925537109375 24.594800949096679688 12.433199882507324219 7.0271000862121582031 15.526200294494628906 65.24140167236328125 90.88939666748046875 92.28070068359375 92.56109619140625 95.8292999267578125 92.7100982666015625 94.4362030029296875 73.067596435546875 92.9904022216796875 81.40720367431640625 76.04489898681640625 75.59799957275390625 90.76490020751953125 93.5469970703125 78.30539703369140625 83.58010101318359375 75.624298095703125 93.77030181884765625 91.84259796142578125 93.56439971923828125 84.59649658203125 89.888702392578125 94.86550140380859375 95.14589691162109375 86.3751983642578125 68.7548980712890625 95.9875030517578125 68.4219970703125 88.1714019775390625 95.1985015869140625 94.88300323486328125 97.48529815673828125 25.308300018310546875 39.33229827880859375 69.2368011474609375 70.49859619140625 83.37860107421875 88.3466033935546875 87.87560272216796875 67.03759765625 91.579803466796875 86.08599853515625 88.26779937744140625 50.2584991455078125 8.6416997909545898438 0.052600000053644180298 0.052600000053644180298 0 0 0.55199998617172241211 3.2047998905181884766 77.08750152587890625 93.209503173828125 91.2030029296875 68.56220245361328125 84.48259735107421875 74.9001007080078125 75.45780181884765625 66.33660125732421875 60.369800567626953125 1.0339000225067138672 18.680500030517578125 0.052600000053644180298 70.11460113525390625 68.37819671630859375 0.66589999198913574219 0 2.330699920654296875 76.70200347900390625 83.54180145263671875 94.01560211181640625 88.784698486328125 83.76409912109375 50.477001190185546875 
0 52.1540985107421875 94.49749755859375 75.21250152587890625 89.9427032470703125 79.01519775390625 93.7176971435546875 97.34510040283203125 88.74970245361328125 96.16230010986328125 97.24680328369140625 90.71230316162109375 87.295196533203125 88.51309967041015625 97.24880218505859375 86.5503997802734375 97.48130035400390625 85.525299072265625 97.64299774169921875 95.531402587890625 94.72530364990234375 86.27880096435546875 98.749298095703125 95.2686004638671875 88.539398193359375 96.3988037109375 89.3542022705078125 89.52069854736328125 98.12400054931640625 89.90619659423828125 96.78440093994140625 92.21939849853515625 93.22699737548828125 95.30359649658203125 99.14019775390625 97.42400360107421875 93.630096435546875 88.5569000244140625 86.6905975341796875 86.7606964111328125 96.057098388671875 94.91049957275390625 94.66400146484375 90.82630157470703125 99.26399993896484375 90.861297607421875 95.8993988037109375 78.20909881591796875 78.07759857177734375 94.07689666748046875 68.39569854736328125 89.2841033935546875 90.44950103759765625 91.95760345458984375 48.54109954833984375 1.0601999759674072266 1.8049999475479125977 1.6296999454498291016 0 0 0.40299999713897705078 59.099300384521484375 89.58209991455078125 86.95349884033203125 95.98699951171875 97.60289764404296875 74.4676971435546875 6.8343000411987304688 31.910999298095703125 0.087600000202655792236 0 11.221099853515625 27.871700286865234375 0.54320001602172851563 32.05120086669921875 79.9001007080078125 91.5009002685546875 98.55829620361328125 90.22170257568359375 88.2415008544921875 73.45130157470703125 92.82399749755859375 92.806396484375 54.5343017578125 81.41390228271484375 96.49520111083984375 91.34320068359375 95.811798095703125 87.76830291748046875 88.46050262451171875 73.52790069580078125 10.382900238037109375 28.581399917602539063 8.621700286865234375 9.6644001007080078125 56.95259857177734375 86.81610107421875 89.08260345458984375 90.3267974853515625 86.83080291748046875 90.1078033447265625 92.32450103759765625 91.5059967041015625 97.40650177001953125 94.55010223388671875 50.205898284912109375 80.79380035400390625 75.22119903564453125 77.33190155029296875 97.686798095703125 94.05059814453125 95.32109832763671875 87.1374969482421875 96.1360015869140625 87.76270294189453125 95.71540069580078125 97.783203125 88.0749969482421875 77.21900177001953125 58.12670135498046875 73.25859832763671875 94.8932037353515625 88.1714019775390625 95.48760223388671875 90.92259979248046875 95.978302001953125 93.63880157470703125 10.343899726867675781 10.558099746704101563 59.4673004150390625 11.995100021362304688 65.057403564453125 83.03690338134765625 85.139801025390625 88.9337005615234375 94.34850311279296875 90.85250091552734375 91.62359619140625 73.6967010498046875 5.3761000633239746094 0.26289999485015869141 0 0 0 0 0 9.3839998245239257813 83.2384033203125 89.1089019775390625 87.07610321044921875 83.2384033203125 90.515899658203125 73.854400634765625 73.81929779052734375 72.4875030517578125 40.471401214599609375 64.1110992431640625 34.136501312255859375 76.932403564453125 27.083200454711914063 6.413700103759765625 6.2034997940063476563 7.9383001327514648438 64.1110992431640625 98.31510162353515625 82.41480255126953125 88.66210174560546875 88.1800994873046875 49.4149017333984375 
0 52.585601806640625 88.38939666748046875 89.37169647216796875 88.7368011474609375 93.177001953125 76.25659942626953125 99.61949920654296875 86.40709686279296875 97.61060333251953125 90.35959625244140625 87.53980255126953125 88.93810272216796875 93.30970001220703125 97.20349884033203125 83.90270233154296875 98.9210968017578125 87.90270233154296875 96.54869842529296875 97.38050079345703125 96.822998046875 85.67259979248046875 93.9474029541015625 89.72570037841796875 96.8052978515625 81.106201171875 88.76110076904296875 98.56639862060546875 96.00879669189453125 92.70800018310546875 98.44249725341796875 95.716796875 91.893798828125 93.9468994140625 99.46489715576171875 99.41590118408203125 97.32740020751953125 95.822998046875 94.35399627685546875 97.2655029296875 96.893798828125 96.28070068359375 92.681396484375 87.1947021484375 82.42479705810546875 98.9822998046875 85.8406982421875 73.99120330810546875 68.15039825439453125 41.867298126220703125 62.0531005859375 98.9468994140625 84.52210235595703125 85.00879669189453125 80.77880096435546875 0.141599997878074646 0 0.36280000209808349609 0 0 0 50.486698150634765625 91.86730194091796875 94.035400390625 97.61949920654296875 96.1667022705078125 89.53980255126953125 79.0177001953125 20.283199310302734375 15.380499839782714844 0 0.73680001497268676758 5.3008999824523925781 1.3717000484466552734 0.53100001811981201172 60.81420135498046875 95.9468994140625 88.2368011474609375 89.42479705810546875 93.0885009765625 74.21240234375 75.9822998046875 89.54869842529296875 88.62830352783203125 93.80699920654296875 66.2655029296875 93.77880096435546875 91.7698974609375 91.8583984375 97.72570037841796875 59.859600067138671875 28.30970001220703125 46.39820098876953125 45.60179901123046875 27.592899322509765625 27.442499160766601563 20.728099822998046875 43.699100494384765625 95.822998046875 85.70800018310546875 94.79650115966796875 91.61060333251953125 98.5175018310546875 98.7698974609375 77.3009033203125 81.716796875 89.52210235595703125 87.39820098876953125 77.1753997802734375 84.8052978515625 97.0177001953125 96.1416015625 81.56639862060546875 97.53099822998046875 73.75440216064453125 89.8760986328125 79.47789764404296875 82.57520294189453125 94.21240234375 73.02649688720703125 98.20349884033203125 95.65789794921875 93.15039825439453125 97.07959747314453125 87.32740020751953125 95.15039825439453125 92.752197265625 9.3772001266479492188 40.884998321533203125 73.47789764404296875 25.150400161743164063 36.53099822998046875 94.11499786376953125 55.30699920654296875 87.893798828125 87.3009033203125 77.35399627685546875 53.575199127197265625 46.991199493408203125 18.254400253295898438 0.88499999046325683594 0 0 0 0 0 0 16.25659942626953125 74 88.78759765625 90.76110076904296875 75.122802734375 69.106201171875 59.84960174560546875 59.645999908447265625 44.610599517822265625 71.41590118408203125 90.52210235595703125 81.5175018310546875 47.212398529052734375 38.9114990234375 75.53099822998046875 60.67259979248046875 29.63719940185546875 41.35089874267578125 43.230098724365234375 81.53099822998046875 79.11499786376953125 52.236400604248046875 
0 47.67639923095703125 86.4452972412109375 95.14589691162109375 83.0641021728515625 92.85900115966796875 92.29830169677734375 95.80300140380859375 92.8152008056640625 95.68039703369140625 93.63379669189453125 98.86969757080078125 85.42009735107421875 96.39009857177734375 87.049896240234375 91.5623016357421875 97.22949981689453125 97.23999786376953125 90.8000030517578125 97.46779632568359375 90.67729949951171875 88.12760162353515625 88.9178009033203125 90.14279937744140625 92.6486968994140625 97.055999755859375 97.9759979248046875 99.12380218505859375 92.6697998046875 98.2826995849609375 97.42400360107421875 94.3047027587890625 93.2707977294921875 93.35849761962890625 86.8594970703125 99.36910247802734375 98.20379638671875 96.293701171875 95.88189697265625 97.71309661865234375 98.4490966796875 99.50499725341796875 97.58170318603515625 88.28530120849609375 95.76799774169921875 84.59649658203125 91.4308013916015625 64.93830108642578125 70.3058013916015625 81.924102783203125 99.11499786376953125 97.23999786376953125 89.950103759765625 89.27390289306640625 75.002197265625 0.60460001230239868164 4.9330000877380371094 0.62209999561309814453 0.035000000149011611938 0.052099999040365219116 0 0.4643999934196472168 96.6967010498046875 96.62670135498046875 84.5438995361328125 96.72570037841796875 80.75879669189453125 96.7667999267578125 78.29669952392578125 74.7218017578125 2.4358000755310058594 0 0.89370000362396240234 2.698699951171875 2.7249999046325683594 3.3821001052856445313 69.93779754638671875 92.1313018798828125 89.0388031005859375 94.874298095703125 82.371002197265625 95.811798095703125 45.115200042724609375 77.5431976318359375 95.62270355224609375 95.47010040283203125 85.41139984130859375 90.3881988525390625 87.18129730224609375 96.04840087890625 82.10870361328125 47.53350067138671875 14.106699943542480469 22.1063995361328125 3.802700042724609375 22.5093994140625 22.902599334716796875 19.547899246215820313 39.612701416015625 93.31459808349609375 93.30590057373046875 99.623199462890625 95.44899749755859375 97.63430023193359375 94.45369720458984375 67.8874969482421875 82.60759735107421875 87.7245025634765625 97.3249969482421875 75.0897979736328125 60.29090118408203125 94.4449005126953125 86.52410125732421875 98.39659881591796875 95.60540008544921875 98.34400177001953125 94.61139678955078125 86.51540374755859375 99.132598876953125 74.97589874267578125 87.777099609375 70.930999755859375 82.50240325927734375 94.33100128173828125 94.672698974609375 90.580902099609375 82.4322967529296875 6.7483000755310058594 59.248199462890625 69.8238983154296875 35.249298095703125 67.30919647216796875 88.26779937744140625 57.0001983642578125 70.3583984375 75.930999755859375 48.146900177001953125 7.6140999794006347656 0.79729998111724853516 2.4491999149322509766 1.2091000080108642578 0 0 0 0 0 0 0 1.5333000421524047852 65.1011962890625 87.59310150146484375 91.184600830078125 51.406299591064453125 56.47949981689453125 72.9080963134765625 49.39099884033203125 89.36299896240234375 78.22660064697265625 80.38909912109375 46.28060150146484375 25.234399795532226563 69.87650299072265625 43.83599853515625 83.5977020263671875 60.74340057373046875 54.49050140380859375 33.584499359130859375 48.654998779296875 59.729999542236328125 
0 53.179901123046875 87.8647003173828125 99.11499786376953125 69.44589996337890625 67.02880096435546875 94.39240264892578125 96.35500335693359375 90.28299713134765625 91.93900299072265625 96.56939697265625 99.42169952392578125 83.2384033203125 82.8441009521484375 95.8292999267578125 68.17659759521484375 84.7751007080078125 99.79850006103515625 94.31349945068359375 98.47540283203125 93.38469696044921875 88.881103515625 98.22820281982421875 89.87999725341796875 92.92910003662109375 95.25099945068359375 90.91390228271484375 88.294097900390625 99.30519866943359375 99.5355987548828125 92.9904022216796875 90.7035980224609375 94.88300323486328125 92.6486968994140625 97.7678985595703125 98.3177032470703125 98.7646026611328125 93.349700927734375 98.825897216796875 97.65180206298828125 99.0099029541015625 90.515899658203125 98.12490081787109375 81.433502197265625 95.40000152587890625 96.9770965576171875 90.98400115966796875 24.448499679565429688 77.560699462890625 92.32450103759765625 91.59729766845703125 97.16989898681640625 89.2841033935546875 88.97859954833984375 49.557498931884765625 0.39430001378059387207 0 0.56080001592636108398 0.99889999628067016602 0.069499999284744262695 0 7.5440001487731933594 96.30249786376953125 88.8636016845703125 81.5823974609375 98.488800048828125 89.98509979248046875 96.32869720458984375 95.2947998046875 96.223602294921875 33.777301788330078125 0 7.4038000106811523438 6.8605999946594238281 0 0.13140000402927398682 2.3570001125335693359 57.0261993408203125 70.2093963623046875 96.08339691162109375 88.65329742431640625 65.85469818115234375 27.188299179077148438 64.9084014892578125 80.5106964111328125 89.923797607421875 90.29180145263671875 96.468902587890625 74.73059844970703125 83.22969818115234375 98.54090118408203125 71.23459625244140625 44.957500457763671875 41.741901397705078125 30.36009979248046875 20.23130035400390625 17.960699081420898438 2.9790999889373779297 21.808500289916992188 45.03639984130859375 95.6365966796875 88.72339630126953125 92.71320343017578125 87.19000244140625 99.964996337890625 95.05829620361328125 68.527099609375 84.20220184326171875 99.52230072021484375 98.0811004638671875 87.89980316162109375 80.79380035400390625 83.93060302734375 84.5352020263671875 85.09639739990234375 93.0518035888671875 76.868499755859375 90.89630126953125 78.52449798583984375 52.7555999755859375 91.38700103759765625 89.02210235595703125 86.182403564453125 98.2126007080078125 86.3927001953125 88.58319854736328125 77.035003662109375 11.012700080871582031 65.22389984130859375 83.72029876708984375 73.933197021484375 1.3317999839782714844 63.30500030517578125 89.447601318359375 12.047699928283691406 1.3142999410629272461 33.54949951171875 46.788700103759765625 38.044300079345703125 2.9702999591827392578 0.71850001811981201172 0.078900001943111419678 0 0 0 0 0 0 0 47.296901702880859375 90.2655029296875 80.48459625244140625 45.781101226806640625 23.131500244140625 6.3699002265930175781 31.22750091552734375 87.26889801025390625 65.85469818115234375 77.95729827880859375 67.97509765625 17.558900833129882813 0.54320001602172851563 36.879001617431640625 74.3274993896484375 52.388401031494140625 50.9506988525390625 25.532300949096679688 66.51190185546875 56.74169921875 
0 54.847900390625 91.05410003662109375 91.79010009765625 63.95690155029296875 82.371002197265625 67.2917022705078125 94.79540252685546875 93.77030181884765625 91.23809814453125 98.4019012451171875 87.18129730224609375 97.783203125 93.22699737548828125 94.61139678955078125 87.41790008544921875 89.49970245361328125 99.74590301513671875 91.17669677734375 96.67919921875 89.4857025146484375 87.42659759521484375 95.249298095703125 92.552398681640625 98.6331024169921875 97.11730194091796875 91.825103759765625 91.60610198974609375 94.91919708251953125 94.60260009765625 96.3112030029296875 88.4781036376953125 98.6945037841796875 99.1676025390625 97.97640228271484375 98.03730010986328125 98.2212982177734375 92.4208984375 95.0319976806640625 99.272796630859375 99.5355987548828125 99.0446014404296875 93.56870269775390625 92.82399749755859375 84.00949859619140625 95.09329986572265625 87.59310150146484375 79.87670135498046875 87.58429718017578125 87.3040008544921875 94.2696990966796875 95.47879791259765625 92.54360198974609375 50.868499755859375 0 0 0 0.94630002975463867188 0.3680000007152557373 0.48640000820159912109 0 54.911098480224609375 88.19770050048828125 97.888397216796875 92.29830169677734375 39.907901763916015625 95.95200347900390625 92.964202880859375 96.42510223388671875 95.8907012939453125 64.17240142822265625 0 0 34.451900482177734375 35.42449951171875 8.8319997787475585938 0.53450000286102294922 8.2594995498657226563 63.366298675537109375 84.973297119140625 72.97820281982421875 69.674896240234375 10.698300361633300781 41.259998321533203125 91.88809967041015625 90.30930328369140625 90.46700286865234375 92.0178985595703125 98.2212982177734375 83.5012969970703125 97.9676971435546875 82.6775970458984375 35.2667999267578125 12.056400299072265625 6.9218997955322265625 16.454900741577148438 13.539999961853027344 5.3797998428344726563 15.753999710083007813 23.604700088500976563 61.05319976806640625 96.65290069580078125 93.9552001953125 94.9969024658203125 97.41519927978515625 88.35540008544921875 82.41480255126953125 66.1175994873046875 99.3572998046875 85.10469818115234375 96.85449981689453125 86.26129913330078125 96.98590087890625 81.55609893798828125 92.3657989501953125 92.02660369873046875 88.6970977783203125 93.630096435546875 97.441497802734375 70.8314971923828125 72.12830352783203125 96.57810211181640625 93.595001220703125 93.84909820556640625 84.49140167236328125 94.7165985107421875 85.42890167236328125 19.176700592041015625 18.987100601196289063 86.0597991943359375 93.01670074462890625 38.228298187255859375 82.2220001220703125 56.62670135498046875 15.044199943542480469 9.524200439453125 59.449798583984375 49.7415008544921875 72.6277008056640625 72.6072998046875 24.71739959716796875 8.0959997177124023438 0.57829999923706054688 0.0087999999523162841797 0.10509999841451644897 0 0 0 1.2003999948501586914 10.111300468444824219 63.164798736572265625 82.6212005615234375 72.49629974365234375 65.60939788818359375 39.087001800537109375 48.44480133056640625 91.31690216064453125 79.987701416015625 93.720703125 87.461700439453125 83.834197998046875 61.25469970703125 17.550199508666992188 90.13410186767578125 87.10269927978515625 91.23809814453125 83.8516998291015625 97.93219757080078125 62.682300567626953125 
0 46.3423004150390625 88.88500213623046875 98.1947021484375 88.19300079345703125 81.53980255126953125 79.72570037841796875 93.61949920654296875 88.8406982421875 99.37169647216796875 89.5175018310546875 94.21240234375 96.39820098876953125 93.79650115966796875 91.0531005859375 98.30970001220703125 97.15789794921875 86.76110076904296875 93.2655029296875 91.70800018310546875 95.9114990234375 90.0177001953125 84.3332977294921875 88.61949920654296875 93.9468994140625 86.70800018310546875 93.27429962158203125 92.47789764404296875 96.25440216064453125 85.88500213623046875 95.46019744873046875 93.40709686279296875 93.9114990234375 84.64600372314453125 97.9385986328125 98.64600372314453125 94.2655029296875 76.92040252685546875 87.62830352783203125 85.21240234375 79.3009033203125 96.9385986328125 95.61949920654296875 96.69029998779296875 98.18579864501953125 83.8052978515625 92.35399627685546875 97.9474029541015625 89.95580291748046875 46.54869842529296875 56.557498931884765625 77.84960174560546875 89.7344970703125 54.35089874267578125 0.12389999628067016602 0.18580000102519989014 0.82300001382827758789 2.4779000282287597656 0 0.017500000074505805969 20.442499160766601563 87.6990966796875 74.7344970703125 85.60179901123046875 95.283203125 85.15789794921875 96.1593017578125 94.00879669189453125 88.61060333251953125 95.93810272216796875 81.04419708251953125 0 0.19470000267028808594 79.8052978515625 91.93810272216796875 42.38050079345703125 68.716796875 71.21050262451171875 97.8760986328125 93.47789764404296875 93.48670196533203125 76.44249725341796875 22.831899642944335938 0.34509998559951782227 22.149099349975585938 77.62830352783203125 85.6990966796875 90.22119903564453125 99.70800018310546875 95.95580291748046875 86.03510284423828125 84.9822998046875 55.46900177001953125 23.9468994140625 10.929200172424316406 10.592900276184082031 5.6666998863220214844 24.557500839233398438 36.389400482177734375 33.823001861572265625 39.92919921875 49.902698516845703125 94.85089874267578125 72.283203125 65.41590118408203125 51.247798919677734375 72.53099822998046875 92.30970001220703125 96.2368011474609375 94.07959747314453125 94.0885009765625 82.69029998779296875 92.53980255126953125 90.57520294189453125 84 76.53980255126953125 96.36280059814453125 93.9468994140625 74.07959747314453125 79.64600372314453125 97.92040252685546875 96.49120330810546875 77.65489959716796875 91.283203125 99.822998046875 86.60179901123046875 90.106201171875 22.078899383544921875 4.5752000808715820313 87.69029998779296875 97.90270233154296875 94.0885009765625 83.90270233154296875 57.403499603271484375 10.486700057983398438 19.65489959716796875 83.72570037841796875 67.41590118408203125 55.336299896240234375 53.070201873779296875 31.805299758911132813 41.69029998779296875 49.610599517822265625 2.3982000350952148438 0.66369998455047607422 0 1.6636999845504760742 0 0 0 40.283199310302734375 82.35959625244140625 89.63719940185546875 96.106201171875 78.6636962890625 80.2655029296875 97.0531005859375 85.59290313720703125 75.85089874267578125 86.3363037109375 68.23889923095703125 80.822998046875 84.035400390625 90.46019744873046875 86.00879669189453125 92.1593017578125 49.354000091552734375 95.61949920654296875 63.6363983154296875 
0 54.74089813232421875 93.28839874267578125 89.04759979248046875 76.01180267333984375 89.643402099609375 93.28839874267578125 93.44609832763671875 92.1580963134765625 98.6156005859375 90.91539764404296875 93.70890045166015625 86.48909759521484375 91.05410003662109375 98.43160247802734375 87.19000244140625 96.28279876708984375 78.55950164794921875 91.45709991455078125 93.0955963134765625 93.16570281982421875 91.0189971923828125 97.5420989990234375 96.7581024169921875 91.8162994384765625 95.66280364990234375 93.25330352783203125 93.183197021484375 99.45279693603515625 95.811798095703125 97.81829833984375 92.806396484375 98.64189910888671875 98.300201416015625 94.8583984375 99.19390106201171875 95.08460235595703125 91.2642974853515625 59.59870147705078125 95.60150146484375 95.916900634765625 97.62030029296875 97.161102294921875 92.38590240478515625 93.48110198974609375 99.447998046875 96.6880035400390625 93.3820037841796875 83.308502197265625 4.2845997810363769531 2.3043999671936035156 0.061299998313188552856 22.045000076293945313 4.8028001785278320313 9.7783002853393554688 19.582899093627929688 30.11479949951171875 40.515201568603515625 0.043800000101327896118 2.6315999031066894531 74.60790252685546875 81.4246978759765625 88.2501983642578125 78.53330230712890625 83.5012969970703125 93.8769989013671875 95.189697265625 88.3291015625 93.66510009765625 94.182098388671875 75.30010223388671875 0 0 38.999401092529296875 92.490997314453125 91.8863983154296875 95.1284027099609375 89.7602996826171875 86.8571014404296875 82.09059906005859375 98.16880035400390625 89.6959991455078125 85.6128997802734375 71.5500030517578125 37.5281982421875 27.757799148559570313 91.12419891357421875 87.1725006103515625 90.30049896240234375 79.050201416015625 98.09799957275390625 96.43389892578125 75.41400146484375 36.4058990478515625 49.706501007080078125 60.904201507568359375 29.112400054931640625 41.1548004150390625 26.128099441528320313 14.325799942016601563 19.355100631713867188 63.068401336669921875 73.68419647216796875 70.41970062255859375 71.8303985595703125 82.3009033203125 75.2649993896484375 92.04419708251953125 78.5652008056640625 84.72789764404296875 79.1027984619140625 72.89060211181640625 93.8928985595703125 85.3762969970703125 87.34580230712890625 82.85289764404296875 90.71230316162109375 75.51909637451171875 66.16139984130859375 65.67949676513671875 83.6764984130859375 93.52960205078125 72.1457977294921875 94.63770294189453125 99.9474029541015625 98.26509857177734375 90.2566986083984375 21.339199066162109375 16.323499679565429688 68.77249908447265625 93.55120086669921875 89.196502685546875 86.57669830322265625 12.819199562072753906 15.999300003051757813 25.751300811767578125 61.307300567626953125 53.69319915771484375 40.743000030517578125 21.964599609375 10.295299530029296875 63.988399505615234375 88.68830108642578125 63.07720184326171875 5.3359999656677246094 0.10419999808073043823 0 0 0 0 24.331899642944335938 94.20709991455078125 93.2707977294921875 95.7241973876953125 74.406402587890625 65.43419647216796875 87.9347991943359375 86.2261962890625 91.00229644775390625 84.18470001220703125 92.1230010986328125 86.567901611328125 92.8852996826171875 95.30359649658203125 92.41790008544921875 84.00949859619140625 79.3656005859375 94.0243988037109375 65.07649993896484375 
0 55.570400238037109375 95.00569915771484375 74.2574005126953125 64.26959991455078125 79.92639923095703125 94.0594024658203125 96.98590087890625 98.2126007080078125 88.81099700927734375 98.65380096435546875 91.70240020751953125 92.1143035888671875 99.72840118408203125 97.08229827880859375 94.13829803466796875 94.9452972412109375 81.1179962158203125 93.9629974365234375 84.16719818115234375 95.86440277099609375 88.42549896240234375 99.37470245361328125 97.5904998779296875 97.27500152587890625 97.27500152587890625 95.426300048828125 96.64420318603515625 95.1710968017578125 96.24109649658203125 96.19730377197265625 89.58209991455078125 98.64189910888671875 98.55429840087890625 97.9503021240234375 82.82659912109375 98.41410064697265625 96.4163970947265625 97.46779632568359375 99.272796630859375 96.609100341796875 97.06439971923828125 88.705902099609375 88.924896240234375 91.52719879150390625 89.15270233154296875 84.5177001953125 86.18199920654296875 84.64029693603515625 15.4822998046875 0.070100001990795135498 0 0 7.6167998313903808594 80.56600189208984375 86.75189971923828125 92.85900115966796875 84.4651031494140625 62.63909912109375 38.2837982177734375 78.14769744873046875 85.48149871826171875 85.7180023193359375 73.47760009765625 10.566900253295898438 92.82610321044921875 95.40000152587890625 90.8787994384765625 88.43419647216796875 87.80339813232421875 76.07109832763671875 0.62529999017715454102 0.92000001668930053711 41.51409912109375 97.3538970947265625 85.57779693603515625 86.38390350341796875 86.06040191650390625 95.70670318603515625 84.34239959716796875 81.3195037841796875 97.50279998779296875 94.4449005126953125 96.5214996337890625 85.15720367431640625 85.96340179443359375 95.48760223388671875 53.368999481201171875 66.4243011474609375 90.16030120849609375 84.5753021240234375 96.98590087890625 84.1584014892578125 84.55269622802734375 82.95800018310546875 72.7678985595703125 45.084201812744140625 13.169199943542480469 27.477399826049804688 20.599300384521484375 62.7266998291015625 83.2910003662109375 92.018402099609375 49.62760162353515625 73.468902587890625 67.9839019775390625 68.86009979248046875 84.21970367431640625 94.05069732666015625 88.42549896240234375 91.1855010986328125 92.45600128173828125 97.9759979248046875 86.4716033935546875 88.94390106201171875 97.82700347900390625 78.5771026611328125 65.85469818115234375 68.6060028076171875 91.31690216064453125 94.62020111083984375 76.8022003173828125 80.95149993896484375 90.21289825439453125 96.810699462890625 69.5435028076171875 75.28260040283203125 42.704498291015625 25.777599334716796875 18.610399246215820313 97.55539703369140625 89.95880126953125 81.54740142822265625 37.5281982421875 52.010898590087890625 20.47660064697265625 44.983798980712890625 53.588001251220703125 35.030200958251953125 10.422100067138671875 38.105701446533203125 96.07469940185546875 77.4029998779296875 87.04109954833984375 28.450000762939453125 3.8996000289916992188 0 0 3.5311000347137451172 30.947200775146484375 62.069599151611328125 84.63610076904296875 81.41590118408203125 81.0742034912109375 92.58740234375 86.83080291748046875 36.633701324462890625 90.02020263671875 82.26509857177734375 94.95310211181640625 82.72149658203125 95.41750335693359375 96.0395965576171875 96.503997802734375 89.7169036865234375 97.6605987548828125 97.055999755859375 86.7870025634765625 61.656200408935546875 
0 45.0540008544921875 98.81710052490234375 97.53790283203125 88.8917999267578125 92.98169708251953125 79.09400177001953125 95.54019927978515625 92.517303466796875 90.0814971923828125 78.63469696044921875 95.47879791259765625 88.294097900390625 98.0460968017578125 97.11730194091796875 95.0670013427734375 94.3634033203125 99.85980224609375 94.15579986572265625 93.91049957275390625 94.62020111083984375 84.2285003662109375 91.62760162353515625 98.40529632568359375 95.87310028076171875 96.0659027099609375 97.6605987548828125 98.92230224609375 82.95989990234375 95.45259857177734375 94.90059661865234375 97.04720306396484375 99.28150177001953125 95.76799774169921875 94.78029632568359375 99.0010986328125 97.6605987548828125 98.02860260009765625 96.40760040283203125 99.377899169921875 88.96869659423828125 96.16989898681640625 94.84799957275390625 97.89710235595703125 97.95850372314453125 86.58550262451171875 97.93219757080078125 92.3397979736328125 91.47460174560546875 0.17520000040531158447 0.035000000149011611938 0 0.017500000074505805969 9.3886003494262695313 91.31690216064453125 88.61820220947265625 84.140899658203125 88.1013031005859375 28.187200546264648438 87.31980133056640625 80.33820343017578125 49.39099884033203125 75.1072998046875 82.651397705078125 45.06259918212890625 95.2666015625 92.13179779052734375 90.7035980224609375 92.32450103759765625 79.85630035400390625 63.296199798583984375 6.9654002189636230469 53.991100311279296875 93.77030181884765625 95.47879791259765625 96.3988037109375 96.54779815673828125 95.683502197265625 75.65059661865234375 92.02660369873046875 89.73979949951171875 79.33930206298828125 96.67919921875 95.908203125 97.203399658203125 96.07469940185546875 95.02320098876953125 33.5670013427734375 0.39430001378059387207 54.604400634765625 92.5569000244140625 94.90059661865234375 89.3542022705078125 84.65779876708984375 93.17449951171875 93.77030181884765625 76.072601318359375 20.7220001220703125 48.9441986083984375 27.328500747680664063 37.290798187255859375 65.79340362548828125 67.63069915771484375 40.234798431396484375 36.2042999267578125 70.64749908447265625 98.34400177001953125 96.0659027099609375 80.197998046875 87.6894989013671875 86.90090179443359375 76.27269744873046875 94.1295013427734375 97.27500152587890625 93.70330047607421875 96.95079803466796875 92.797698974609375 73.04830169677734375 94.11199951171875 88.61820220947265625 80.5572967529296875 89.1262969970703125 73.09210205078125 77.7183990478515625 91.35199737548828125 84.447601318359375 87.12870025634765625 81.257598876953125 41.7593994140625 0.61330002546310424805 66.2928009033203125 91.29940032958984375 83.32599639892578125 19.706399917602539063 80.9076995849609375 55.61199951171875 41.925899505615234375 39.700298309326171875 15.114299774169921875 66.2498016357421875 87.4792022705078125 92.1580963134765625 66.02120208740234375 84.91190338134765625 35.161701202392578125 2.1105000972747802734 0 0 0.35920000076293945313 32.410400390625 82.09059906005859375 81.448699951171875 82.57250213623046875 81.93289947509765625 82.99310302734375 79.9001007080078125 65.94229888916015625 86.38390350341796875 77.375396728515625 84.2985992431640625 89.77480316162109375 92.14929962158203125 88.98619842529296875 98.580596923828125 97.87220001220703125 87.59310150146484375 92.07039642333984375 91.9302978515625 51.575199127197265625 
0 56.46849822998046875 98.58409881591796875 97.23889923095703125 98.59649658203125 97.67259979248046875 91.47789764404296875 86.61060333251953125 79.52210235595703125 91.23889923095703125 95.9474029541015625 94.65489959716796875 85.43360137939453125 93.76110076904296875 92.42479705810546875 93.74340057373046875 93.03510284423828125 95.04419708251953125 89.7344970703125 93.49559783935546875 89.8052978515625 87.97350311279296875 98.28949737548828125 97.32740020751953125 94.47789764404296875 96.06189727783203125 79.46900177001953125 99.54869842529296875 95.14040374755859375 87.7698974609375 89.20349884033203125 98.7698974609375 98.88500213623046875 94.22119903564453125 94.3246002197265625 94.38050079345703125 97.59290313720703125 88.8760986328125 97.69029998779296875 99.37169647216796875 86.79650115966796875 91.2631988525390625 95.86730194091796875 93 94.77880096435546875 99.38939666748046875 99.0531005859375 97.50879669189453125 93.1239013671875 16.247800827026367188 0.079599998891353607178 0 3.4779000282287597656 62.64910125732421875 77.74340057373046875 82.8583984375 94.07080078125 92.13269805908203125 88.07959747314453125 87.35089874267578125 85.8406982421875 83.44249725341796875 85.49559783935546875 90.3009033203125 96.1947021484375 94.35089874267578125 87.22119903564453125 98.53099822998046875 98.57520294189453125 59.1593017578125 1.5310000181198120117 0 11.72570037841796875 76.59290313720703125 98.09729766845703125 92.32740020751953125 88.70800018310546875 94.28070068359375 86.283203125 80.52210235595703125 91.42479705810546875 97.49559783935546875 88.70800018310546875 95.21240234375 87.78949737548828125 91.76110076904296875 83.1947021484375 56.30970001220703125 7.6549000740051269531 33.63719940185546875 93.15789794921875 89 92.25659942626953125 91.6636962890625 90.716796875 83.81420135498046875 83.7631988525390625 91.716796875 85.25659942626953125 40.522098541259765625 12.557499885559082031 22.938100814819335938 56.245601654052734375 32.23889923095703125 1.4070999622344970703 66.65489959716796875 72.9468994140625 94.0885009765625 91.9824981689453125 86.8583984375 93.177001953125 78.07959747314453125 97.8052978515625 98.9468994140625 93.47370147705078125 68.7344970703125 89.59290313720703125 74.38939666748046875 97.49559783935546875 97.86730194091796875 79.37169647216796875 91.8946990966796875 76.681396484375 88.283203125 90.72570037841796875 96.47789764404296875 72.93810272216796875 94.0614013671875 67.177001953125 0 7.8850002288818359375 74.79650115966796875 75.60179901123046875 14.938599586486816406 50.575199127197265625 34.27429962158203125 59.079601287841796875 59.336299896240234375 46.424800872802734375 88.34210205078125 84.1416015625 71.15039825439453125 90.15039825439453125 43.67259979248046875 18.70800018310546875 0.11400000005960464478 0 0 0 3.1770000457763671875 64.92040252685546875 88.07019805908203125 73.9468994140625 63.973499298095703125 87.11499786376953125 79.716796875 84.20349884033203125 78.61949920654296875 83.7017974853515625 89.8583984375 89.67259979248046875 97.6990966796875 63.9822998046875 67.30970001220703125 89.622802734375 87.964599609375 94.61949920654296875 93.40709686279296875 35.454498291015625 
0 62.554599761962890625 98.9134979248046875 92.47350311279296875 85.0269012451171875 88.72339630126953125 75.99230194091796875 83.94809722900390625 78.5771026611328125 87.50550079345703125 96.08300018310546875 96.3813018798828125 91.52719879150390625 92.1580963134765625 96.3462982177734375 98.00229644775390625 80.88410186767578125 87.3827972412109375 92.6750030517578125 98.160003662109375 94.62889862060546875 84.14969635009765625 97.06439971923828125 92.5699005126953125 89.862396240234375 99.08879852294921875 97.93219757080078125 91.62359619140625 98.6016998291015625 97.56420135498046875 90.02020263671875 97.196197509765625 98.300201416015625 96.77559661865234375 99.40070343017578125 97.6692962646484375 86.0684967041015625 99.57939910888671875 98.20379638671875 90.79119873046875 92.6399993896484375 97.97640228271484375 98.0635986328125 97.993499755859375 97.222503662109375 86.6819000244140625 95.76799774169921875 98.254302978515625 87.52300262451171875 85.63919830322265625 2.3745000362396240234 0 3.9867000579833984375 64.3650970458984375 94.41860198974609375 88.294097900390625 86.04219818115234375 83.66770172119140625 90.2655029296875 94.84110260009765625 87.1638031005859375 89.53820037841796875 90.2655029296875 88.72339630126953125 89.22280120849609375 96.2133026123046875 45.421901702880859375 20.756999969482421875 93.07810211181640625 86.8571014404296875 7.0183000564575195313 0 0.35049998760223388672 72.34729766845703125 84.9207000732421875 96.43389892578125 94.93560028076171875 89.187103271484375 95.1020965576171875 92.6399993896484375 98.7032012939453125 86.13860321044921875 95.16339874267578125 87.952301025390625 94.7454986572265625 89.79229736328125 96.8282012939453125 90.37059783935546875 84.07080078125 81.41590118408203125 93.76409912109375 96.8282012939453125 75.47530364990234375 84.57019805908203125 89.80989837646484375 94.06819915771484375 92.62640380859375 90.335601806640625 87.64569854736328125 25.777599334716796875 61.9468994140625 26.539899826049804688 30.32830047607421875 6.6591000556945800781 46.13159942626953125 80.85520172119140625 82.2220001220703125 95.0670013427734375 92.95639801025390625 90.34429931640625 72.058197021484375 89.51200103759765625 95.15460205078125 85.31500244140625 93.79889678955078125 93.35849761962890625 92.83270263671875 66.73090362548828125 82.94049835205078125 98.378997802734375 69.08789825439453125 88.4315032958984375 47.612400054931640625 87.71579742431640625 93.55120086669921875 76.421600341796875 89.89749908447265625 82.59510040283203125 88.81980133056640625 21.422899246215820313 14.527299880981445313 19.057199478149414063 61.824199676513671875 56.86119842529296875 44.0988006591796875 47.235599517822265625 40.48889923095703125 57.162899017333984375 90.52829742431640625 65.3813018798828125 77.008697509765625 94.17330169677734375 88.81099700927734375 88.399200439453125 56.926300048828125 2.8747999668121337891 0.23659999668598175049 0 0 0.061299998313188552856 52.834499359130859375 86.22550201416015625 62.735500335693359375 70.6826019287109375 84.000701904296875 87.02359771728515625 89.45059967041015625 92.1580963134765625 88.62249755859375 86.05100250244140625 90.45819854736328125 93.4197998046875 27.25839996337890625 38.824100494384765625 83.57649993896484375 94.61139678955078125 93.14820098876953125 89.12640380859375 47.218700408935546875 
0 61.207698822021484375 89.7135009765625 92.0178985595703125 99.157501220703125 99.8423004150390625 92.7100982666015625 88.14510345458984375 86.7169036865234375 90.6685028076171875 94.137603759765625 99.0625 88.30280303955078125 96.71430206298828125 88.67960357666015625 91.5623016357421875 94.81500244140625 98.0724029541015625 86.52410125732421875 86.82199859619140625 96.057098388671875 85.00830078125 96.560699462890625 92.8152008056640625 90.0814971923828125 73.91570281982421875 92.92910003662109375 73.60900115966796875 98.44539642333984375 82.23960113525390625 92.73639678955078125 95.00569915771484375 97.222503662109375 97.301300048828125 96.88210296630859375 97.41519927978515625 95.5926971435546875 97.26629638671875 90.2566986083984375 64.645599365234375 86.19989776611328125 92.95639801025390625 100 99.97370147705078125 99.544403076171875 98.00229644775390625 98.930999755859375 100 92.29830169677734375 25.882799148559570313 2.9702999591827392578 1.0601999759674072266 41.64550018310546875 95.726898193359375 87.9347991943359375 90.78240203857421875 81.93289947509765625 90.3267974853515625 97.02089691162109375 92.40059661865234375 91.77249908447265625 93.901702880859375 91.00150299072265625 92.29830169677734375 89.85369873046875 90.64620208740234375 38.158199310302734375 0.0087999999523162841797 43.415401458740234375 64.95220184326171875 1.4720000028610229492 1.5198999643325805664 5.8267002105712890625 78.12139892578125 98.27390289306640625 92.245697021484375 92.4208984375 75.5341033935546875 95.2772979736328125 87.8296966552734375 90.642303466796875 97.1436004638671875 64.36519622802734375 96.88079833984375 83.00330352783203125 92.13179779052734375 92.1930999755859375 93.104400634765625 91.22930145263671875 95.25980377197265625 88.90920257568359375 96.0659027099609375 96.10970306396484375 94.40110015869140625 86.52410125732421875 89.53820037841796875 82.08270263671875 78.051300048828125 90.69480133056640625 80.56600189208984375 85.94589996337890625 81.46849822998046875 73.37149810791015625 22.9738006591796875 66.90619659423828125 85.5428009033203125 84.8506011962890625 87.952301025390625 88.68329620361328125 87.59310150146484375 96.293701171875 90.1865997314453125 88.56569671630859375 83.42240142822265625 86.06040191650390625 77.595703125 73.0045013427734375 67.1251983642578125 70.19190216064453125 97.54669952392578125 88.81980133056640625 73.07630157470703125 72.3123016357421875 73.05699920654296875 80.56600189208984375 78.90129852294921875 91.15920257568359375 96.46520233154296875 79.356903076171875 74.7830963134765625 22.982599258422851563 24.086599349975585938 36.353298187255859375 55.01129913330078125 78.9626007080078125 86.67310333251953125 78.85739898681640625 72.89929962158203125 90.92259979248046875 78.9474029541015625 38.570098876953125 86.49790191650390625 87.4091033935546875 83.518798828125 98.2826995849609375 73.53659820556640625 29.413799285888671875 0.4643999934196472168 0.86739999055862426758 0 40.769298553466796875 71.4434967041015625 44.97499847412109375 1.6998000144958496094 85.76190185546875 93.8052978515625 73.6352996826171875 85.44640350341796875 84.1324005126953125 81.3896026611328125 90.0464019775390625 67.274200439453125 45.088901519775390625 5.677700042724609375 43.851001739501953125 86.25250244140625 97.18740081787109375 96.9683990478515625 56.831699371337890625 
0 59.851898193359375 98.133697509765625 92.92910003662109375 95.44029998779296875 93.209503173828125 95.60150146484375 71.89170074462890625 92.0879974365234375 95.04070281982421875 95.69219970703125 96.04840087890625 90.29180145263671875 91.4658966064453125 90.8000030517578125 91.15039825439453125 94.9712982177734375 97.362701416015625 89.12640380859375 87.53179931640625 89.91500091552734375 82.204498291015625 89.0742034912109375 94.55010223388671875 90.966400146484375 75.42279815673828125 94.84799957275390625 95.40000152587890625 92.487396240234375 98.05480194091796875 87.99610137939453125 96.2147979736328125 99.69329833984375 99.6056976318359375 99.03600311279296875 94.40110015869140625 98.545501708984375 77.035003662109375 99.4304962158203125 94.3748016357421875 94.63770294189453125 94.4936981201171875 93.656402587890625 82.03800201416015625 80.86389923095703125 92.5699005126953125 87.74199676513671875 89.7516021728515625 94.567596435546875 70.86660003662109375 82.27459716796875 73.442596435546875 82.5287017822265625 98.51490020751953125 91.868896484375 94.76909637451171875 92.13179779052734375 95.70670318603515625 81.69629669189453125 95.006103515625 89.6959991455078125 93.84909820556640625 91.658599853515625 89.91500091552734375 82.32720184326171875 87.96250152587890625 52.9571990966796875 0.043800000101327896118 0 0 2.2518000602722167969 0.14759999513626098633 1.4106999635696411133 61.666500091552734375 96.057098388671875 99.40419769287109375 94.287200927734375 92.7393035888671875 94.39240264892578125 90.8701019287109375 78.4192962646484375 98.32649993896484375 97.993499755859375 96.31999969482421875 98.88829803466796875 95.0319976806640625 97.71309661865234375 94.06819915771484375 80.434600830078125 96.26740264892578125 83.67209625244140625 93.8842010498046875 97.4589996337890625 97.70439910888671875 79.2079010009765625 90.59839630126953125 90.733001708984375 89.6259002685546875 92.972900390625 88.784698486328125 97.65180206298828125 84.21970367431640625 68.90740203857421875 55.734699249267578125 29.545299530029296875 63.068401336669921875 65.45169830322265625 72.09320068359375 90.98490142822265625 78.0251007080078125 93.15689849853515625 97.18740081787109375 90.642303466796875 86.14739990234375 76.8282012939453125 86.20870208740234375 85.60410308837890625 72.28600311279296875 94.93560028076171875 88.714599609375 94.252197265625 81.9785003662109375 78.36679840087890625 89.6345977783203125 87.3040008544921875 88.68830108642578125 80.881500244140625 93.70330047607421875 70.743896484375 86.1298980712890625 86.0684967041015625 3.83769989013671875 25.435899734497070313 45.11029815673828125 12.503299713134765625 18.8031005859375 84.56150054931640625 86.48909759521484375 91.36949920654296875 83.9412994384765625 66.08249664306640625 67.0550994873046875 74.81819915771484375 96.3813018798828125 77.3329010009765625 80.0764007568359375 37.5186004638671875 6.2822999954223632813 8.174900054931640625 0 52.632999420166015625 85.0702972412109375 66.79229736328125 8.1485996246337890625 87.47039794921875 90.642303466796875 88.153900146484375 88.644500732421875 87.727996826171875 84.973297119140625 96.81939697265625 77.9550018310546875 94.36609649658203125 21.046199798583984375 0 14.869000434875488281 66.61699676513671875 88.04869842529296875 52.2592010498046875 
0 64.45050048828125 95.38939666748046875 96.61060333251953125 90.9824981689453125 94.07959747314453125 99.61949920654296875 77.69029998779296875 75.7698974609375 97.51329803466796875 79.28949737548828125 90.93810272216796875 93.46900177001953125 94.97350311279296875 85.9468994140625 96.46019744873046875 88.0525970458984375 97.53980255126953125 83.23889923095703125 86.50440216064453125 81.964599609375 82.177001953125 84.63159942626953125 85.6636962890625 96.81420135498046875 98.67259979248046875 95.57520294189453125 93.52210235595703125 90.3946990966796875 89.7344970703125 80.86730194091796875 90.8406982421875 98.67259979248046875 98.035400390625 97.69300079345703125 85.29199981689453125 80.61060333251953125 69.99120330810546875 84.25659942626953125 95.49559783935546875 97.99120330810546875 99.13159942626953125 88.38939666748046875 93.79650115966796875 96.822998046875 94.27429962158203125 94.247802734375 95.42980194091796875 99.86730194091796875 97.29199981689453125 92.61949920654296875 99.46019744873046875 90.1947021484375 97.4474029541015625 94.57520294189453125 89.1416015625 98.0885009765625 92.13269805908203125 99.84960174560546875 88.4210968017578125 88.2655029296875 90.38939666748046875 95.45130157470703125 90.72570037841796875 86.11499786376953125 86.0614013671875 29.106199264526367188 0 0.088500000536441802979 0.27430000901222229004 2.3273999691009521484 30.271900177001953125 3.8938000202178955078 37.58409881591796875 96.53099822998046875 99.42479705810546875 98.8406982421875 97.81580352783203125 86.45130157470703125 66.23889923095703125 90.3009033203125 94.64600372314453125 91.3363037109375 95.07080078125 98.8860015869140625 97.88500213623046875 93.38050079345703125 95.2301025390625 97.07959747314453125 98.1239013671875 85.7017974853515625 96.84960174560546875 93.79650115966796875 95.16809844970703125 98.41590118408203125 95.84960174560546875 89.5614013671875 94.0177001953125 85.61060333251953125 81.13269805908203125 99.25659942626953125 85.76110076904296875 85.35959625244140625 71.07959747314453125 24.495599746704101563 1.2035000324249267578 40.23889923095703125 60.36280059814453125 36.35089874267578125 49.557498931884765625 80.59290313720703125 96.83190155029296875 94.07080078125 87.36280059814453125 91.9824981689453125 82.36280059814453125 78.84960174560546875 69.65489959716796875 86.60179901123046875 95.21240234375 98.6990966796875 87.71929931640625 96.65489959716796875 89.35399627685546875 92.64600372314453125 95.3363037109375 92.1593017578125 88.84210205078125 88.247802734375 85.57520294189453125 97.3009033203125 40.194698333740234375 3.30970001220703125 16.08769989013671875 9.645999908447265625 0 52.38050079345703125 89.39820098876953125 82.2655029296875 76.00879669189453125 72.42479705810546875 66.1239013671875 68.964599609375 86.9822998046875 77.1593017578125 82.92980194091796875 84.0177001953125 83.50440216064453125 19.769899368286132813 0 53.36280059814453125 86.64910125732421875 84.92919921875 65.893798828125 80.46019744873046875 90.88500213623046875 81.53099822998046875 74.752197265625 70.2718963623046875 95.29199981689453125 95.893798828125 66.07080078125 84.9822998046875 14.805299758911132813 0.21050000190734863281 1.5310000181198120117 53.65489959716796875 84.07080078125 55.29090118408203125 
0 65.4001007080078125 90.0989990234375 97.77449798583984375 89.96869659423828125 89.30169677734375 97.46779632568359375 50.714099884033203125 51.406299591064453125 74.75689697265625 80.22409820556640625 90.887603759765625 93.29709625244140625 95.45259857177734375 90.3968963623046875 89.02130126953125 91.566802978515625 92.46469879150390625 90.98400115966796875 90.615997314453125 93.5074005126953125 86.40149688720703125 94.8583984375 95.09329986572265625 81.2845001220703125 83.43990325927734375 87.7946014404296875 95.2686004638671875 98.6103973388671875 96.65290069580078125 81.1793975830078125 86.72570037841796875 98.2126007080078125 93.37599945068359375 80.7277984619140625 80.5572967529296875 87.26889801025390625 67.31800079345703125 85.9897003173828125 41.55789947509765625 96.79309844970703125 94.56310272216796875 94.10320281982421875 99.47429656982421875 98.6945037841796875 90.615997314453125 98.8347015380859375 98.679901123046875 93.656402587890625 90.274200439453125 99.097503662109375 84.23729705810546875 97.55539703369140625 96.49120330810546875 96.1885986328125 96.1885986328125 87.68070220947265625 93.735198974609375 85.74430084228515625 91.42780303955078125 92.75389862060546875 88.7321014404296875 97.73940277099609375 88.95999908447265625 94.252197265625 87.58899688720703125 64.3563995361328125 0 0.0087999999523162841797 0.043800000101327896118 2.6898999214172363281 54.238300323486328125 1.7173000574111938477 5.6865000724792480469 76.8159027099609375 93.8141021728515625 94.979400634765625 95.60540008544921875 89.862396240234375 55.953701019287109375 96.81939697265625 94.39240264892578125 93.30590057373046875 93.349700927734375 77.14959716796875 98.25640106201171875 96.15350341796875 96.2848968505859375 99.0099029541015625 80.434600830078125 97.98509979248046875 83.63269805908203125 97.43280029296875 93.656402587890625 93.3321990966796875 83.13330078125 93.06929779052734375 98.58930206298828125 71.96179962158203125 75.30889892578125 90.580902099609375 83.2384033203125 90.15110015869140625 79.28679656982421875 79.330596923828125 78.95379638671875 64.4178009033203125 38.18450164794921875 49.626499176025390625 23.674800872802734375 54.087398529052734375 63.007099151611328125 82.87920379638671875 94.70780181884765625 87.58899688720703125 65.57430267333984375 96.49520111083984375 69.69249725341796875 93.2006988525390625 85.244903564453125 99.518096923828125 75.5081024169921875 99.789703369140625 93.55999755859375 73.95079803466796875 85.55159759521484375 93.76149749755859375 87.54560089111328125 68.1240997314453125 91.00150299072265625 96.07469940185546875 80.30319976806640625 21.475500106811523438 3.1006000041961669922 2.9528000354766845703 0.58700001239776611328 10.628199577331542969 62.323699951171875 91.90399932861328125 88.73549652099609375 76.4391021728515625 80.10160064697265625 87.26889801025390625 85.2274017333984375 99.17639923095703125 92.678497314453125 83.21209716796875 71.330902099609375 4.3984999656677246094 0 0.21029999852180480957 1.3461999893188476563 42.924701690673828125 79.4181976318359375 79.97899627685546875 72.06690216064453125 93.99810028076171875 60.369800567626953125 76.57630157470703125 91.61479949951171875 70.97170257568359375 63.0420989990234375 83.15959930419921875 19.968500137329101563 0 0 67.2041015625 89.60829925537109375 61.602199554443359375 
0 61.635898590087890625 99.2902984619140625 98.6156005859375 88.7093963623046875 99.64949798583984375 80.881500244140625 69.69249725341796875 92.36840057373046875 81.7400970458984375 95.90059661865234375 94.77790069580078125 98.03730010986328125 87.3827972412109375 99.18509674072265625 97.53790283203125 84.74900054931640625 92.35959625244140625 87.0323028564453125 88.97750091552734375 83.0718994140625 88.8722991943359375 74.0402984619140625 88.75839996337890625 92.39459991455078125 91.08910369873046875 94.76039886474609375 93.7440032958984375 85.54799652099609375 96.93329620361328125 86.59420013427734375 80.77629852294921875 93.595001220703125 76.82469940185546875 76.732696533203125 84.73670196533203125 96.95079803466796875 92.14929962158203125 87.34780120849609375 95.40869903564453125 98.5279998779296875 98.23690032958984375 67.379302978515625 96.670501708984375 98.86090087890625 90.887603759765625 91.84259796142578125 98.22820281982421875 95.96070098876953125 98.36150360107421875 63.383899688720703125 35.257999420166015625 19.521600723266601563 73.25859832763671875 93.13939666748046875 81.25820159912109375 94.86550140380859375 89.993896484375 90.37940216064453125 90.95880126953125 92.13179779052734375 91.92150115966796875 65.8722991943359375 91.70240020751953125 98.40529632568359375 86.5121002197265625 52.3350982666015625 1.0601999759674072266 22.325399398803710938 7.6666998863220214844 56.312999725341796875 26.211599349975585938 0.63959997892379760742 19.381399154663085938 54.64820098876953125 91.64990234375 98.03730010986328125 98.488800048828125 98.2126007080078125 97.70439910888671875 96.95079803466796875 89.3191986083984375 89.60829925537109375 98.72080230712890625 96.986297607421875 78.12139892578125 96.54779815673828125 96.09220123291015625 98.57180023193359375 96.30249786376953125 90.298797607421875 83.49250030517578125 96.46019744873046875 95.95200347900390625 94.22589874267578125 95.98699951171875 98.39330291748046875 99.56189727783203125 78.5070037841796875 82.49359893798828125 86.7169036865234375 69.9203033447265625 87.89299774169921875 96.72299957275390625 91.67620086669921875 84.386199951171875 92.37709808349609375 81.32830047607421875 95.83119964599609375 91.21179962158203125 59.75640106201171875 79.12909698486328125 50.442501068115234375 88.705902099609375 94.398101806640625 93.70890045166015625 88.43419647216796875 66.135101318359375 81.0742034912109375 88.7671966552734375 94.8217010498046875 96.8733978271484375 93.3321990966796875 94.29599761962890625 89.51200103759765625 99.5531005859375 89.2490997314453125 90.52459716796875 92.1405029296875 97.50279998779296875 95.31240081787109375 46.66609954833984375 55.6996002197265625 27.184299468994140625 14.001600265502929688 6.1946997642517089844 5.7740998268127441406 6.53639984130859375 67.63339996337890625 93.989898681640625 89.52950286865234375 84.5438995361328125 91.167999267578125 84.26360321044921875 83.01940155029296875 86.5467987060546875 87.6981964111328125 57.59220123291015625 0 0 0 0.069499999284744262695 26.671300888061523438 81.64369964599609375 76.24639892578125 80.5923004150390625 38.00930023193359375 50.69660186767578125 79.6334991455078125 78.8135986328125 30.281299591064453125 8.7795000076293945313 49.76779937744140625 9.48040008544921875 0 0 69.86769866943359375 88.7935028076171875 69.37889862060546875 
0 61.7162017822265625 97.6781005859375 81.98549652099609375 99.3572998046875 99.26399993896484375 78.1652984619140625 84.21099853515625 95.356201171875 73.81060028076171875 89.013397216796875 83.18579864501953125 92.83270263671875 88.5569000244140625 96.2761993408203125 89.96759796142578125 86.5034027099609375 96.8983001708984375 87.8296966552734375 83.6239013671875 84.6139984130859375 94.427398681640625 77.0540008544921875 91.0189971923828125 85.62169647216796875 73.0746002197265625 97.196197509765625 91.167999267578125 93.28639984130859375 88.8722991943359375 86.74320220947265625 94.252197265625 74.36260223388671875 80.75879669189453125 81.50080108642578125 96.4514007568359375 87.49669647216796875 88.9423980712890625 98.71199798583984375 96.5214996337890625 95.776702880859375 95.97879791259765625 96.3112030029296875 82.23079681396484375 98.510498046875 97.8358001708984375 82.204498291015625 89.69080352783203125 87.27770233154296875 98.7646026611328125 88.3816986083984375 58.555999755859375 1.0865000486373901367 37.371898651123046875 99.3603973388671875 91.93900299072265625 93.78780364990234375 76.23760223388671875 99.36910247802734375 89.62129974365234375 85.59539794921875 93.595001220703125 88.20639801025390625 97.71309661865234375 84.02700042724609375 71.6692962646484375 26.049200057983398438 20.266399383544921875 57.12779998779296875 49.58380126953125 59.143100738525390625 50.199798583984375 73.0832977294921875 93.77030181884765625 94.06819915771484375 89.61710357666015625 92.17559814453125 97.168701171875 98.2126007080078125 94.31349945068359375 87.89099884033203125 96.5214996337890625 98.30889892578125 79.62850189208984375 90.4029998779296875 88.7321014404296875 85.53399658203125 68.17659759521484375 96.5740966796875 99.20269775390625 80.44989776611328125 85.560302734375 98.133697509765625 93.0254974365234375 96.23239898681640625 98.95729827880859375 98.88829803466796875 95.33860015869140625 67.6947021484375 90.0113983154296875 91.91269683837890625 81.71379852294921875 88.82230377197265625 88.4868011474609375 81.02159881591796875 76.2113037109375 81.9766998291015625 81.652496337890625 84.24530029296875 93.77899932861328125 57.022701263427734375 73.88939666748046875 39.849300384521484375 67.33550262451171875 77.8878021240234375 93.69139862060546875 85.385101318359375 61.061901092529296875 64.198699951171875 71.99680328369140625 68.80750274658203125 87.6324005126953125 97.2926025390625 89.31040191650390625 85.62169647216796875 92.89409637451171875 75.5366973876953125 86.67710113525390625 87.47039794921875 96.9683990478515625 92.937896728515625 78.95379638671875 93.2006988525390625 49.426799774169921875 43.038600921630859375 22.141399383544921875 1.7962000370025634766 6.3611998558044433594 0.4731000065803527832 32.056598663330078125 81.09169769287109375 79.190399169921875 61.754100799560546875 76.06240081787109375 76.14119720458984375 76.27239990234375 73.19719696044921875 24.165399551391601563 0.30669999122619628906 0 0 0 4.573699951171875 50.7490997314453125 85.8231964111328125 94.66400146484375 74.2223968505859375 34.968898773193359375 59.24089813232421875 65.86350250244140625 28.940700531005859375 2.5934998989105224609 2.8125998973846435547 0 0 0.20149999856948852539 74.47650146484375 90.22170257568359375 69.9369964599609375 
0 63.008998870849609375 98.38050079345703125 94.8583984375 98.4210968017578125 84.55750274658203125 79.40709686279296875 87.67259979248046875 83.74340057373046875 94.83190155029296875 92.63159942626953125 94.38050079345703125 97.65489959716796875 99.51329803466796875 95.52210235595703125 89.42479705810546875 99.2281036376953125 89.9468994140625 95.64600372314453125 86.38939666748046875 96.88500213623046875 91.27429962158203125 68.49120330810546875 87.34510040283203125 88.6990966796875 92.106201171875 89.7698974609375 88.0531005859375 87.97370147705078125 83.77880096435546875 63.22119903564453125 56.23889923095703125 93.16809844970703125 95.39820098876953125 88.30699920654296875 97.25659942626953125 97.88500213623046875 93.90270233154296875 96.8406982421875 99.00879669189453125 98.81420135498046875 98.28949737548828125 98.18579864501953125 85.42479705810546875 98.8583984375 99.32740020751953125 98.52210235595703125 96.30699920654296875 89.822998046875 96.51329803466796875 94.1593017578125 49.318599700927734375 2.6814000606536865234 58.078899383544921875 87.42479705810546875 96.07080078125 93.32740020751953125 86.247802734375 96.02649688720703125 85.78949737548828125 91.1239013671875 83.8052978515625 94.2655029296875 83.36280059814453125 97.49559783935546875 66.92980194091796875 5.5752000808715820313 7.2389001846313476563 18.061899185180664063 79.13269805908203125 88.60179901123046875 87.9210968017578125 81.64600372314453125 86.8052978515625 99.07080078125 97.62830352783203125 95.0885009765625 92.9561004638671875 83.99120330810546875 85.52210235595703125 96.16809844970703125 89.6990966796875 94.13269805908203125 98.07080078125 94.78949737548828125 91.92919921875 52.893798828125 34.70800018310546875 38.061901092529296875 97.53980255126953125 98.2017974853515625 87.60179901123046875 75.43360137939453125 82.964599609375 90.035400390625 96.74340057373046875 96.63159942626953125 98.77880096435546875 89.035400390625 89.681396484375 91.53980255126953125 77.00879669189453125 86.35089874267578125 95.35399627685546875 97.76110076904296875 93.3009033203125 98.72570037841796875 95.318603515625 83.02629852294921875 85.38939666748046875 66.318603515625 56.61949920654296875 35.681400299072265625 18 41.41230010986328125 61.442501068115234375 84.3009033203125 70.42479705810546875 96.92919921875 94.247802734375 83.81420135498046875 82.96489715576171875 94.8583984375 87.52210235595703125 71.46019744873046875 99.00879669189453125 89.29199981689453125 90.74559783935546875 98.1416015625 98.92040252685546875 98.681396484375 92.30970001220703125 87.0531005859375 89.4561004638671875 45.8760986328125 13.27429962158203125 2.4247999191284179688 0.68140000104904174805 0.01769999973475933075 20.570199966430664063 48.63719940185546875 2.354000091552734375 8.354000091552734375 54.16809844970703125 87.38050079345703125 88.7368011474609375 44.522098541259765625 60.9114990234375 7.2565999031066894531 0.0087999999523162841797 0.0087999999523162841797 0 0 0 23.318599700927734375 61.716800689697265625 79.716796875 82.25659942626953125 32.63159942626953125 48.07080078125 47.20349884033203125 0 0 1.1416000127792358398 0 0 17.63719940185546875 66.1947021484375 70.2545013427734375 
0 66.47039794921875 93.72650146484375 90.966400146484375 97.2729034423828125 81.53859710693359375 97.48529815673828125 88.96869659423828125 93.84909820556640625 83.27349853515625 81.5789031982421875 75.42279815673828125 99.24649810791015625 79.40940093994140625 97.6255035400390625 93.2707977294921875 98.87090301513671875 98.7646026611328125 90.83499908447265625 89.43309783935546875 89.21410369873046875 82.56369781494140625 84.6100006103515625 86.50659942626953125 86.9972991943359375 92.82399749755859375 88.153900146484375 94.48000335693359375 92.64369964599609375 50.3636016845703125 20.756999969482421875 42.2324981689453125 90.20420074462890625 90.1865997314453125 92.72190093994140625 93.28839874267578125 60.31719970703125 99.04489898681640625 97.95850372314453125 99.02739715576171875 91.66739654541015625 99.14019775390625 98.50170135498046875 99.99120330810546875 99.5531005859375 96.53900146484375 98.64189910888671875 97.23809814453125 99.6320037841796875 90.98400115966796875 35.82759857177734375 8.0873003005981445313 0.0087999999523162841797 53.170101165771484375 99.29900360107421875 85.20110321044921875 92.56109619140625 82.8090972900390625 83.63269805908203125 92.46140289306640625 88.7321014404296875 95.1985015869140625 83.81670379638671875 84.82430267333984375 73.0832977294921875 78.22650146484375 71.98809814453125 37.9040985107421875 27.985599517822265625 66.932403564453125 90.12529754638671875 90.55059814453125 68.27300262451171875 96.95079803466796875 87.25140380859375 90.51959991455078125 92.20189666748046875 93.52960205078125 90.6510009765625 96.7317962646484375 86.25250244140625 93.9542999267578125 94.9969024658203125 93.454803466796875 76.89769744873046875 99.41300201416015625 93.3408966064453125 88.91609954833984375 63.611698150634765625 95.31240081787109375 97.24680328369140625 90.02020263671875 87.43540191650390625 98.133697509765625 84.21099853515625 94.69899749755859375 94.4850006103515625 89.170196533203125 85.34999847412109375 74.8444976806640625 77.53440093994140625 97.72190093994140625 75.855499267578125 91.79010009765625 87.43540191650390625 91.79010009765625 82.73020172119140625 93.8842010498046875 84.82720184326171875 90.335601806640625 82.49359893798828125 87.5493011474609375 89.82740020751953125 76.29900360107421875 79.33820343017578125 16.34980010986328125 61.68399810791015625 83.79920196533203125 96.31999969482421875 92.490997314453125 84.26360321044921875 91.59279632568359375 95.3737030029296875 83.0543975830078125 70.27069854736328125 98.89600372314453125 91.3343963623046875 89.5431976318359375 98.78209686279296875 98.80840301513671875 95.18090057373046875 82.50240325927734375 86.7870025634765625 89.0829010009765625 21.790899276733398438 8.709400177001953125 29.431400299072265625 6.6940999031066894531 0 1.3983000516891479492 0.37680000066757202148 27.205799102783203125 81.82769775390625 83.28220367431640625 86.708099365234375 90.11640167236328125 82.4235992431640625 80.09290313720703125 22.868700027465820313 1.007599949836730957 0.16650000214576721191 0.086900003254413604736 0.061299998313188552856 8.6830997467041015625 57.741199493408203125 63.05970001220703125 95.8993988037109375 96.6967010498046875 85.39170074462890625 75.66809844970703125 51.914501190185546875 26.2332000732421875 10.908599853515625 0 0 0.043800000101327896118 0 0.78860002756118774414 16.61569976806640625 
0 69.23560333251953125 94.7427978515625 81.25820159912109375 84.497100830078125 95.8206024169921875 93.6125030517578125 93.2707977294921875 70.7527008056640625 89.643402099609375 95.11029815673828125 97.301300048828125 95.2686004638671875 97.748199462890625 99.7722015380859375 98.78209686279296875 94.00730133056640625 90.22170257568359375 92.84149932861328125 98.24759674072265625 95.69789886474609375 98.12490081787109375 90.87200164794921875 89.24030303955078125 97.06479644775390625 99.19390106201171875 93.41100311279296875 92.89409637451171875 87.7975006103515625 71.80410003662109375 79.61100006103515625 89.57330322265625 96.24990081787109375 95.908203125 96.16120147705078125 89.51200103759765625 80.741302490234375 92.98169708251953125 87.566802978515625 96.03079986572265625 99.071197509765625 98.92310333251953125 99.483001708984375 60.063098907470703125 69.8238983154296875 98.30889892578125 96.915802001953125 96.8647003173828125 96.94210052490234375 98.62439727783203125 13.397000312805175781 10.829799652099609375 0 64.00029754638671875 93.31459808349609375 85.76190185546875 90.6510009765625 97.5290985107421875 89.27539825439453125 88.9178009033203125 79.96140289306640625 68.5095977783203125 99.9210968017578125 90.1165008544921875 95.5839996337890625 84.87059783935546875 91.9828033447265625 96.6967010498046875 21.843500137329101563 30.929599761962890625 69.19300079345703125 82.9163970947265625 80.31189727783203125 96.6616973876953125 89.4156036376953125 91.9828033447265625 96.670501708984375 91.88809967041015625 81.4597015380859375 94.29599761962890625 71.7602996826171875 83.25589752197265625 98.53679656982421875 98.27390289306640625 87.73670196533203125 90.5458984375 86.02469635009765625 93.35849761962890625 94.672698974609375 91.19429779052734375 98.61910247802734375 98.12490081787109375 98.7646026611328125 90.335601806640625 96.24109649658203125 98.80840301513671875 97.42919921875 92.6486968994140625 90.97519683837890625 88.63580322265625 93.4197998046875 84.692901611328125 95.32740020751953125 98.545501708984375 90.67729949951171875 90.9402008056640625 89.5644989013671875 88.644500732421875 97.3249969482421875 85.25370025634765625 82.616302490234375 90.3881988525390625 78.664703369140625 95.78549957275390625 91.610198974609375 49.23329925537109375 19.1623992919921875 79.23419952392578125 99.17639923095703125 88.95999908447265625 81.266998291015625 86.26020050048828125 92.16680145263671875 96.30249786376953125 84.8856964111328125 94.90059661865234375 84.1233978271484375 97.6636962890625 97.9409027099609375 93.9893035888671875 86.36640167236328125 90.23040008544921875 92.7100982666015625 88.97859954833984375 27.004299163818359375 0.98129999637603759766 43.529300689697265625 34.294200897216796875 6.8780999183654785156 1.1725000143051147461 10.487999916076660156 50.889301300048828125 53.658100128173828125 91.1154022216796875 76.94730377197265625 83.49829864501953125 83.01059722900390625 57.136600494384765625 44.335399627685546875 0.62209999561309814453 1.8224999904632568359 0.060800001025199890137 0 11.153900146484375 84.35990142822265625 94.8917999267578125 93.92800140380859375 84.65779876708984375 91.41049957275390625 78.875 98.50170135498046875 95.2772979736328125 82.581298828125 20.117399215698242188 14.703800201416015625 0.48190000653266906738 0 4.9154000282287597656 1.0980999469757080078 
0 64.61260223388671875 87.46900177001953125 77.84960174560546875 88.4474029541015625 95.48670196533203125 97.44249725341796875 97.13269805908203125 81.7344970703125 85.46900177001953125 96.2368011474609375 90.44249725341796875 92.83190155029296875 98.58409881591796875 93.1416015625 96.681396484375 85.02629852294921875 92.36280059814453125 90.48670196533203125 97.99120330810546875 81.92040252685546875 98.92040252685546875 88.63159942626953125 97.02649688720703125 84.92919921875 89.92040252685546875 96.37169647216796875 64.20349884033203125 88.14910125732421875 87.893798828125 96.09729766845703125 88.0531005859375 90.63719940185546875 83.8406982421875 96.84210205078125 89.41590118408203125 95.51329803466796875 83.62830352783203125 84.3363037109375 94.893798828125 92.7344970703125 95.97370147705078125 98.53099822998046875 56.29199981689453125 31.920400619506835938 61.92919921875 88.35399627685546875 95.36840057373046875 90.46019744873046875 97.61949920654296875 68.3009033203125 8.30970001220703125 0 30.19300079345703125 97.20349884033203125 93.41590118408203125 92.07080078125 98.52210235595703125 88.95580291748046875 87.57019805908203125 87.93810272216796875 90.32740020751953125 95.23889923095703125 85.70800018310546875 93.716796875 87.7718963623046875 83.1239013671875 95.37169647216796875 89.8052978515625 91.54869842529296875 90.48670196533203125 76.64040374755859375 94.61949920654296875 88.77880096435546875 91.9468994140625 96.0177001953125 84.51329803466796875 92.0525970458984375 79.6636962890625 94.44249725341796875 92.59290313720703125 94.21240234375 96.45130157470703125 97.60179901123046875 97.07019805908203125 88.93810272216796875 95.63719940185546875 82.53099822998046875 95.30970001220703125 87.09729766845703125 96.15789794921875 71.57520294189453125 96.16809844970703125 82.97350311279296875 93.318603515625 98.893798828125 97.14040374755859375 97.69029998779296875 91.18579864501953125 94.52210235595703125 86.79650115966796875 96.46019744873046875 93.7631988525390625 91.53980255126953125 93.3009033203125 92.92040252685546875 89.53980255126953125 94.00879669189453125 99.49120330810546875 91.49559783935546875 91.40709686279296875 88.37169647216796875 96.035400390625 76.86730194091796875 61.701801300048828125 51.389400482177734375 29.185800552368164063 62.81420135498046875 95.23889923095703125 96.106201171875 81.1593017578125 81.5614013671875 93.86730194091796875 73.2655029296875 92.61949920654296875 91.6636962890625 90.06189727783203125 83.6667022705078125 85.84960174560546875 94.56639862060546875 68.53099822998046875 86.22119903564453125 97.38050079345703125 89.8332977294921875 51.07080078125 3.7964999675750732422 10.088500022888183594 38.336299896240234375 29.69029998779296875 29.710500717163085938 61 82.07080078125 61.32740020751953125 20.27429962158203125 63.9468994140625 90.85959625244140625 85.21240234375 54.424800872802734375 25.938100814819335938 6.5574998855590820313 18.29199981689453125 0.28069999814033508301 0 0.15039999783039093018 55.25659942626953125 84.97350311279296875 86.1416015625 78.74340057373046875 67.96489715576171875 72.106201171875 65.29199981689453125 80.8760986328125 82.52210235595703125 19.548700332641601563 24.728099822998046875 11.946900367736816406 0.40709999203681945801 2.3273999691009521484 0 
0 62.08190155029296875 92.5084991455078125 94.6464996337890625 86.807403564453125 86.4102020263671875 79.56719970703125 98.2826995849609375 85.90200042724609375 85.34999847412109375 96.70839691162109375 94.0330963134765625 86.3401031494140625 97.6605987548828125 82.09059906005859375 75.9571990966796875 98.43669891357421875 92.210601806640625 98.440399169921875 89.93250274658203125 89.12640380859375 95.189697265625 87.05049896240234375 88.11879730224609375 82.5198974609375 95.2772979736328125 82.38849639892578125 98.72949981689453125 96.56939697265625 87.50550079345703125 90.75620269775390625 97.0034027099609375 93.78780364990234375 92.35959625244140625 95.31009674072265625 89.29290008544921875 95.33860015869140625 94.2696990966796875 91.14170074462890625 95.33860015869140625 99.41300201416015625 89.50839996337890625 99.26399993896484375 96.60040283203125 83.71160125732421875 14.939100265502929688 51.984600067138671875 96.4824981689453125 73.5652008056640625 95.3737030029296875 92.53479766845703125 87.3126983642578125 25.891500473022460938 0 48.024200439453125 99.4304962158203125 81.433502197265625 94.6464996337890625 95.7592010498046875 81.41390228271484375 95.99579620361328125 87.80339813232421875 89.4593963623046875 96.54779815673828125 97.86209869384765625 70.1493988037109375 92.58740234375 85.34130096435546875 87.19000244140625 90.335601806640625 97.0034027099609375 91.618896484375 88.951202392578125 82.57250213623046875 84.3511962890625 83.834197998046875 95.85559844970703125 86.57289886474609375 96.86319732666015625 90.37059783935546875 96.70549774169921875 96.86319732666015625 96.51270294189453125 93.56870269775390625 96.968902587890625 94.15579986572265625 88.0749969482421875 97.1436004638671875 85.32379913330078125 94.69899749755859375 91.00229644775390625 34.70600128173828125 50.03070068359375 95.04070281982421875 85.34130096435546875 91.798797607421875 80.8406982421875 99.483001708984375 92.29830169677734375 75.08100128173828125 92.20189666748046875 89.722198486328125 91.89679718017578125 87.4091033935546875 98.580596923828125 87.4792022705078125 76.89479827880859375 88.1714019775390625 91.60150146484375 93.35849761962890625 95.426300048828125 87.6894989013671875 64.99610137939453125 71.0680999755859375 91.14990234375 82.581298828125 23.517000198364257813 48.173099517822265625 96.70549774169921875 97.95850372314453125 95.6365966796875 89.864501953125 86.27880096435546875 98.25640106201171875 99.57070159912109375 92.23690032958984375 98.930999755859375 98.3672027587890625 95.1985015869140625 91.70240020751953125 93.209503173828125 96.65290069580078125 98.57180023193359375 81.50080108642578125 88.26779937744140625 70.10430145263671875 34.031398773193359375 3.6449999809265136719 16.025600433349609375 52.32759857177734375 88.05750274658203125 92.69249725341796875 73.03079986572265625 61.70159912109375 63.0334014892578125 62.53260040283203125 83.9217987060546875 53.325199127197265625 20.7220001220703125 39.060699462890625 37.86029815673828125 11.707500457763671875 0.70969998836517333984 0 13.817600250244140625 62.07830047607421875 69.39459991455078125 87.89980316162109375 90.15110015869140625 98.3177032470703125 65.93360137939453125 88.20639801025390625 94.147003173828125 62.621601104736328125 83.5070037841796875 64.98729705810546875 40.024501800537109375 4.3021001815795898438 0 
0 65.69439697265625 93.01670074462890625 93.83159637451171875 92.5482025146484375 84.386199951171875 89.45059967041015625 93.2621002197265625 73.0045013427734375 79.18160247802734375 89.187103271484375 89.65219879150390625 92.22820281982421875 94.9618988037109375 89.0124969482421875 96.70549774169921875 96.6649017333984375 96.19730377197265625 90.7035980224609375 88.6970977783203125 81.302001953125 99.24649810791015625 83.04669952392578125 86.567901611328125 95.05829620361328125 87.6194000244140625 98.3527984619140625 93.35849761962890625 91.393096923828125 91.6410980224609375 93.63880157470703125 95.64530181884765625 87.50550079345703125 96.7581024169921875 86.016998291015625 89.74849700927734375 97.4503021240234375 90.05519866943359375 99.8423004150390625 93.454803466796875 84.0619964599609375 90.23799896240234375 96.30249786376953125 90.16030120849609375 95.48760223388671875 11.881199836730957031 6.3786997795104980469 77.98329925537109375 95.08460235595703125 97.2837982177734375 96.9770965576171875 96.609100341796875 97.93219757080078125 52.449199676513671875 55.752201080322265625 30.097299575805664063 83.4662017822265625 91.8162994384765625 85.88449859619140625 88.83100128173828125 96.5740966796875 89.05629730224609375 83.78170013427734375 89.9763031005859375 94.3047027587890625 92.04450225830078125 94.98819732666015625 89.923797607421875 86.602996826171875 89.0738983154296875 88.19770050048828125 76.1855010986328125 93.428497314453125 82.10810089111328125 89.170196533203125 78.191497802734375 88.705902099609375 94.86710357666015625 92.71880340576171875 86.05100250244140625 95.531402587890625 84.77179718017578125 93.28839874267578125 96.7581024169921875 92.487396240234375 96.19730377197265625 90.7035980224609375 93.69139862060546875 95.30359649658203125 95.23349761962890625 93.58170318603515625 80.679901123046875 83.86930084228515625 67.79109954833984375 81.88030242919921875 90.4844970703125 97.2816009521484375 98.17749786376953125 91.89520263671875 94.94439697265625 87.1374969482421875 96.4514007568359375 98.58429718017578125 96.62670135498046875 70.52480316162109375 86.015899658203125 90.23040008544921875 85.51650238037109375 90.48979949951171875 67.84369659423828125 81.94159698486328125 88.3115997314453125 62.21849822998046875 89.1614990234375 65.54630279541015625 61.67530059814453125 32.725799560546875 36.256900787353515625 91.0364990234375 87.8296966552734375 90.7736968994140625 93.2429962158203125 84.50009918212890625 88.44300079345703125 92.0879974365234375 89.66970062255859375 93.656402587890625 95.52719879150390625 92.29830169677734375 95.45259857177734375 90.5634002685546875 94.5850982666015625 91.6410980224609375 81.1013031005859375 92.09670257568359375 77.65709686279296875 67.79109954833984375 65.61820220947265625 2.5058999061584472656 44.328601837158203125 84.95580291748046875 86.67310333251953125 88.2415008544921875 84.57900238037109375 80.539703369140625 63.99169921875 88.81099700927734375 79.9176025390625 49.645099639892578125 44.14260101318359375 66.39800262451171875 44.31999969482421875 10.645799636840820313 0.070100001990795135498 16.59510040283203125 69.78009796142578125 34.925098419189453125 77.92870330810546875 91.81870269775390625 96.0395965576171875 92.06169891357421875 54.0699005126953125 64.3477020263671875 72.3910980224609375 64.71250152587890625 87.42659759521484375 20.0998992919921875 0.54320001602172851563 5.0405001640319824219 
0 69.87779998779296875 88.46050262451171875 85.8495025634765625 96.60410308837890625 91.17669677734375 98.7032012939453125 97.686798095703125 97.1436004638671875 90.74739837646484375 99.6959991455078125 98.825897216796875 95.96070098876953125 89.75730133056640625 88.951202392578125 94.45369720458984375 96.49990081787109375 98.6156005859375 76.51799774169921875 86.7606964111328125 95.1371002197265625 90.1865997314453125 98.88829803466796875 79.33930206298828125 82.66010284423828125 89.73979949951171875 92.47350311279296875 97.686798095703125 91.60150146484375 88.04000091552734375 97.95850372314453125 98.67690277099609375 96.48650360107421875 95.33860015869140625 92.82610321044921875 93.29709625244140625 81.924102783203125 99.9123992919921875 98.49289703369140625 91.4308013916015625 98.378997802734375 93.0780029296875 96.810699462890625 86.79579925537109375 87.7595977783203125 45.43939971923828125 26.285800933837890625 69.68039703369140625 91.8162994384765625 80.22429656982421875 98.5630035400390625 90.79119873046875 98.79090118408203125 97.29889678955078125 45.65850067138671875 62.23600006103515625 54.814701080322265625 99.41300201416015625 89.95880126953125 79.946197509765625 88.0048980712890625 92.552398681640625 91.798797607421875 77.39420318603515625 93.13939666748046875 99.41809844970703125 78.8925018310546875 98.7032012939453125 90.4844970703125 87.9347991943359375 89.993896484375 91.9228973388671875 94.182098388671875 91.4833984375 94.01560211181640625 89.29290008544921875 78.75229644775390625 78.37419891357421875 88.36409759521484375 99.5269012451171875 92.806396484375 81.87149810791015625 97.27500152587890625 88.05750274658203125 88.4402008056640625 90.99269866943359375 93.21829986572265625 92.9904022216796875 92.5084991455078125 96.223602294921875 98.20220184326171875 44.256500244140625 68.351898193359375 75.79949951171875 58.757598876953125 89.40679931640625 92.30500030517578125 88.6269989013671875 93.980499267578125 92.1143035888671875 94.593902587890625 89.3280029296875 89.16100311279296875 85.2975006103515625 95.99579620361328125 96.47769927978515625 90.14279937744140625 84.1233978271484375 76.307098388671875 76.92980194091796875 93.630096435546875 88.784698486328125 72.610198974609375 83.65019989013671875 96.326202392578125 79.50579833984375 58.363300323486328125 14.09799957275390625 76.29900360107421875 79.1378021240234375 89.38050079345703125 92.52210235595703125 84.27230072021484375 92.1143035888671875 84.7454986572265625 87.33899688720703125 88.03119659423828125 93.720703125 92.53479766845703125 91.2906036376953125 78.603302001953125 88.1013031005859375 85.33249664306640625 85.8607025146484375 95.69789886474609375 88.56569671630859375 75.720703125 74.406402587890625 32.909801483154296875 6.3921999931335449219 65.92479705810546875 81.70510101318359375 85.5428009033203125 81.135498046875 79.97899627685546875 86.5207977294921875 87.400299072265625 83.448699951171875 41.014598846435546875 28.458799362182617188 17.926900863647460938 56.331401824951171875 32.427898406982421875 1.3406000137329101563 42.731998443603515625 92.105499267578125 61.158298492431640625 48.36589813232421875 76.2288970947265625 90.51959991455078125 78.30539703369140625 84.4651031494140625 75.79949951171875 79.1728973388671875 91.44519805908203125 87.6194000244140625 84.95580291748046875 68.44830322265625 77.47969818115234375 
0 71.9550018310546875 95.32740020751953125 92.06189727783203125 95.6139984130859375 94.60179901123046875 91.2301025390625 88.41590118408203125 99.27429962158203125 77.84960174560546875 99.99120330810546875 85.92919921875 97.822998046875 93.78759765625 93.53099822998046875 94.23889923095703125 85.4210968017578125 99.41590118408203125 89.62830352783203125 83.54869842529296875 92.47789764404296875 96.6636962890625 88.47370147705078125 96.34510040283203125 88.60179901123046875 86.34510040283203125 89.70800018310546875 90.51329803466796875 93.6753997802734375 99.8583984375 93.63719940185546875 98.29199981689453125 83.83190155029296875 91.07959747314453125 98.71050262451171875 98.1239013671875 88.81420135498046875 98.22119903564453125 89.18579864501953125 90.81420135498046875 94.2655029296875 98.78070068359375 98.60179901123046875 98.893798828125 95.9114990234375 93.44249725341796875 93.7344970703125 97.85089874267578125 97.95580291748046875 91.0531005859375 86.72570037841796875 94.42479705810546875 88.2655029296875 84.7982025146484375 21.911500930786132813 3.4955999851226806641 81.1416015625 91.07959747314453125 86.44249725341796875 91.7631988525390625 93.90270233154296875 94.36280059814453125 94.59290313720703125 74.893798828125 88.74340057373046875 88.622802734375 88.61949920654296875 95.9468994140625 84.21240234375 95.61949920654296875 94.46019744873046875 89.68419647216796875 95.69029998779296875 88.1416015625 91.283203125 93.55750274658203125 91.2301025390625 87.34210205078125 92.51329803466796875 83.79650115966796875 83.34510040283203125 98.41590118408203125 90.40709686279296875 91.72570037841796875 92.5525970458984375 80.752197265625 72.86730194091796875 90.11499786376953125 91.3363037109375 92.88500213623046875 83.5789031982421875 97.46900177001953125 93.23889923095703125 97.62830352783203125 97.177001953125 91.58409881591796875 88.63159942626953125 96.3363037109375 94.78759765625 89.35399627685546875 86.30970001220703125 84.59290313720703125 49.5175018310546875 95.84960174560546875 97.822998046875 97.70800018310546875 90.8406982421875 91.60179901123046875 85 82.02649688720703125 82.34510040283203125 92.37169647216796875 70.39820098876953125 79.247802734375 85.00879669189453125 87.0177001953125 67.07080078125 35.097301483154296875 45.035400390625 78.822998046875 77.8052978515625 85.0175018310546875 95.83190155029296875 83.15039825439453125 66.43360137939453125 96.1947021484375 88.59290313720703125 84.1053009033203125 91.716796875 95.92040252685546875 81.56639862060546875 83.964599609375 88.90270233154296875 90.15789794921875 81.1239013671875 96.64600372314453125 82.78759765625 73.95580291748046875 51.8583984375 0.41229999065399169922 59.56639862060546875 90.69029998779296875 75.67259979248046875 85.18579864501953125 77.283203125 81.21050262451171875 87.40709686279296875 69.16809844970703125 80.58409881591796875 68.18579864501953125 22.973499298095703125 70 24.504400253295898438 0 11.619500160217285156 57 79.9468994140625 72.76110076904296875 73.80699920654296875 78.16809844970703125 89.247802734375 91.106201171875 80.92040252685546875 88.1593017578125 85.4561004638671875 83.0177001953125 80.23889923095703125 89.15039825439453125 79.21820068359375 
0 52.091701507568359375 86.52410125732421875 76.41290283203125 87.5977020263671875 86.357696533203125 95.8993988037109375 97.86209869384765625 91.868896484375 90.84380340576171875 99.03600311279296875 98.685699462890625 89.1614990234375 81.372100830078125 98.32649993896484375 85.2886962890625 91.11519622802734375 83.755401611328125 85.32379913330078125 90.97519683837890625 94.22589874267578125 96.118499755859375 91.36699676513671875 89.10009765625 80.3470001220703125 98.378997802734375 98.81710052490234375 99.43920135498046875 94.5196990966796875 85.6479034423828125 93.66510009765625 91.868896484375 97.301300048828125 82.80030059814453125 96.74310302734375 89.476898193359375 86.567901611328125 90.89630126953125 90.028900146484375 97.222503662109375 84.57900238037109375 83.5243988037109375 81.0742034912109375 94.3397979736328125 97.16989898681640625 97.06479644775390625 96.6880035400390625 93.6425018310546875 98.94860076904296875 88.951202392578125 94.5850982666015625 92.5699005126953125 95.1371002197265625 86.33840179443359375 94.78659820556640625 25.725099563598632813 86.93599700927734375 89.65219879150390625 81.48600006103515625 90.78510284423828125 94.70780181884765625 84.78929901123046875 84.92949676513671875 81.0478973388671875 99.21140289306640625 96.0308990478515625 95.32990264892578125 92.63120269775390625 93.99810028076171875 86.629302978515625 92.6399993896484375 95.43160247802734375 95.25099945068359375 82.0467987060546875 92.28949737548828125 94.48870086669921875 95.98699951171875 87.65850067138671875 92.36840057373046875 96.363800048828125 89.67839813232421875 90.55460357666015625 84.92949676513671875 93.28839874267578125 80.614898681640625 93.104400634765625 93.9542999267578125 94.0594024658203125 85.33249664306640625 93.72650146484375 96.9080963134765625 98.3177032470703125 93.0343017578125 91.027801513671875 78.36679840087890625 92.245697021484375 92.19210052490234375 96.3462982177734375 96.5740966796875 78.6558990478515625 21.37039947509765625 98.88719940185546875 92.04450225830078125 79.07649993896484375 87.7946014404296875 99.50930023193359375 98.8347015380859375 93.07810211181640625 94.7108001708984375 90.79119873046875 98.47540283203125 97.6255035400390625 69.58730316162109375 62.805599212646484375 90.56800079345703125 89.2841033935546875 77.83229827880859375 31.58679962158203125 47.454700469970703125 74.85320281982421875 82.33589935302734375 83.75890350341796875 86.90090179443359375 90.20420074462890625 87.321502685546875 98.4228973388671875 92.245697021484375 59.926998138427734375 63.918300628662109375 88.05750274658203125 97.72190093994140625 87.43540191650390625 88.14510345458984375 98.39330291748046875 87.943603515625 84.5177001953125 94.91809844970703125 83.9656982421875 91.35199737548828125 8.0075998306274414063 61.508800506591796875 85.35880279541015625 87.8822021484375 67.379302978515625 85.27120208740234375 66.0326995849609375 69.97280120849609375 77.83229827880859375 93.8227996826171875 87.601898193359375 37.56240081787109375 42.252899169921875 0.043800000101327896118 0 1.7962000370025634766 23.990200042724609375 61.31600189208984375 0.84109997749328613281 18.716299057006835938 88.1714019775390625 88.0749969482421875 95.87310028076171875 77.90239715576171875 88.153900146484375 83.420196533203125 86.72570037841796875 85.72679901123046875 90.52829742431640625 60.324001312255859375 
0 55.9897003173828125 85.53399658203125 65.4253997802734375 84.253997802734375 98.5980987548828125 97.34510040283203125 98.3878021240234375 96.93329620361328125 77.4029998779296875 84.02809906005859375 88.3202972412109375 97.43280029296875 93.23580169677734375 88.30280303955078125 86.45400238037109375 90.55059814453125 88.7935028076171875 82.19570159912109375 96.3813018798828125 99.93869781494140625 86.74320220947265625 98.54090118408203125 99.71959686279296875 88.9337005615234375 86.64679718017578125 82.19570159912109375 86.2350006103515625 89.40419769287109375 93.29709625244140625 95.811798095703125 96.17980194091796875 92.902801513671875 96.749298095703125 98.3672027587890625 92.84149932861328125 94.69029998779296875 89.24030303955078125 84.6139984130859375 90.20420074462890625 97.98480224609375 96.369598388671875 87.21630096435546875 95.7942962646484375 97.86209869384765625 93.54250335693359375 97.87079620361328125 98.46269989013671875 94.839202880859375 97.20490264892578125 86.63800048828125 90.65979766845703125 99.03620147705078125 90.2205963134765625 97.17870330810546875 94.1295013427734375 94.95310211181640625 99.47429656982421875 89.06510162353515625 91.6797027587890625 91.50969696044921875 90.67729949951171875 88.784698486328125 88.44300079345703125 87.28639984130859375 92.470001220703125 93.37599945068359375 82.56369781494140625 87.295196533203125 80.539703369140625 97.42400360107421875 76.20290374755859375 96.04840087890625 89.7046966552734375 90.9488983154296875 98.3527984619140625 95.00569915771484375 93.79889678955078125 92.34210205078125 83.72910308837890625 96.77559661865234375 88.03119659423828125 85.27989959716796875 57.539600372314453125 95.700897216796875 94.874298095703125 90.20420074462890625 84.33370208740234375 97.08229827880859375 91.69370269775390625 88.95259857177734375 98.19499969482421875 83.16829681396484375 98.50170135498046875 96.72299957275390625 95.00569915771484375 93.2342987060546875 94.48000335693359375 95.60150146484375 34.8813018798828125 0.99889999628067016602 61.596401214599609375 86.7292022705078125 82.5198974609375 95.54019927978515625 100 93.8052978515625 87.461700439453125 95.06690216064453125 95.31240081787109375 81.82769775390625 91.868896484375 86.41899871826171875 95.87310028076171875 85.131103515625 79.9001007080078125 57.723598480224609375 37.40470123291015625 43.152500152587890625 22.421800613403320313 74.76560211181640625 87.085296630859375 85.97209930419921875 86.462799072265625 83.70279693603515625 96.9683990478515625 98.50170135498046875 56.3488006591796875 41.2863006591796875 83.22969818115234375 87.952301025390625 98.2826995849609375 92.39459991455078125 96.4131011962890625 83.1244964599609375 73.51270294189453125 88.2239990234375 96.2147979736328125 67.34429931640625 43.90309906005859375 30.482799530029296875 83.16829681396484375 79.637298583984375 74.67800140380859375 83.1244964599609375 73.75370025634765625 67.0550994873046875 84.1759033203125 87.74199676513671875 97.6956024169921875 66.79229736328125 48.1587982177734375 1.0951999425888061523 0.56080001592636108398 2.1905000209808349609 59.65129852294921875 41.724300384521484375 0 5.1154999732971191406 92.37709808349609375 53.00099945068359375 83.72029876708984375 64.36519622802734375 77.67459869384765625 85.40039825439453125 83.1244964599609375 87.37400054931640625 82.31839752197265625 77.82180023193359375 
0 76.38030242919921875 93.94550323486328125 77.42919921875 78.000701904296875 89.34549713134765625 98.9048004150390625 81.1179962158203125 97.5115966796875 83.3961029052734375 86.164703369140625 99.35160064697265625 94.17330169677734375 80.99539947509765625 90.59839630126953125 82.60759735107421875 80.5106964111328125 91.29940032958984375 92.8152008056640625 78.1652984619140625 75.35269927978515625 97.686798095703125 96.46520233154296875 96.3988037109375 95.64530181884765625 89.43309783935546875 97.95850372314453125 93.3672027587890625 97.654998779296875 94.60260009765625 94.01560211181640625 84.9907989501953125 90.615997314453125 98.25640106201171875 91.77519989013671875 93.00800323486328125 97.3889007568359375 90.3531036376953125 92.29830169677734375 94.39240264892578125 97.6255035400390625 83.67209625244140625 87.777099609375 78.27919769287109375 94.11199951171875 96.17980194091796875 93.9542999267578125 96.0395965576171875 97.055999755859375 96.42510223388671875 91.1855010986328125 92.85030364990234375 97.94969940185546875 99.14890289306640625 90.20420074462890625 91.43959808349609375 91.17669677734375 92.92040252685546875 98.55429840087890625 87.47609710693359375 88.232696533203125 90.4232025146484375 95.0319976806640625 87.89099884033203125 88.013702392578125 88.587799072265625 90.0814971923828125 95.566497802734375 78.33170318603515625 89.38050079345703125 88.83730316162109375 85.66089630126953125 88.2239990234375 80.574798583984375 87.76830291748046875 91.91269683837890625 86.38390350341796875 94.54579925537109375 95.908203125 94.7427978515625 79.330596923828125 96.95079803466796875 98.25640106201171875 89.31040191650390625 74.72640228271484375 75.002197265625 94.95310211181640625 89.61710357666015625 85.20110321044921875 81.5912017822265625 84.53189849853515625 86.19989776611328125 88.7321014404296875 88.42549896240234375 93.63880157470703125 94.84799957275390625 77.52300262451171875 75.790802001953125 77.98999786376953125 54.078701019287109375 0.017500000074505805969 3.3120000362396240234 74.9001007080078125 88.6094970703125 92.00910186767578125 90.9488983154296875 95.83809661865234375 92.762603759765625 95.058197021484375 88.705902099609375 81.897796630859375 72.37359619140625 72.65399932861328125 92.60489654541015625 82.28240203857421875 68.36060333251953125 59.66880035400390625 80.22429656982421875 80.5923004150390625 64.77700042724609375 48.059200286865234375 93.12139892578125 71.34850311279296875 78.5507965087890625 80.049102783203125 88.644500732421875 83.71160125732421875 87.5717010498046875 84.16719818115234375 93.91049957275390625 91.22049713134765625 93.17449951171875 92.7451019287109375 72.00800323486328125 85.5077972412109375 75.66809844970703125 87.41790008544921875 79.3480987548828125 96.503997802734375 63.644298553466796875 19.933399200439453125 24.761199951171875 46.464599609375 85.65670013427734375 79.427001953125 86.9983978271484375 67.9925994873046875 75.51909637451171875 87.3126983642578125 92.00910186767578125 85.770599365234375 77.17559814453125 35.52970123291015625 0.27160000801086425781 0.096400000154972076416 9.0248003005981445313 1.1653000116348266602 4.0304999351501464844 70.2969970703125 97.993499755859375 70.50730133056640625 59.879100799560546875 67.212799072265625 93.49859619140625 89.8385009765625 82.44110107421875 70.17440032958984375 75.29129791259765625 50.657100677490234375 
0 78.81980133056640625 98.78759765625 92.43360137939453125 92.65789794921875 79.0531005859375 92.32740020751953125 99.83190155029296875 98.53099822998046875 89.04419708251953125 83.4824981689453125 98.035400390625 89.84960174560546875 84.61949920654296875 93.53099822998046875 85.11499786376953125 87 92.822998046875 81.9822998046875 69.681396484375 91.3363037109375 96.63719940185546875 97.14040374755859375 96.67259979248046875 97.60179901123046875 83.0531005859375 86.57520294189453125 89.3363037109375 96.08769989013671875 81 92.318603515625 94.63719940185546875 93.07080078125 91.283203125 89.2368011474609375 94.6990966796875 91.40709686279296875 96.11499786376953125 91.8052978515625 87.04419708251953125 88.6636962890625 74.24559783935546875 75.283203125 80.06189727783203125 91.29199981689453125 96.63719940185546875 97.50440216064453125 93.9824981689453125 90.18579864501953125 92.92040252685546875 97.30970001220703125 93.52210235595703125 98.64600372314453125 98.377197265625 93.15039825439453125 98.32740020751953125 98.35399627685546875 88.9114990234375 94.58409881591796875 96.41230010986328125 92.49559783935546875 87.283203125 87.1239013671875 91.81420135498046875 84.74340057373046875 98.1753997802734375 97.38939666748046875 84.90270233154296875 92.22119903564453125 90.61949920654296875 82.29199981689453125 88.52629852294921875 89.90270233154296875 99.81420135498046875 89.15039825439453125 99.752197265625 91.47789764404296875 92.9561004638671875 88.92919921875 86.3009033203125 84.18579864501953125 85.02649688720703125 97.02649688720703125 88.3363037109375 85.0438995361328125 81.38050079345703125 79.11499786376953125 79.54869842529296875 92.0177001953125 92.318603515625 84.14910125732421875 87.69029998779296875 80.752197265625 86.25659942626953125 95.13269805908203125 95.035400390625 96.6667022705078125 76.50440216064453125 47.115001678466796875 91.2301025390625 63.734500885009765625 70.97350311279296875 95.5 89.97350311279296875 89 87.752197265625 95.1239013671875 94.27429962158203125 96.7631988525390625 91.59290313720703125 87.48670196533203125 85.34510040283203125 87.77880096435546875 94.30970001220703125 81.5789031982421875 85.8760986328125 89.30970001220703125 81.9468994140625 74.50440216064453125 45.29199981689453125 47.955799102783203125 91.2982025146484375 75.63719940185546875 83.92919921875 86.04419708251953125 77.86730194091796875 91.822998046875 84.35959625244140625 88.0177001953125 82.54869842529296875 66.07080078125 91.36280059814453125 84.77880096435546875 88.15789794921875 91.23889923095703125 82.1416015625 90.51329803466796875 76.37169647216796875 86.44249725341796875 82.7982025146484375 35.72570037841796875 9.7610998153686523438 34.734500885009765625 53.30970001220703125 77.69029998779296875 76.02629852294921875 85.92919921875 89.1593017578125 88.681396484375 87.90270233154296875 86.84960174560546875 75.8946990966796875 81.48670196533203125 50.300899505615234375 0 1.1326999664306640625 1 26.716800689697265625 94.4474029541015625 94.18579864501953125 78.7698974609375 57.371700286865234375 85.15039825439453125 61.0885009765625 75.1667022705078125 79.752197265625 79.69029998779296875 65.6990966796875 55.3636016845703125 
0 70.154296875 96.09220123291015625 98.0110015869140625 74.352996826171875 83.6239013671875 98.825897216796875 83.3697967529296875 98.11620330810546875 86.03350067138671875 78.46970367431640625 89.52069854736328125 91.658599853515625 84.55269622802734375 96.363800048828125 94.45369720458984375 81.80480194091796875 78.9801025390625 82.16950225830078125 96.4427032470703125 98.825897216796875 89.96759796142578125 65.25099945068359375 98.23889923095703125 99.544403076171875 88.1013031005859375 84.1233978271484375 98.7733001708984375 90.93280029296875 92.77140045166015625 90.3180999755859375 90.92259979248046875 85.20110321044921875 81.5998992919921875 94.76290130615234375 96.94210052490234375 94.62889862060546875 89.65219879150390625 97.18740081787109375 77.63079833984375 66.90619659423828125 55.358699798583984375 34.863800048828125 65.6620025634765625 90.15160369873046875 97.73940277099609375 93.86660003662109375 93.76409912109375 98.33519744873046875 97.31009674072265625 97.39769744873046875 89.37180328369140625 96.39009857177734375 89.7863006591796875 90.09020233154296875 88.644500732421875 99.20269775390625 91.518402099609375 97.50279998779296875 97.82869720458984375 94.041900634765625 94.9093017578125 93.875396728515625 92.22820281982421875 89.21410369873046875 91.78389739990234375 81.678802490234375 95.978302001953125 92.58740234375 87.847198486328125 96.8368988037109375 87.2241973876953125 98.7382965087890625 89.4944000244140625 85.139801025390625 95.09329986572265625 87.36530303955078125 87.98850250244140625 93.41100311279296875 92.34210205078125 87.89980316162109375 92.28070068359375 99.097503662109375 78.93630218505859375 95.04949951171875 88.16259765625 98.0110015869140625 69.58730316162109375 87.49669647216796875 95.30359649658203125 93.4167022705078125 87.1638031005859375 90.0814971923828125 72.7328033447265625 78.6472015380859375 76.67569732666015625 69.56749725341796875 60.816600799560546875 85.7530975341796875 96.72299957275390625 88.88990020751953125 91.720001220703125 92.39189910888671875 94.55879974365234375 91.5885009765625 82.16069793701171875 89.02130126953125 85.05210113525390625 94.0594024658203125 88.30280303955078125 90.06400299072265625 78.00749969482421875 84.9207000732421875 92.92040252685546875 78.82579803466796875 89.29290008544921875 86.69940185546875 87.41790008544921875 33.83860015869140625 49.30339813232421875 80.05780029296875 95.231903076171875 76.66699981689453125 77.42919921875 88.89859771728515625 90.82630157470703125 90.34429931640625 90.298797607421875 78.47190093994140625 87.6280975341796875 78.54199981689453125 89.6345977783203125 92.70130157470703125 91.13249969482421875 49.978099822998046875 97.23999786376953125 75.1598968505859375 88.85479736328125 92.85900115966796875 93.70330047607421875 37.465999603271484375 32.480499267578125 29.632900238037109375 79.82129669189453125 80.84639739990234375 91.9055023193359375 84.75420379638671875 83.81670379638671875 97.57289886474609375 74.8094024658203125 77.113800048828125 92.9302978515625 80.539703369140625 70.980499267578125 0 0.21899999678134918213 0.140200003981590271 38.0355987548828125 94.7108001708984375 91.76380157470703125 70.50730133056640625 90.615997314453125 91.72869873046875 79.8650970458984375 84.32340240478515625 78.78730010986328125 84.9031982421875 82.55500030517578125 51.77320098876953125 
0 77.236602783203125 86.48909759521484375 99.71959686279296875 83.7415008544921875 65.1100006103515625 55.848598480224609375 71.8654022216796875 97.362701416015625 95.69789886474609375 82.308502197265625 84.96450042724609375 90.0113983154296875 94.45369720458984375 98.12490081787109375 99.5531005859375 85.747802734375 84.71920013427734375 94.2696990966796875 73.8368988037109375 87.2425994873046875 85.691802978515625 84.67079925537109375 95.24230194091796875 95.14589691162109375 85.7530975341796875 97.3802032470703125 93.56870269775390625 93.90309906005859375 96.86319732666015625 86.7169036865234375 89.7660980224609375 94.41860198974609375 92.245697021484375 95.73560333251953125 89.38050079345703125 90.69480133056640625 95.811798095703125 97.42400360107421875 63.1735992431640625 49.715198516845703125 29.850599288940429688 26.294599533081054688 72.75910186767578125 75.0196990966796875 90.5458984375 88.89859771728515625 91.87079620361328125 91.28189849853515625 83.2996978759765625 91.9302978515625 86.2261962890625 99.64080047607421875 97.60289764404296875 90.7035980224609375 98.86969757080078125 79.85630035400390625 93.1305999755859375 98.88719940185546875 98.08930206298828125 94.4449005126953125 75.51909637451171875 83.2996978759765625 94.5063018798828125 83.553802490234375 90.56800079345703125 96.3813018798828125 97.09100341796875 93.78780364990234375 69.5435028076171875 88.88990020751953125 93.40799713134765625 89.44190216064453125 82.371002197265625 91.3256988525390625 92.94660186767578125 88.846099853515625 88.98729705810546875 85.5428009033203125 85.8406982421875 75.7118988037109375 88.05750274658203125 84.938201904296875 84.4738006591796875 89.682098388671875 87.540496826171875 93.3672027587890625 84.98200225830078125 83.9656982421875 73.67910003662109375 91.5319976806640625 85.90200042724609375 84.79799652099609375 82.449798583984375 75.6417999267578125 64.36519622802734375 24.839300155639648438 9.7344999313354492188 58.056598663330078125 89.7310028076171875 93.0254974365234375 84.3511962890625 92.1746978759765625 96.4163970947265625 79.54959869384765625 88.705902099609375 83.02809906005859375 85.55159759521484375 87.25029754638671875 89.77480316162109375 72.39990234375 88.60070037841796875 87.4091033935546875 99.15889739990234375 86.164703369140625 84.56150054931640625 79.80370330810546875 82.16950225830078125 25.812700271606445313 43.485500335693359375 96.95079803466796875 96.560699462890625 97.1085968017578125 95.93450164794921875 98.160003662109375 94.72530364990234375 95.9694976806640625 81.023101806640625 89.0388031005859375 87.0323028564453125 78.051300048828125 83.70279693603515625 92.9553985595703125 90.01219940185546875 91.0189971923828125 83.6063995361328125 86.6204986572265625 71.9355010986328125 72.8379974365234375 96.8733978271484375 36.78260040283203125 16.963100433349609375 6.4751000404357910156 50.90689849853515625 67.87870025634765625 89.5518035888671875 86.6819000244140625 81.22319793701171875 74.0821990966796875 74.02089691162109375 79.1992034912109375 93.26039886474609375 81.47730255126953125 89.0037994384765625 51.48509979248046875 1.9627000093460083008 22.360500335693359375 85.2975006103515625 92.94770050048828125 88.85479736328125 60.527500152587890625 96.39009857177734375 90.29180145263671875 90.50209808349609375 85.82599639892578125 75.6417999267578125 73.5565032958984375 73.81929779052734375 67.61479949951171875 
0 77.896697998046875 94.9705963134765625 98.81710052490234375 91.80999755859375 85.20980072021484375 89.24030303955078125 81.27570343017578125 92.22820281982421875 94.13829803466796875 89.14369964599609375 99.447998046875 79.742401123046875 97.98480224609375 89.3892974853515625 84.09709930419921875 97.00360107421875 95.3473968505859375 87.6894989013671875 89.34549713134765625 75.7819976806640625 93.46360015869140625 94.0767974853515625 84.7454986572265625 92.46469879150390625 90.13410186767578125 94.9705963134765625 90.1865997314453125 92.18340301513671875 98.87850189208984375 86.40149688720703125 95.2686004638671875 95.8468017578125 95.38249969482421875 92.24420166015625 94.672698974609375 97.26629638671875 89.1439971923828125 96.8983001708984375 75.68560028076171875 31.621799468994140625 16.449499130249023438 30.281299591064453125 64.77700042724609375 82.2133026123046875 90.2480010986328125 95.40869903564453125 98.69719696044921875 98.48419952392578125 95.25099945068359375 91.62359619140625 89.38050079345703125 85.95459747314453125 69.0897979736328125 95.38249969482421875 91.53600311279296875 71.2958984375 96.118499755859375 93.00800323486328125 78.27860260009765625 61.70159912109375 40.033298492431640625 63.357601165771484375 93.63880157470703125 88.68830108642578125 88.90920257568359375 89.93250274658203125 91.45709991455078125 90.3881988525390625 74.04709625244140625 93.489898681640625 90.5941009521484375 72.58390045166015625 85.05210113525390625 98.53679656982421875 91.2030029296875 85.5428009033203125 92.08789825439453125 86.10359954833984375 87.154998779296875 78.0426025390625 94.34850311279296875 86.55919647216796875 94.041900634765625 80.44989776611328125 95.811798095703125 91.8162994384765625 94.4362030029296875 83.25589752197265625 92.85900115966796875 90.7156982421875 87.5579986572265625 90.95770263671875 92.94660186767578125 78.45439910888671875 47.586101531982421875 18.117099761962890625 1.3493000268936157227 4.1532001495361328125 50.08319854736328125 94.3748016357421875 98.50170135498046875 83.4897003173828125 88.846099853515625 91.72869873046875 94.9618988037109375 79.742401123046875 96.94210052490234375 83.5157012939453125 74.1522979736328125 83.203399658203125 88.35540008544921875 85.5077972412109375 89.67839813232421875 94.7454986572265625 87.53179931640625 93.595001220703125 89.5469970703125 42.7144012451171875 43.467998504638671875 80.9691009521484375 98.080596923828125 90.69480133056640625 73.0131988525390625 75.1598968505859375 92.490997314453125 84.8856964111328125 87.42400360107421875 79.62850189208984375 86.462799072265625 67.8874969482421875 88.91609954833984375 80.89019775390625 84.01080322265625 87.3916015625 75.54540252685546875 76.5792999267578125 82.589996337890625 87.26889801025390625 84.1237030029296875 47.971599578857421875 45.360599517822265625 4.2319998741149902344 59.791500091552734375 48.821498870849609375 63.99169921875 93.67389678955078125 83.82550048828125 83.694000244140625 80.294403076171875 84.71920013427734375 76.263702392578125 85.89330291748046875 91.90399932861328125 82.896697998046875 10.969900131225585938 11.6884002685546875 89.25789642333984375 93.8769989013671875 93.0343017578125 67.71230316162109375 85.7530975341796875 87.4792022705078125 87.71579742431640625 77.20169830322265625 82.2834014892578125 88.75839996337890625 81.433502197265625 74.6894989013671875 
0 82.23419952392578125 87.1416015625 98.8052978515625 89.2718963623046875 90.16809844970703125 99.3009033203125 81.2655029296875 96.8760986328125 90.42479705810546875 87.30699920654296875 93.1239013671875 87.69029998779296875 91.38939666748046875 77.035400390625 67.92040252685546875 80.50879669189453125 91.83190155029296875 94.95580291748046875 90.30970001220703125 80.38050079345703125 98.37169647216796875 91.4210968017578125 89.92919921875 95.57520294189453125 88.36280059814453125 84.92919921875 98.34510040283203125 83.02629852294921875 99.65489959716796875 91.81420135498046875 94.60179901123046875 95.77880096435546875 86.8760986328125 96.8332977294921875 94.46019744873046875 87.78759765625 92.8052978515625 81.6636962890625 81.18579864501953125 83.18579864501953125 80.36840057373046875 72.2655029296875 82.70800018310546875 89.035400390625 89.36280059814453125 93.78759765625 95.5789031982421875 95.7698974609375 98.99120330810546875 98.83190155029296875 99.45130157470703125 96.2655029296875 91.91230010986328125 93.86730194091796875 92.283203125 95.2301025390625 90.38939666748046875 88.964599609375 80.1053009033203125 19.584100723266601563 3.8761000633239746094 10.177000045776367188 60.610599517822265625 74.76110076904296875 86.40350341796875 94.3363037109375 97.27429962158203125 89.09729766845703125 78.53980255126953125 91.27429962158203125 92.5525970458984375 73.69029998779296875 87.78759765625 89.2301025390625 91.54869842529296875 76.06189727783203125 83.2017974853515625 92.53980255126953125 95.3009033203125 75.48670196533203125 97.78759765625 88.53980255126953125 88.3009033203125 93.30699920654296875 95.18579864501953125 90.61060333251953125 95.38939666748046875 87.13269805908203125 95.27429962158203125 92.5438995361328125 87.86730194091796875 93.8760986328125 96.22119903564453125 64.52210235595703125 23.9468994140625 19.122800827026367188 4.0531001091003417969 11.044199943542480469 20.185800552368164063 82.62830352783203125 95.0885009765625 96.1753997802734375 76.39820098876953125 96.77880096435546875 87.55750274658203125 90.40709686279296875 96.18579864501953125 86.3246002197265625 81.67259979248046875 93.1593017578125 90.43360137939453125 84.7344970703125 90.53980255126953125 78.46489715576171875 90.2655029296875 99.07080078125 90.83190155029296875 72.3363037109375 27.38050079345703125 42.752201080322265625 63.728099822998046875 86.95580291748046875 94.78759765625 88.716796875 84.18579864501953125 94.2655029296875 73.9824981689453125 91.61060333251953125 93.56639862060546875 76.681396484375 89.92919921875 94.9114990234375 88.52629852294921875 69.97350311279296875 85.57520294189453125 86.92919921875 96.30970001220703125 87.02649688720703125 81.7631988525390625 89.07959747314453125 88.42479705810546875 24.026500701904296875 53.58409881591796875 62.663700103759765625 64.63159942626953125 67.57520294189453125 87.54869842529296875 84.716796875 86.177001953125 94.7698974609375 88.1667022705078125 79.49559783935546875 89.177001953125 82.0531005859375 62.53099822998046875 2.9381000995635986328 30.34510040283203125 95.9385986328125 88.681396484375 81.1593017578125 56.973499298095703125 86.69029998779296875 87.893798828125 82.92980194091796875 84.8583984375 86.47789764404296875 65.92040252685546875 58.3636016845703125 
0 74.97989654541015625 87.63690185546875 89.82740020751953125 84.43630218505859375 92.6399993896484375 80.820098876953125 81.95040130615234375 92.7100982666015625 78.98889923095703125 95.17980194091796875 87.295196533203125 89.5469970703125 94.3397979736328125 63.75189971923828125 87.18129730224609375 77.0453033447265625 88.36409759521484375 87.3916015625 79.637298583984375 94.182098388671875 98.67690277099609375 86.79000091552734375 98.6681976318359375 93.35849761962890625 85.94589996337890625 95.48760223388671875 96.10089874267578125 96.06569671630859375 97.16989898681640625 91.8777008056640625 88.2239990234375 92.000396728515625 87.777099609375 89.14369964599609375 88.39040374755859375 89.0037994384765625 86.03350067138671875 94.979400634765625 87.63690185546875 79.40070343017578125 94.34600067138671875 92.1930999755859375 92.83270263671875 82.12560272216796875 96.9770965576171875 78.31420135498046875 95.03209686279296875 92.16680145263671875 99.071197509765625 98.34400177001953125 99.6320037841796875 96.9069976806640625 85.2266998291015625 96.93329620361328125 94.9618988037109375 97.1436004638671875 93.28839874267578125 97.783203125 71.8777008056640625 9.8220996856689453125 41.461498260498046875 42.64440155029296875 46.92890167236328125 86.53289794921875 96.30879974365234375 92.28070068359375 90.97519683837890625 87.12870025634765625 84.39499664306640625 96.118499755859375 93.63379669189453125 93.41100311279296875 81.85399627685546875 94.85669708251953125 84.94699859619140625 91.31690216064453125 84.71430206298828125 77.4730987548828125 99.20269775390625 79.16410064697265625 95.11080169677734375 93.980499267578125 90.51959991455078125 76.57630157470703125 93.1305999755859375 95.0319976806640625 71.47989654541015625 82.02050018310546875 89.9763031005859375 86.885498046875 99.33409881591796875 88.05750274658203125 84.00949859619140625 91.75499725341796875 86.12110137939453125 42.313701629638671875 28.011899948120117188 17.462499618530273438 62.29740142822265625 68.55339813232421875 92.902801513671875 99.60919952392578125 97.06479644775390625 90.9402008056640625 98.33519744873046875 88.3115997314453125 88.96869659423828125 62.749698638916015625 74.98470306396484375 87.82089996337890625 89.783599853515625 86.077301025390625 85.95459747314453125 78.60870361328125 90.85250091552734375 97.4589996337890625 65.70580291748046875 72.91680145263671875 27.074399948120117188 18.9608001708984375 62.853900909423828125 56.79489898681640625 93.8842010498046875 88.6269989013671875 84.96450042724609375 72.75910186767578125 64.57360076904296875 86.90090179443359375 87.6544036865234375 89.95880126953125 68.2292022705078125 87.37400054931640625 79.45980072021484375 84.33370208740234375 86.49790191650390625 93.70890045166015625 77.8849029541015625 83.2209014892578125 82.10870361328125 92.70130157470703125 87.83840179443359375 41.80319976806640625 17.427499771118164063 64.53170013427734375 81.1707000732421875 78.945098876953125 92.85900115966796875 82.25710296630859375 82.32720184326171875 83.6063995361328125 86.98110198974609375 93.99810028076171875 89.4593963623046875 94.83049774169921875 82.69519805908203125 2.4007999897003173828 51.064601898193359375 86.885498046875 95.74169921875 86.3401031494140625 54.89350128173828125 78.67340087890625 80.679901123046875 86.9983978271484375 80.16300201416015625 82.2220001220703125 77.98999786376953125 56.32759857177734375 
0 83.89969635009765625 78.84870147705078125 87.68070220947265625 79.781097412109375 92.85030364990234375 74.1522979736328125 58.144199371337890625 83.2384033203125 38.5261993408203125 87.910400390625 80.2593994140625 85.4727020263671875 45.65850067138671875 24.989000320434570313 60.904201507568359375 74.2660980224609375 89.4593963623046875 88.98619842529296875 95.05829620361328125 81.0478973388671875 95.94319915771484375 98.749298095703125 92.98169708251953125 91.50969696044921875 86.51540374755859375 87.71579742431640625 92.210601806640625 90.0207977294921875 84.6053009033203125 96.4514007568359375 88.4517974853515625 86.59420013427734375 91.52719879150390625 95.726898193359375 90.05519866943359375 93.7176971435546875 93.6125030517578125 98.51920318603515625 90.37940216064453125 93.29709625244140625 92.72190093994140625 89.1089019775390625 87.1374969482421875 90.82630157470703125 98.930999755859375 97.09100341796875 96.560699462890625 93.48110198974609375 97.362701416015625 98.0635986328125 91.97409820556640625 99.0099029541015625 91.42780303955078125 94.287200927734375 94.31349945068359375 99.90360260009765625 92.29830169677734375 90.51959991455078125 91.2281036376953125 54.464199066162109375 98.81710052490234375 89.22280120849609375 48.654998779296875 93.51619720458984375 87.3805999755859375 96.37259674072265625 92.9904022216796875 87.9347991943359375 78.78730010986328125 97.2837982177734375 89.421600341796875 91.3256988525390625 96.609100341796875 90.53710174560546875 96.53900146484375 97.96720123291015625 78.28730010986328125 55.87490081787109375 93.56870269775390625 94.2696990966796875 83.47499847412109375 91.85140228271484375 89.3280029296875 91.2714996337890625 87.952301025390625 93.16570281982421875 88.08380126953125 89.82740020751953125 82.88790130615234375 88.5531005859375 81.00409698486328125 82.309600830078125 94.85669708251953125 97.222503662109375 88.39040374755859375 60.474201202392578125 69.5260009765625 37.509899139404296875 60.930500030517578125 73.88939666748046875 54.89350128173828125 89.74289703369140625 97.09980010986328125 99.87729644775390625 93.8842010498046875 94.45369720458984375 70.1656036376953125 88.4402008056640625 81.25820159912109375 91.89520263671875 95.61029815673828125 91.97409820556640625 96.47769927978515625 94.20709991455078125 83.9832000732421875 89.818603515625 89.3542022705078125 67.17780303955078125 19.311300277709960938 45.2378997802734375 61.04740142822265625 25.260700225830078125 60.25579833984375 81.205596923828125 78.1038970947265625 80.07540130615234375 75.67310333251953125 88.784698486328125 89.3542022705078125 85.937103271484375 90.4844970703125 78.76110076904296875 83.376800537109375 76.18509674072265625 75.41400146484375 92.4822998046875 74.5552978515625 85.937103271484375 76.498199462890625 92.58740234375 92.000396728515625 23.53459930419921875 2.9965999126434326172 85.9196014404296875 87.58029937744140625 82.87920379638671875 83.27349853515625 89.862396240234375 87.6280975341796875 67.84369659423828125 91.28890228271484375 97.34510040283203125 79.7248992919921875 32.822200775146484375 30.36009979248046875 29.75550079345703125 93.0254974365234375 90.69830322265625 97.0384979248046875 99.35160064697265625 91.3957977294921875 68.9214019775390625 67.23909759521484375 73.11100006103515625 91.15920257568359375 69.93779754638671875 84.2285003662109375 50.134998321533203125 
0 87.0128021240234375 97.362701416015625 98.72080230712890625 88.8831024169921875 83.308502197265625 94.13829803466796875 64.75949859619140625 97.31009674072265625 93.08679962158203125 90.1772003173828125 25.8302001953125 34.863800048828125 33.400501251220703125 22.7285003662109375 78.13899993896484375 95.21450042724609375 98.4579010009765625 89.13520050048828125 95.7592010498046875 65.6707000732421875 87.36530303955078125 91.5059967041015625 92.972900390625 89.336700439453125 88.99500274658203125 87.08489990234375 85.95459747314453125 97.07309722900390625 93.30590057373046875 98.7032012939453125 92.0529022216796875 94.4362030029296875 77.7183990478515625 99.4355010986328125 88.02239990234375 89.02130126953125 86.55919647216796875 93.35849761962890625 94.23459625244140625 93.0254974365234375 73.0155029296875 82.966796875 97.16989898681640625 78.9801025390625 83.33480072021484375 95.32109832763671875 98.96649932861328125 72.56639862060546875 98.78209686279296875 99.04489898681640625 97.81829833984375 99.42169952392578125 86.45999908447265625 96.749298095703125 97.94969940185546875 99.50060272216796875 99.58820343017578125 91.15920257568359375 91.65360260009765625 64.1461029052734375 94.90059661865234375 91.29940032958984375 89.1089019775390625 84.21970367431640625 93.39929962158203125 93.6826019287109375 99.684600830078125 84.447601318359375 91.52719879150390625 82.861602783203125 87.5977020263671875 87.37400054931640625 93.5074005126953125 91.518402099609375 85.65670013427734375 89.1790008544921875 91.0457000732421875 72.50499725341796875 75.8784027099609375 86.7169036865234375 91.8076019287109375 89.398101806640625 93.72650146484375 77.87909698486328125 93.85790252685546875 95.04949951171875 93.62129974365234375 95.505096435546875 86.48909759521484375 93.47750091552734375 95.92569732666015625 72.34729766845703125 95.908203125 87.777099609375 84.04450225830078125 79.6421966552734375 96.62670135498046875 64.17240142822265625 85.94589996337890625 82.23079681396484375 61.9468994140625 64.00029754638671875 71.87419891357421875 95.6891021728515625 89.73979949951171875 84.447601318359375 80.84639739990234375 90.29010009765625 87.1638031005859375 94.47119903564453125 82.88790130615234375 91.31690216064453125 91.53600311279296875 96.4477996826171875 92.17559814453125 71.04180145263671875 70.03420257568359375 65.5305023193359375 16.1483001708984375 75.30889892578125 95.94409942626953125 61.81549835205078125 73.267303466796875 91.3607025146484375 62.963298797607421875 89.7660980224609375 92.3311004638671875 97.196197509765625 86.50659942626953125 83.64150238037109375 82.966796875 84.23729705810546875 79.53800201416015625 80.72370147705078125 94.120697021484375 86.5503997802734375 89.36299896240234375 83.09819793701171875 80.64959716796875 94.40110015869140625 84.95580291748046875 43.6082000732421875 8.78820037841796875 69.464599609375 92.1313018798828125 73.60900115966796875 91.0189971923828125 85.3061981201171875 84.57019805908203125 88.03119659423828125 87.1461029052734375 91.167999267578125 36.60739898681640625 8.4639997482299804688 54.657001495361328125 91.08029937744140625 91.84259796142578125 80.18060302734375 91.35199737548828125 89.73979949951171875 70.05169677734375 62.5514984130859375 93.4373016357421875 79.9635009765625 90.14279937744140625 80.5572967529296875 71.672698974609375 61.116100311279296875 
0 82.76580047607421875 91.63719940185546875 98.22119903564453125 85.90350341796875 92.51329803466796875 73.79650115966796875 72.40709686279296875 93.67259979248046875 83.74340057373046875 94.09649658203125 41.8583984375 20.548700332641601563 15.088500022888183594 28.061899185180664063 87.2301025390625 85.19300079345703125 97.64600372314453125 97.84960174560546875 93.64600372314453125 92.74340057373046875 91 88.85089874267578125 91.76110076904296875 88.2301025390625 93.0177001953125 93.1947021484375 96.247802734375 92.75440216064453125 90.88500213623046875 83.67259979248046875 98.42479705810546875 89.78759765625 81.37169647216796875 87.2368011474609375 94.15039825439453125 97.40709686279296875 84.20349884033203125 96.69029998779296875 84.76110076904296875 88.49559783935546875 79.8332977294921875 98.7344970703125 86.47789764404296875 91.18579864501953125 84.09729766845703125 92.93810272216796875 98.71929931640625 93.92040252685546875 97.27429962158203125 97.58409881591796875 96.07959747314453125 98.1239013671875 88.78949737548828125 98.177001953125 93.69029998779296875 87.51329803466796875 94.70800018310546875 92.97350311279296875 53.9385986328125 39.539798736572265625 95.90270233154296875 95.81420135498046875 96.681396484375 89.37169647216796875 86.8860015869140625 87.1593017578125 92.79650115966796875 94.7344970703125 90.52210235595703125 91.78759765625 85.28949737548828125 85.81420135498046875 91.11499786376953125 92.47789764404296875 91.3009033203125 90.752197265625 85.09649658203125 89.53099822998046875 91.49559783935546875 89.7344970703125 85.822998046875 84.106201171875 94.13269805908203125 89.5525970458984375 91.02649688720703125 80.15039825439453125 81.88500213623046875 77.76110076904296875 83.32740020751953125 88.41230010986328125 87.35399627685546875 91.04419708251953125 83.45130157470703125 99.681396484375 82.37169647216796875 84.1053009033203125 95.92919921875 55.902698516845703125 27.849599838256835938 91.23889923095703125 90.964599609375 65.6753997802734375 80.65489959716796875 94.92919921875 96.9822998046875 93.16809844970703125 79.9468994140625 86.53510284423828125 83.54869842529296875 95.893798828125 81.00879669189453125 95.65489959716796875 98.9114990234375 93.86840057373046875 82.34510040283203125 88.97350311279296875 90.53980255126953125 91.0531005859375 99.00879669189453125 93.3009033203125 94.0525970458984375 38.769901275634765625 77.20349884033203125 87.43360137939453125 66.90270233154296875 90.90270233154296875 82.68419647216796875 92.27429962158203125 87.40709686279296875 76.97350311279296875 93.30970001220703125 85.0885009765625 83.14040374755859375 85.57520294189453125 77.86730194091796875 90.0885009765625 73.06189727783203125 78.29199981689453125 68.74559783935546875 88.1239013671875 93.9822998046875 30.92919921875 22.07080078125 71.83190155029296875 90.5 71.50440216064453125 91.41590118408203125 85.90270233154296875 94.1593017578125 84.86730194091796875 89.96489715576171875 84.18579864501953125 82.8052978515625 89.50440216064453125 99.04419708251953125 82.7698974609375 93.53099822998046875 81.50879669189453125 86.52210235595703125 84.0177001953125 72.3363037109375 89.29199981689453125 82.681396484375 77.18419647216796875 96.83190155029296875 86.59290313720703125 89.247802734375 63.5635986328125 
0 88.88590240478515625 90.99269866943359375 99.1501007080078125 94.7368011474609375 92.25440216064453125 89.0037994384765625 80.9691009521484375 69.90270233154296875 78.27919769287109375 47.56819915771484375 1.4457000494003295898 6.6854000091552734375 36.09040069580078125 82.19570159912109375 69.762603759765625 93.93779754638671875 87.8647003173828125 94.10320281982421875 83.063201904296875 90.53710174560546875 94.427398681640625 95.43160247802734375 92.4822998046875 91.8777008056640625 98.930999755859375 91.7111968994140625 93.17449951171875 82.2389984130859375 80.5222015380859375 76.35150146484375 88.12760162353515625 95.224700927734375 97.37139892578125 98.12400054931640625 93.9629974365234375 94.3572998046875 82.66010284423828125 89.8361968994140625 69.4470977783203125 96.47769927978515625 86.45999908447265625 78.56829833984375 89.1614990234375 91.60610198974609375 82.7389984130859375 98.12490081787109375 90.8632965087890625 99.34290313720703125 89.9763031005859375 98.0460968017578125 99.34290313720703125 98.16880035400390625 94.7368011474609375 92.272003173828125 93.69139862060546875 95.08460235595703125 83.25589752197265625 99.483001708984375 58.25949859619140625 77.83229827880859375 97.32759857177734375 97.2926025390625 93.6826019287109375 87.6544036865234375 85.72170257568359375 92.1930999755859375 91.72869873046875 96.48650360107421875 91.720001220703125 91.553497314453125 88.996002197265625 79.02390289306640625 86.1649017333984375 81.3545989990234375 97.27500152587890625 88.8722991943359375 93.3820037841796875 67.00250244140625 82.8354034423828125 96.65290069580078125 86.41899871826171875 82.3621978759765625 93.55120086669921875 76.25499725341796875 94.69899749755859375 85.4376983642578125 82.651397705078125 85.630401611328125 93.07810211181640625 91.02829742431640625 97.5904998779296875 88.7760009765625 99.544403076171875 89.46820068359375 83.7729034423828125 86.1298980712890625 96.58280181884765625 76.41290283203125 55.7696990966796875 89.29290008544921875 79.38320159912109375 94.53710174560546875 85.26239776611328125 84.8506011962890625 96.39009857177734375 94.79540252685546875 72.303497314453125 97.70709991455078125 92.7801971435546875 80.06659698486328125 79.87380218505859375 75.66809844970703125 80.44339752197265625 85.5740966796875 91.78130340576171875 92.56109619140625 77.560699462890625 89.65219879150390625 96.99469757080078125 96.07469940185546875 91.6884002685546875 36.85269927978515625 88.65329742431640625 74.80069732666015625 72.3824005126953125 56.9087982177734375 70.11460113525390625 65.85469818115234375 89.53820037841796875 95.671600341796875 88.57440185546875 72.303497314453125 81.38790130615234375 90.2655029296875 73.38120269775390625 46.82379913330078125 82.55500030517578125 75.2563018798828125 57.72969818115234375 84.73670196533203125 89.6259002685546875 68.8513031005859375 1.6033999919891357422 45.877498626708984375 93.27770233154296875 90.3968963623046875 80.93399810791015625 87.18129730224609375 92.4384002685546875 72.10199737548828125 83.24649810791015625 91.027801513671875 86.24379730224609375 93.901702880859375 88.924896240234375 91.19429779052734375 87.1725006103515625 94.98000335693359375 87.52300262451171875 74.02960205078125 72.224700927734375 86.83080291748046875 79.61100006103515625 97.58550262451171875 88.81980133056640625 89.29290008544921875 77.18389892578125 76.111602783203125 
0 90.60739898681640625 97.34510040283203125 78.5157012939453125 92.1053009033203125 81.7400970458984375 94.13829803466796875 96.9069976806640625 95.4438018798828125 92.4822998046875 57.773101806640625 0.95509999990463256836 4.7839999198913574219 38.648899078369140625 78.34929656982421875 52.57160186767578125 67.31800079345703125 92.4822998046875 92.60489654541015625 97.01219940185546875 97.4589996337890625 90.7736968994140625 92.3397979736328125 96.02210235595703125 88.11879730224609375 96.03079986572265625 78.804901123046875 95.32990264892578125 95.3881988525390625 96.94210052490234375 99.30780029296875 91.9477996826171875 91.06279754638671875 87.4091033935546875 91.29759979248046875 94.21710205078125 85.34130096435546875 86.909698486328125 91.53600311279296875 87.89099884033203125 87.27770233154296875 84.3582000732421875 88.37290191650390625 83.42240142822265625 84.307403564453125 81.70510101318359375 95.88189697265625 86.6510009765625 45.65850067138671875 95.18090057373046875 96.79309844970703125 98.0811004638671875 91.5709991455078125 97.81999969482421875 90.0113983154296875 94.24340057373046875 97.3538970947265625 95.18090057373046875 95.69789886474609375 95.1537017822265625 89.923797607421875 94.5764007568359375 97.70439910888671875 89.0037994384765625 86.4452972412109375 86.67710113525390625 94.8917999267578125 93.8928985595703125 88.53060150146484375 94.38359832763671875 83.6764984130859375 92.9998016357421875 88.8636016845703125 80.0402984619140625 90.475799560546875 89.4243011474609375 81.70510101318359375 92.60030364990234375 99.8423004150390625 95.07579803466796875 94.593902587890625 86.3751983642578125 88.06620025634765625 68.91259765625 84.41030120849609375 91.0364990234375 81.56490325927734375 63.015899658203125 90.57219696044921875 83.904296875 87.76270294189453125 83.81670379638671875 98.0811004638671875 83.09819793701171875 96.4427032470703125 87.87349700927734375 94.02469635009765625 91.84259796142578125 90.15160369873046875 86.95349884033203125 86.02469635009765625 95.5839996337890625 86.0518035888671875 97.11730194091796875 83.8430023193359375 94.812896728515625 88.0048980712890625 68.527099609375 93.347198486328125 91.1855010986328125 84.86810302734375 98.17749786376953125 92.94660186767578125 74.23110198974609375 89.7863006591796875 83.6239013671875 88.0749969482421875 85.79689788818359375 77.4906005859375 92.53479766845703125 92.14929962158203125 62.549900054931640625 18.049600601196289063 75.9485015869140625 75.84329986572265625 86.08599853515625 82.5287017822265625 52.423099517822265625 80.07540130615234375 73.12709808349609375 74.28369903564453125 56.01509857177734375 82.756500244140625 91.7317962646484375 84.2985992431640625 73.11840057373046875 72.67150115966796875 79.4445037841796875 83.9918975830078125 86.22550201416015625 66.6782989501953125 88.97750091552734375 79.7599029541015625 1.3406000137329101563 27.162000656127929688 77.0366973876953125 87.96990203857421875 88.35540008544921875 75.81710052490234375 93.3321990966796875 85.65670013427734375 76.92369842529296875 94.8917999267578125 97.01219940185546875 95.14589691162109375 95.66280364990234375 92.77140045166015625 90.028900146484375 72.69409942626953125 77.8936004638671875 94.45369720458984375 73.91570281982421875 74.81819915771484375 82.92299652099609375 69.45459747314453125 80.39080047607421875 92.07920074462890625 64.4178009033203125 81.36810302734375 
0 90.57180023193359375 98.81710052490234375 97.5204010009765625 99.0532989501953125 97.222503662109375 83.9217987060546875 96.0395965576171875 84.3686981201171875 82.2220001220703125 48.705898284912109375 4.5212001800537109375 17.848100662231445313 49.98690032958984375 54.78839874267578125 54.087398529052734375 84.22789764404296875 98.2826995849609375 94.1996002197265625 87.52300262451171875 88.82849884033203125 81.8365020751953125 98.7841033935546875 87.58429718017578125 97.40650177001953125 98.40529632568359375 91.4833984375 76.1587982177734375 77.75749969482421875 79.9701995849609375 86.909698486328125 87.7595977783203125 91.00150299072265625 87.952301025390625 89.92530059814453125 88.56569671630859375 99.544403076171875 90.615997314453125 91.8863983154296875 95.21600341796875 92.36840057373046875 95.32740020751953125 73.13590240478515625 89.08260345458984375 89.84490203857421875 93.1920013427734375 94.76039886474609375 97.63770294189453125 91.62359619140625 94.26090240478515625 91.68489837646484375 66.827301025390625 73.162200927734375 99.54840087890625 94.33100128173828125 97.81829833984375 86.13860321044921875 95.86440277099609375 97.24880218505859375 87.58899688720703125 96.670501708984375 91.7111968994140625 98.6156005859375 92.72760009765625 89.4156036376953125 91.6884002685546875 86.567901611328125 99.50060272216796875 92.272003173828125 83.72910308837890625 97.6255035400390625 94.40679931640625 89.87999725341796875 83.40489959716796875 91.5885009765625 61.9644012451171875 94.147003173828125 93.44280242919921875 84.55269622802734375 91.825103759765625 84.73670196533203125 96.503997802734375 82.1869964599609375 59.20439910888671875 88.6573028564453125 93.91919708251953125 92.82399749755859375 87.18129730224609375 84.56150054931640625 76.51799774169921875 88.40540313720703125 81.99420166015625 90.79119873046875 86.24379730224609375 91.17669677734375 81.02159881591796875 90.515899658203125 76.04489898681640625 84.82430267333984375 87.3302001953125 85.393798828125 89.196502685546875 86.26020050048828125 90.931396484375 92.04419708251953125 87.540496826171875 91.9477996826171875 60.51869964599609375 94.6239013671875 87.34780120849609375 92.87650299072265625 90.45819854736328125 99.50930023193359375 81.6875 84.262603759765625 97.46779632568359375 97.3538970947265625 91.75499725341796875 82.94049835205078125 99.69329833984375 98.7382965087890625 39.89929962158203125 30.211200714111328125 80.2154998779296875 83.88680267333984375 83.26470184326171875 81.16179656982421875 80.832000732421875 88.75839996337890625 77.83229827880859375 76.728302001953125 82.71269989013671875 86.015899658203125 91.3061981201171875 89.04759979248046875 91.9477996826171875 69.74500274658203125 84.64910125732421875 60.76399993896484375 90.107696533203125 65.53929901123046875 95.2947998046875 94.05059814453125 25.216899871826171875 48.462299346923828125 93.112701416015625 91.868896484375 92.4208984375 93.735198974609375 98.02860260009765625 88.63580322265625 80.25009918212890625 88.90740203857421875 90.721099853515625 54.94609832763671875 91.027801513671875 84.75420379638671875 94.84799957275390625 82.37799835205078125 94.55010223388671875 88.1100006103515625 79.97899627685546875 79.00640106201171875 86.19989776611328125 80.37169647216796875 90.721099853515625 85.9196014404296875 75.23000335693359375 74.419403076171875 
0 91.94589996337890625 74.07959747314453125 99.76110076904296875 99.28070068359375 94.93810272216796875 93.06189727783203125 81.76110076904296875 84.6636962890625 64.45130157470703125 70.1053009033203125 5.4335999488830566406 1.5220999717712402344 61.964599609375 67.035400390625 64.09729766845703125 62.4561004638671875 88.63719940185546875 92.04419708251953125 66.8052978515625 87.25659942626953125 92.21240234375 100 97.6636962890625 85.9114990234375 86.0531005859375 98.16809844970703125 93.54869842529296875 98.42980194091796875 94.44249725341796875 85.822998046875 92.47789764404296875 96.63719940185546875 87.34510040283203125 89.52629852294921875 95.92919921875 91.32740020751953125 86.822998046875 85.0177001953125 83.0531005859375 94.07959747314453125 90 93.41590118408203125 84.93810272216796875 93.42479705810546875 91.51329803466796875 81.56639862060546875 94.9824981689453125 90.46019744873046875 88.716796875 95.23889923095703125 93.23889923095703125 81.9114990234375 97.07019805908203125 99.318603515625 99.56639862060546875 98.964599609375 96.1947021484375 95.22119903564453125 97.2631988525390625 90.9468994140625 97.39820098876953125 94.41590118408203125 89.54869842529296875 86.61060333251953125 96.21050262451171875 96.46019744873046875 96.822998046875 83.37169647216796875 87.45130157470703125 96.69029998779296875 92.2017974853515625 96.06189727783203125 91.30970001220703125 84.42479705810546875 90 86.1593017578125 87.86840057373046875 88.61060333251953125 94.99120330810546875 76.716796875 77.46019744873046875 83.84960174560546875 94.106201171875 81.25440216064453125 87.23889923095703125 90.51329803466796875 88.58409881591796875 92.9468994140625 98.13269805908203125 87.5 95.177001953125 89.50440216064453125 94.35399627685546875 80.79650115966796875 94.7344970703125 98.28949737548828125 88.78759765625 90.106201171875 89.44249725341796875 89.7344970703125 81.76110076904296875 92.21050262451171875 93.53099822998046875 90.55750274658203125 95.65489959716796875 93.59290313720703125 73.32740020751953125 95.6667022705078125 81.30970001220703125 87.67259979248046875 83.60179901123046875 98.13269805908203125 96.8760986328125 99.25440216064453125 91.59290313720703125 85.25659942626953125 81.32740020751953125 90.56639862060546875 94.25659942626953125 69.02649688720703125 7.2017998695373535156 61.0885009765625 76.6636962890625 73.63719940185546875 81.59290313720703125 84.55750274658203125 83.8946990966796875 86.69029998779296875 76.893798828125 80.36280059814453125 89.2301025390625 83.30970001220703125 95.35089874267578125 85.7344970703125 92.00879669189453125 79.44249725341796875 79.07959747314453125 71.42479705810546875 86.07019805908203125 93.61949920654296875 94.72570037841796875 84.20349884033203125 29.407100677490234375 20.566400527954101563 88.35089874267578125 94.1239013671875 94.27429962158203125 97.53980255126953125 90.21240234375 72.9822998046875 97.97370147705078125 99.9114990234375 94.34510040283203125 91.34510040283203125 94.57520294189453125 76.59290313720703125 79.7344970703125 69.00879669189453125 88.8052978515625 95.46019744873046875 76.83190155029296875 78.49559783935546875 85.83190155029296875 86.9474029541015625 86.893798828125 75.78759765625 61.955799102783203125 17.745500564575195313 
0 88.90380096435546875 99.35160064697265625 80.39080047607421875 97.06439971923828125 99.14129638671875 99.614501953125 98.992401123046875 72.25969696044921875 45.605899810791015625 23.484500885009765625 24.270599365234375 10.838500022888183594 27.714000701904296875 57.513401031494140625 62.34999847412109375 41.41049957275390625 71.80410003662109375 86.63800048828125 80.022796630859375 83.35230255126953125 84.16719818115234375 86.442596435546875 99.03620147705078125 79.5847015380859375 98.3878021240234375 95.1371002197265625 90.6685028076171875 91.3843994140625 93.91919708251953125 90.53710174560546875 86.14739990234375 92.4208984375 74.2574005126953125 95.917999267578125 87.51419830322265625 90.40570068359375 98.94860076904296875 85.8406982421875 95.2772979736328125 94.22589874267578125 86.36440277099609375 96.32869720458984375 88.2501983642578125 91.106597900390625 91.68489837646484375 92.68379974365234375 94.1027984619140625 87.90850067138671875 88.05750274658203125 40.541500091552734375 59.04669952392578125 85.10469818115234375 97.56819915771484375 89.1614990234375 94.0594024658203125 91.07160186767578125 92.34210205078125 92.71880340576171875 94.3285980224609375 92.1230010986328125 91.90399932861328125 91.860198974609375 97.64299774169921875 91.53600311279296875 94.9365997314453125 93.77899932861328125 86.182403564453125 93.17449951171875 95.531402587890625 82.9141998291015625 96.26540374755859375 90.2566986083984375 96.53900146484375 82.05560302734375 83.51000213623046875 83.7465972900390625 78.25260162353515625 89.36299896240234375 78.8925018310546875 92.39459991455078125 92.82399749755859375 93.38469696044921875 91.7111968994140625 86.59889984130859375 76.66699981689453125 87.987396240234375 89.9763031005859375 90.23040008544921875 94.49749755859375 90.2118988037109375 84.4738006591796875 90.90509796142578125 85.59539794921875 89.45059967041015625 98.48419952392578125 87.8321990966796875 92.94660186767578125 94.9618988037109375 83.65899658203125 87.987396240234375 85.7530975341796875 85.30480194091796875 97.39769744873046875 92.210601806640625 80.92530059814453125 96.37259674072265625 62.27989959716796875 90.91539764404296875 85.4026031494140625 84.7454986572265625 92.245697021484375 79.93520355224609375 90.69480133056640625 80.10250091552734375 92.17559814453125 80.9777984619140625 97.02970123291015625 94.21710205078125 84.0619964599609375 64.70690155029296875 34.1670989990234375 81.3896026611328125 80.49590301513671875 72.785400390625 67.77359771728515625 75.90470123291015625 79.477203369140625 87.83840179443359375 87.25140380859375 89.75730133056640625 85.560302734375 63.156101226806640625 85.16590118408203125 82.9055023193359375 86.73439788818359375 86.86589813232421875 79.40070343017578125 95.71540069580078125 93.112701416015625 76.05359649658203125 92.1230010986328125 87.6280975341796875 22.010000228881835938 10.689599990844726563 78.7996978759765625 94.252197265625 89.722198486328125 96.00460052490234375 97.41519927978515625 88.04000091552734375 97.42919921875 99.6320037841796875 98.9134979248046875 92.972900390625 88.43419647216796875 90.9488983154296875 76.4741973876953125 80.93630218505859375 85.4727020263671875 83.24720001220703125 82.66010284423828125 90.40570068359375 76.92980194091796875 95.3968963623046875 90.75620269775390625 86.97100067138671875 67.73850250244140625 7.5427999496459960938 
0 89.64409637451171875 99.40419769287109375 89.231597900390625 96.97760009765625 95.7942962646484375 80.62740325927734375 95.55770111083984375 56.34799957275390625 50.14459991455078125 65.4073028564453125 67.519500732421875 47.840198516845703125 42.2238006591796875 49.13690185546875 42.328899383544921875 28.096200942993164063 85.12220001220703125 74.1522979736328125 62.06079864501953125 90.861297607421875 93.91049957275390625 98.6103973388671875 98.5279998779296875 92.210601806640625 96.8282012939453125 96.17099761962890625 96.72299957275390625 91.5319976806640625 92.02660369873046875 96.62670135498046875 88.7671966552734375 95.43499755859375 94.08570098876953125 88.34459686279296875 88.7321014404296875 93.46360015869140625 91.9564971923828125 85.3675994873046875 89.722198486328125 96.53900146484375 94.43289947509765625 87.57559967041015625 89.60829925537109375 84.42130279541015625 88.013702392578125 88.68830108642578125 74.20529937744140625 95.5926971435546875 96.468902587890625 64.7682037353515625 53.01850128173828125 70.88410186767578125 97.420501708984375 93.29709625244140625 90.85250091552734375 94.7516021728515625 94.10320281982421875 93.17449951171875 98.46269989013671875 88.3816986083984375 97.5115966796875 90.9488983154296875 93.5774993896484375 89.25789642333984375 84.2886962890625 95.0319976806640625 86.7870025634765625 92.31580352783203125 88.02239990234375 97.6605987548828125 92.9998016357421875 85.74430084228515625 78.883697509765625 85.97209930419921875 88.06620025634765625 67.52829742431640625 92.93900299072265625 83.3610992431640625 89.90619659423828125 88.36409759521484375 96.51270294189453125 88.3466033935546875 83.6063995361328125 83.91519927978515625 94.01560211181640625 67.9138031005859375 94.40110015869140625 91.15039825439453125 87.63690185546875 93.755401611328125 92.07039642333984375 95.0319976806640625 91.31690216064453125 73.74050140380859375 66.79229736328125 90.6634979248046875 97.43280029296875 90.58969879150390625 77.74469757080078125 83.4136962890625 99.97370147705078125 95.92669677734375 98.37030029296875 94.31349945068359375 91.2642974853515625 88.28530120849609375 70.9980010986328125 94.91049957275390625 94.979400634765625 81.99420166015625 92.902801513671875 90.99269866943359375 92.92910003662109375 90.5941009521484375 90.84380340576171875 95.4613037109375 86.7781982421875 79.497100830078125 82.24829864501953125 61.692798614501953125 46.143798828125 93.32340240478515625 81.00409698486328125 63.261199951171875 65.64440155029296875 62.75299835205078125 44.04199981689453125 82.449798583984375 77.7884979248046875 85.937103271484375 97.993499755859375 84.71920013427734375 85.4871978759765625 85.078399658203125 79.435699462890625 93.2707977294921875 85.6128997802734375 92.20189666748046875 84.662200927734375 98.440399169921875 82.861602783203125 83.063201904296875 4.6437997817993164063 62.43759918212890625 41.6884002685546875 96.40760040283203125 88.714599609375 81.61750030517578125 99.5531005859375 92.8677978515625 92.92169952392578125 98.37030029296875 94.47119903564453125 92.59619903564453125 81.7664031982421875 90.82630157470703125 81.08300018310546875 89.77770233154296875 91.92150115966796875 88.7671966552734375 78.883697509765625 86.3927001953125 91.12419891357421875 54.099399566650390625 77.62200164794921875 66.967498779296875 61.666500091552734375 50.675098419189453125 
0 94.49649810791015625 81.7313995361328125 52.676799774169921875 84.53189849853515625 73.53890228271484375 64.4264984130859375 69.78009796142578125 88.54810333251953125 85.8406982421875 64.1132965087890625 57.311798095703125 33.0850982666015625 51.38880157470703125 60.96559906005859375 88.19770050048828125 82.78620147705078125 89.58209991455078125 95.189697265625 97.16989898681640625 77.93740081787109375 79.9176025390625 90.6374969482421875 91.2906036376953125 92.1580963134765625 95.69789886474609375 83.343597412109375 96.35500335693359375 91.21939849853515625 94.8217010498046875 91.89520263671875 92.36840057373046875 89.170196533203125 84.35990142822265625 90.8632965087890625 84.72789764404296875 94.34850311279296875 91.60610198974609375 93.23580169677734375 79.78620147705078125 96.49520111083984375 86.9290008544921875 98.75579833984375 85.95459747314453125 92.806396484375 68.22049713134765625 96.67919921875 93.21700286865234375 87.5493011474609375 80.5222015380859375 82.25710296630859375 36.633701324462890625 96.39009857177734375 98.4801025390625 96.72299957275390625 98.33519744873046875 93.8928985595703125 98.5980987548828125 94.47119903564453125 97.3076019287109375 97.686798095703125 96.0659027099609375 91.52719879150390625 93.735198974609375 94.147003173828125 95.700897216796875 88.51309967041015625 83.61519622802734375 91.74629974365234375 95.119598388671875 85.11350250244140625 91.75789642333984375 79.56719970703125 77.2714996337890625 86.28759765625 92.56109619140625 86.42780303955078125 77.41880035400390625 91.85140228271484375 82.589996337890625 90.23919677734375 93.25330352783203125 82.17819976806640625 89.10009765625 92.60900115966796875 89.336700439453125 91.3607025146484375 95.96070098876953125 89.15270233154296875 95.24230194091796875 83.90650177001953125 91.4658966064453125 78.1652984619140625 64.39150238037109375 59.91410064697265625 80.5572967529296875 91.8795013427734375 81.6699981689453125 94.16449737548828125 75.343902587890625 81.57360076904296875 70.71759796142578125 99.50499725341796875 95.7505035400390625 94.83049774169921875 89.18779754638671875 95.66280364990234375 68.071502685546875 84.67949676513671875 84.76300048828125 92.02660369873046875 90.90509796142578125 98.58930206298828125 93.630096435546875 71.36530303955078125 80.1103973388671875 85.42890167236328125 91.63230133056640625 77.3240966796875 85.72679901123046875 59.3972015380859375 46.8647003173828125 81.09169769287109375 71.5587005615234375 79.75119781494140625 81.5823974609375 73.5565032958984375 50.92060089111328125 76.5442962646484375 66.38919830322265625 81.54740142822265625 97.09100341796875 93.17449951171875 88.52700042724609375 92.70130157470703125 84.50009918212890625 80.3820037841796875 64.23380279541015625 80.268096923828125 79.2947998046875 95.96070098876953125 86.89209747314453125 71.89170074462890625 5.9405999183654785156 72.3824005126953125 63.140499114990234375 89.05629730224609375 93.85790252685546875 86.629302978515625 85.55159759521484375 96.9770965576171875 90.5072021484375 92.0529022216796875 84.8506011962890625 81.7489013671875 82.449798583984375 67.70349884033203125 95.364898681640625 83.2985992431640625 80.67120361328125 91.19429779052734375 94.0594024658203125 89.59079742431640625 81.47730255126953125 44.337299346923828125 13.589799880981445313 86.839599609375 98.9748992919921875 88.73090362548828125 
0 96.162200927734375 87.42479705810546875 23.177000045776367188 53.6053009033203125 39.645999908447265625 82.61949920654296875 80.46019744873046875 97.283203125 90.59290313720703125 84.2368011474609375 79.7698974609375 36.035400390625 38.008800506591796875 78.04419708251953125 93.38939666748046875 89.3332977294921875 90.0531005859375 99.1416015625 92.72570037841796875 99.22119903564453125 92.8406982421875 72.40350341796875 75.61949920654296875 83.59290313720703125 92.55750274658203125 69.77880096435546875 96.63719940185546875 64.14910125732421875 98.035400390625 99.25659942626953125 95.92919921875 96.57520294189453125 93.67259979248046875 85.59649658203125 92.09729766845703125 81.53099822998046875 90.22119903564453125 87.77880096435546875 89.61060333251953125 93.46900177001953125 84.02629852294921875 93.716796875 76.60179901123046875 90.61949920654296875 95.44249725341796875 99.22119903564453125 89.0789031982421875 33.079601287841796875 79.45130157470703125 83.3363037109375 77.65489959716796875 98.09729766845703125 96.13159942626953125 98.11499786376953125 79.76110076904296875 90.13269805908203125 99.752197265625 80.00879669189453125 89.2368011474609375 94.49559783935546875 99.0885009765625 84.37169647216796875 92.27429962158203125 89.02649688720703125 91.35959625244140625 96.39820098876953125 98.0531005859375 93.56639862060546875 90.8760986328125 85.55750274658203125 95.7982025146484375 95.8583984375 89.67259979248046875 91.39820098876953125 90.44249725341796875 82.822998046875 93.6053009033203125 95.38939666748046875 88.58409881591796875 74.46019744873046875 87.49559783935546875 91.54869842529296875 98.45130157470703125 81.1139984130859375 89.7344970703125 90.97350311279296875 87.1239013671875 93.90270233154296875 95.247802734375 93.0789031982421875 94.40709686279296875 91.90270233154296875 68.79650115966796875 66.39820098876953125 58.9468994140625 89.85959625244140625 94.59290313720703125 99.44249725341796875 93.318603515625 80.43360137939453125 73.74340057373046875 74.2718963623046875 87.752197265625 93.9114990234375 76.60179901123046875 99.49559783935546875 60.769901275634765625 88.08769989013671875 89.106201171875 95.3363037109375 93.07080078125 88.37169647216796875 94.0885009765625 86.9474029541015625 94.02649688720703125 83.61949920654296875 96.39820098876953125 94.97350311279296875 93.56639862060546875 48.769901275634765625 47.701801300048828125 67.92919921875 75.25659942626953125 66.63719940185546875 64.9822998046875 39.513301849365234375 26.491199493408203125 62.23889923095703125 68.2655029296875 56.035400390625 71.77880096435546875 81.893798828125 79.50879669189453125 84.3009033203125 87.86730194091796875 89.76110076904296875 91.55750274658203125 83.46019744873046875 75.8946990966796875 84.46900177001953125 90.99120330810546875 63.25659942626953125 1.3982000350952148438 66.6636962890625 29.877199172973632813 58.106201171875 75.64600372314453125 68.16809844970703125 96.06189727783203125 94.74340057373046875 90.9385986328125 86.61949920654296875 87.0531005859375 80.716796875 81.283203125 76.64600372314453125 80.00879669189453125 86.57019805908203125 81.07080078125 86.76110076904296875 85.964599609375 78.32740020751953125 66.41590118408203125 80.42980194091796875 6.8053002357482910156 43.18579864501953125 88.43360137939453125 84.72730255126953125 
0 85.871002197265625 90.53710174560546875 67.47570037841796875 62.14170074462890625 66.380401611328125 88.20639801025390625 97.26629638671875 98.79090118408203125 96.19730377197265625 73.64080047607421875 95.00569915771484375 46.37689971923828125 26.171899795532226563 25.725099563598632813 82.0117034912109375 85.35700225830078125 97.73940277099609375 87.049896240234375 75.037200927734375 91.2642974853515625 85.00830078125 88.804901123046875 93.52490234375 61.9468994140625 30.386400222778320313 41.855800628662109375 95.8292999267578125 94.66739654541015625 88.35540008544921875 92.92040252685546875 83.2209014892578125 90.55460357666015625 93.76149749755859375 82.499603271484375 88.8022003173828125 89.46820068359375 57.7761993408203125 97.2837982177734375 85.58660125732421875 91.64990234375 91.7317962646484375 92.46469879150390625 91.24680328369140625 87.36530303955078125 94.9618988037109375 95.5839996337890625 94.96269989013671875 77.84110260009765625 91.66739654541015625 96.7581024169921875 77.60449981689453125 97.27500152587890625 99.51360321044921875 98.8347015380859375 94.48870086669921875 93.25330352783203125 94.90059661865234375 91.9564971923828125 97.9156036376953125 85.3762969970703125 88.1714019775390625 86.53289794921875 96.16230010986328125 96.9770965576171875 95.19719696044921875 88.2415008544921875 89.4857025146484375 79.54959869384765625 88.63580322265625 89.5644989013671875 87.3805999755859375 87.5579986572265625 84.92949676513671875 88.30280303955078125 78.47190093994140625 90.6510009765625 90.49849700927734375 89.52069854736328125 96.363800048828125 91.798797607421875 93.72650146484375 86.10359954833984375 95.80300140380859375 90.4376983642578125 90.44069671630859375 47.77880096435546875 79.2693023681640625 92.5084991455078125 98.7032012939453125 92.95639801025390625 81.2144012451171875 74.3889007568359375 90.2566986083984375 95.4438018798828125 87.5493011474609375 94.7021026611328125 97.055999755859375 90.966400146484375 98.23889923095703125 98.2301025390625 96.468902587890625 94.57180023193359375 84.456298828125 94.21710205078125 94.9705963134765625 92.06169891357421875 71.0155029296875 89.25659942626953125 92.3332977294921875 94.3748016357421875 89.1439971923828125 95.30359649658203125 96.2848968505859375 56.791698455810546875 81.6699981689453125 94.672698974609375 97.93219757080078125 99.3867034912109375 87.0323028564453125 31.472900390625 52.622898101806640625 77.21900177001953125 64.4264984130859375 65.583099365234375 73.267303466796875 50.442501068115234375 27.00189971923828125 51.958301544189453125 59.42350006103515625 57.469600677490234375 72.5576019287109375 78.638397216796875 89.13500213623046875 88.714599609375 80.9691009521484375 90.60720062255859375 93.76149749755859375 79.62850189208984375 75.9250030517578125 99.02739715576171875 93.5074005126953125 94.5850982666015625 25.87400054931640625 35.722400665283203125 43.946498870849609375 50.100799560546875 67.33550262451171875 75.790802001953125 77.9636993408203125 95.02320098876953125 87.21559906005859375 88.7760009765625 79.93520355224609375 84.39499664306640625 77.0261993408203125 79.2079010009765625 83.834197998046875 96.17859649658203125 79.01519775390625 84.65779876708984375 56.041400909423828125 89.5644989013671875 79.8125 89.447601318359375 7.9471001625061035156 14.045399665832519531 89.46820068359375 95.82360076904296875 
0 85.74610137939453125 99.544403076171875 95.95200347900390625 89.48239898681640625 76.728302001953125 96.3112030029296875 98.9134979248046875 86.91840362548828125 96.31999969482421875 94.87580108642578125 81.924102783203125 74.51149749755859375 49.78530120849609375 46.429500579833984375 91.3256988525390625 94.98870086669921875 99.90360260009765625 98.5279998779296875 95.40869903564453125 77.93740081787109375 63.629199981689453125 98.488800048828125 90.65979766845703125 94.1996002197265625 73.267303466796875 89.24030303955078125 69.03530120849609375 87.20690155029296875 86.29630279541015625 88.3202972412109375 87.12000274658203125 94.147003173828125 95.776702880859375 95.25789642333984375 92.02660369873046875 86.7870025634765625 80.434600830078125 97.25749969482421875 91.3343963623046875 94.53260040283203125 71.07869720458984375 92.4822998046875 87.22509765625 93.93669891357421875 87.58429718017578125 84.13210296630859375 95.07559967041015625 97.53790283203125 92.1844024658203125 93.9629974365234375 85.1573028564453125 99.0800018310546875 96.2306976318359375 85.17479705810546875 96.0395965576171875 92.9553985595703125 95.0319976806640625 94.15579986572265625 90.01219940185546875 96.3112030029296875 87.0059967041015625 88.11879730224609375 80.63610076904296875 82.93170166015625 99.557098388671875 90.861297607421875 42.548000335693359375 90.2655029296875 91.59729766845703125 90.15160369873046875 82.07399749755859375 91.21179962158203125 92.07039642333984375 84.96450042724609375 93.76149749755859375 73.4250030517578125 97.13390350341796875 96.61789703369140625 91.0102996826171875 86.67310333251953125 80.881500244140625 94.1295013427734375 94.5063018798828125 91.25409698486328125 92.83270263671875 83.65019989013671875 87.566802978515625 90.60720062255859375 93.6125030517578125 92.80879974365234375 90.75620269775390625 88.2501983642578125 87.34780120849609375 88.644500732421875 91.3607025146484375 89.3173980712890625 83.11569976806640625 93.0343017578125 99.1676025390625 89.67839813232421875 99.9474029541015625 89.06549835205078125 89.11769866943359375 93.25330352783203125 90.3968963623046875 86.80449676513671875 76.1938018798828125 66.0500030517578125 95.17220306396484375 93.4373016357421875 98.2212982177734375 83.04560089111328125 98.50170135498046875 81.03179931640625 95.671600341796875 86.567901611328125 85.1309967041015625 95.85559844970703125 81.205596923828125 42.5391998291015625 81.7440032958984375 72.64520263671875 58.249401092529296875 78.99759674072265625 81.91539764404296875 73.34619903564453125 81.01439666748046875 49.5662994384765625 66.46810150146484375 36.69499969482421875 70.47229766845703125 75.790802001953125 75.881500244140625 75.939697265625 71.1468963623046875 74.5641021728515625 71.16449737548828125 77.28029632568359375 82.117401123046875 83.08950042724609375 76.9210968017578125 80.6448974609375 6.8780999183654785156 50.039398193359375 39.326000213623046875 46.32440185546875 57.539600372314453125 88.504302978515625 92.1844024658203125 83.3961029052734375 80.571502685546875 85.9983978271484375 73.407501220703125 68.457000732421875 85.56909942626953125 86.4716033935546875 66.2841033935546875 76.115997314453125 90.2566986083984375 74.64299774169921875 71.532501220703125 65.1011962890625 88.092498779296875 92.5482025146484375 0.54320001602172851563 22.544500350952148438 95.69789886474609375 94.0413970947265625 
0 69.99379730224609375 81.2494964599609375 77.595703125 82.777496337890625 73.959503173828125 71.47989654541015625 78.46320343017578125 86.49790191650390625 86.3751983642578125 82.0131988525390625 70.73509979248046875 76.58809661865234375 82.31839752197265625 75.37020111083984375 80.17169952392578125 83.02069854736328125 87.58429718017578125 85.770599365234375 90.23919677734375 94.812896728515625 94.9969024658203125 96.70839691162109375 87.461700439453125 92.98169708251953125 93.656402587890625 94.1996002197265625 72.25969696044921875 86.7465972900390625 84.13210296630859375 87.66320037841796875 88.44300079345703125 98.4579010009765625 76.5092010498046875 84.19319915771484375 98.2212982177734375 97.56420135498046875 84.25479888916015625 83.09819793701171875 98.24759674072265625 98.1425018310546875 97.0558013916015625 82.53749847412109375 78.0251007080078125 84.63159942626953125 96.46019744873046875 87.6981964111328125 92.12259674072265625 95.8206024169921875 80.95149993896484375 88.72339630126953125 81.3634033203125 95.38249969482421875 96.29149627685546875 88.53060150146484375 89.02130126953125 92.8677978515625 92.99919891357421875 98.7733001708984375 91.96630096435546875 95.45259857177734375 78.46320343017578125 80.5923004150390625 87.20760345458984375 92.77140045166015625 87.7888031005859375 82.93170166015625 53.570499420166015625 87.47039794921875 91.83390045166015625 79.38320159912109375 78.9994964599609375 89.993896484375 80.40830230712890625 83.76409912109375 91.36949920654296875 92.87650299072265625 81.257598876953125 85.42009735107421875 74.35379791259765625 90.91390228271484375 77.1313018798828125 97.2926025390625 81.126800537109375 88.40540313720703125 86.89209747314453125 86.3401031494140625 91.78130340576171875 89.67839813232421875 87.4091033935546875 78.92130279541015625 86.52410125732421875 91.106597900390625 81.78389739990234375 87.05860137939453125 97.98480224609375 84.2017974853515625 99.518096923828125 91.15920257568359375 92.4297027587890625 86.41899871826171875 99.29900360107421875 73.5886993408203125 94.15579986572265625 92.937896728515625 88.504302978515625 90.06400299072265625 79.54090118408203125 72.01670074462890625 76.8159027099609375 89.8712005615234375 94.1996002197265625 92.937896728515625 94.4362030029296875 93.89440155029296875 77.981201171875 87.74199676513671875 91.37830352783203125 93.489898681640625 44.0287017822265625 54.867298126220703125 89.187103271484375 78.945098876953125 75.36139678955078125 93.72650146484375 94.7427978515625 55.918701171875 60.561100006103515625 66.38919830322265625 73.82810211181640625 59.659999847412109375 60.842899322509765625 65.6707000732421875 85.40039825439453125 87.4792022705078125 77.81479644775390625 82.3009033203125 73.96829986572265625 90.95770263671875 85.43509674072265625 58.231800079345703125 79.4882965087890625 96.56529998779296875 33.90869903564453125 5.7565999031066894531 64.87750244140625 64.93470001220703125 68.2292022705078125 96.61789703369140625 92.23690032958984375 92.21939849853515625 79.32080078125 92.937896728515625 79.85630035400390625 89.18779754638671875 78.86620330810546875 75.930999755859375 82.81780242919921875 82.67330169677734375 90.861297607421875 58.2230987548828125 67.7472991943359375 90.5458984375 89.398101806640625 96.2133026123046875 12.555899620056152344 6.5714998245239257813 74.73059844970703125 90.0989990234375 
0 0 0 0 0 0 0 0 0 0 0 0 0 0 0 0 0 0 0 0 0 0 0 0 1.7232999801635742188 3.3069000244140625 5.5658998489379882813 5.4959998130798339844 9.2566995620727539063 9.5016002655029296875 10.433199882507324219 11.9701995849609375 17.34980010986328125 19.3759002685546875 20.590999603271484375 23.567800521850585938 22.962299346923828125 22.519800186157226563 28.434999465942382813 30.321399688720703125 24.918500900268554688 34.210498809814453125 34.53659820556640625 35.770801544189453125 38.82160186767578125 39.776401519775390625 40.61479949951171875 38.619598388671875 43.758701324462890625 46.83280181884765625 46.0876007080078125 42.454601287841796875 46.623199462890625 50.069301605224609375 54.215198516845703125 52.189098358154296875 52.67819976806640625 56.49739837646484375 51.560298919677734375 60.295501708984375 62.319499969482421875 60.64279937744140625 58.12760162353515625 52.189098358154296875 58.75640106201171875 53.4394989013671875 61.737300872802734375 63.018199920654296875 56.311100006103515625 62.272899627685546875 69.8881988525390625 69.5753021240234375 59.17559814453125 75.500701904296875 75.1746978759765625 74.35959625244140625 77.55010223388671875 68.74420166015625 72.33350372314453125 75.4541015625 67.0469970703125 79.83229827880859375 82.67350006103515625 66.9073028564453125 82.779296875 69.02649688720703125 75.89659881591796875 88.54219818115234375 84.1407012939453125 72.170501708984375 89.8199005126953125 91.1038970947265625 77.01439666748046875 86.446197509765625 88.14630126953125 93.2230987548828125 78.9474029541015625 88.6352996826171875 87.7270965576171875 83.16259765625 88.658599853515625 80.3679962158203125 69.85230255126953125 97.36840057373046875 78.10900115966796875 94.3177032470703125 86.60919952392578125 95.24919891357421875 86.33429718017578125 80.135101318359375 76.50209808349609375 78.69120025634765625 96.36699676513671875 99.53420257568359375 77.00830078125 97.531402587890625 83.6981964111328125 88.6352996826171875 78.2953033447265625 26.66510009765625 85.09549713134765625 92.9593963623046875 91.15039825439453125 81.5789031982421875 85.51470184326171875 67.90869903564453125 44.271099090576171875 30.563299179077148438 51.86309814453125 80.85700225830078125 71.7978973388671875 74.38289642333984375 66.74430084228515625 80.51709747314453125 83.76799774169921875 82.20770263671875 90.00930023193359375 87.540802001953125 94.760101318359375 94.25209808349609375 81.74199676513671875 81.76529693603515625 78.318603515625 44.66699981689453125 0.51230001449584960938 64.98149871826171875 72.1938018798828125 84.95580291748046875 86.2133026123046875 69.8415985107421875 87.19139862060546875 77.14679718017578125 69.09639739990234375 79.83229827880859375 82.3242034912109375 76.92130279541015625 56.61389923095703125 77.8760986328125 82.17910003662109375 68.7238006591796875 71.4951019287109375 72.82250213623046875 76.89800262451171875 59.641399383544921875 76.5697021484375 8.3837995529174804688 12.412699699401855469 49.650699615478515625 58.32540130615234375 
