ncols        169
nrows        113
xllcorner    381000.000000000000
yllcorner    3074000.000000000000
cellsize     1000.000000000000
NODATA_value nan
nan nan nan nan nan nan nan nan nan nan nan nan nan nan nan nan nan nan nan nan nan nan nan nan nan nan nan nan nan nan nan nan nan nan nan nan nan nan nan nan nan nan nan nan nan nan nan nan nan nan nan nan nan nan nan nan nan nan nan nan nan nan nan nan nan nan nan nan nan nan nan nan nan nan nan nan nan nan nan nan nan nan nan nan nan nan nan nan nan nan nan nan nan nan nan nan nan nan nan nan nan nan nan nan nan nan nan nan nan nan nan nan nan nan nan nan nan nan nan nan nan nan nan nan nan nan nan nan nan nan nan nan nan nan nan nan nan nan nan nan nan nan nan nan nan nan nan nan nan nan nan nan nan nan nan nan nan nan nan nan nan nan nan nan nan nan nan nan nan 
nan 732.186279296875 406.884918212890625 299.5828857421875 167.5240936279296875 111.183685302734375 180.531463623046875 145.67547607421875 237.6169891357421875 140.387451171875 89.7852020263671875 86.908233642578125 205.454376220703125 763.88311767578125 972.53033447265625 864.5780029296875 1072.58544921875 1811.409423828125 2262.052734375 2094.551025390625 2178.674072265625 2596.05224609375 3237.1865234375 3961.260009765625 4435.9921875 3925.07763671875 2950.18798828125 1983.0390625 1059.315185546875 309.898590087890625 82.720977783203125 117.3241424560546875 585.6514892578125 1086.2774658203125 491.192047119140625 296.589630126953125 878.72845458984375 958.3681640625 1297.0396728515625 1943.244140625 2060.888427734375 1711.6329345703125 990.87872314453125 564.7144775390625 242.9918975830078125 109.097320556640625 74.6792449951171875 151.9181365966796875 394.185150146484375 662.2908935546875 1019.9195556640625 1409.0343017578125 1745.816162109375 1543.1082763671875 1054.9510498046875 676.40338134765625 392.908935546875 223.150299072265625 209.0902252197265625 742.794921875 1368.155517578125 1131.2498779296875 549.059814453125 807.6934814453125 1733.9144287109375 2715.77392578125 3208.797607421875 2501.546142578125 1643.8477783203125 872.89105224609375 305.3863525390625 114.37380218505859375 72.539947509765625 206.3117523193359375 235.26806640625 106.44235992431640625 136.0090789794921875 107.47591400146484375 110.62201690673828125 113.3063201904296875 198.5369415283203125 183.4606170654296875 147.67919921875 209.5843963623046875 84.0686187744140625 88.96559906005859375 73.46567535400390625 148.744659423828125 252.1154327392578125 254.0013275146484375 353.920654296875 142.803680419921875 282.3148193359375 1020.99859619140625 1472.419921875 1659.4263916015625 2144.4658203125 2675.603271484375 2541.63037109375 1971.502685546875 1759.815673828125 1587.593505859375 781.1270751953125 313.984527587890625 848.97052001953125 1784.596435546875 2661.181396484375 2405.512451171875 1443.5184326171875 618.5272216796875 690.100830078125 1011.84918212890625 1301.76220703125 1329.4378662109375 1714.8746337890625 2472.58837890625 3360.587890625 4127.43798828125 3921.984375 3460.0947265625 3014.66943359375 2193.687744140625 1225.134033203125 435.83929443359375 336.659576416015625 227.554412841796875 458.490325927734375 546.6563720703125 943.82470703125 792.03125 354.09637451171875 561.62945556640625 808.75592041015625 578.8892822265625 991.74542236328125 1531.3782958984375 1559.67724609375 1115.7008056640625 780.4114990234375 733.64581298828125 419.755645751953125 321.48724365234375 142.958648681640625 638.02972412109375 1483.979736328125 2287.4716796875 2581.389892578125 2026.5623779296875 1696.93798828125 1364.4796142578125 624.2996826171875 244.789794921875 877.058349609375 654.21026611328125 226.694244384765625 300.431610107421875 124.9608306884765625 99.56903839111328125 169.2499542236328125 124.1879425048828125 98.46755218505859375 86.74440765380859375 251.625640869140625 237.6390380859375 273.9140625 244.525146484375 224.264312744140625 442.685455322265625 nan 
nan 709.21331787109375 355.44805908203125 254.9580535888671875 181.06927490234375 157.01617431640625 161.2334747314453125 186.6251678466796875 134.8716278076171875 130.5193939208984375 135.0110931396484375 79.36962127685546875 125.17955780029296875 417.861358642578125 351.88818359375 246.683441162109375 671.0648193359375 1471.31787109375 1512.2359619140625 1230.4315185546875 1354.123046875 1912.7314453125 2651.608154296875 3291.7021484375 3893.527099609375 3932.048828125 3198.97607421875 2327.061279296875 1455.2972412109375 637.07293701171875 117.7162933349609375 82.30332183837890625 464.316375732421875 1022.99432373046875 686.1834716796875 377.110443115234375 640.3345947265625 465.11798095703125 830.60064697265625 1232.688720703125 1229.2320556640625 1238.7545166015625 538.04248046875 170.542877197265625 87.48651885986328125 153.2059173583984375 64.530731201171875 40.60808563232421875 51.04592132568359375 101.99599456787109375 293.62591552734375 602.3380126953125 1004.5736083984375 1068.063720703125 401.18109130859375 198.604705810546875 403.803192138671875 286.08599853515625 128.56524658203125 474.128265380859375 786.39691162109375 596.2900390625 801.3779296875 1135.2509765625 1913.5216064453125 2820.5673828125 3031.142822265625 2161.0869140625 1229.7861328125 419.375518798828125 192.2198486328125 111.4443359375 51.90451812744140625 50.9579010009765625 155.0667877197265625 91.5916900634765625 73.038482666015625 147.5351715087890625 210.5811309814453125 211.2847900390625 243.1289215087890625 127.8594512939453125 214.263275146484375 371.567901611328125 201.2822113037109375 154.6782989501953125 74.27471160888671875 83.4132232666015625 156.9150543212890625 149.589385986328125 238.4889984130859375 77.0290374755859375 137.7513580322265625 644.62188720703125 674.84295654296875 878.74188232421875 1427.03369140625 1960.1483154296875 1946.5538330078125 1255.103515625 933.48553466796875 1279.947021484375 1142.6453857421875 921.37078857421875 1296.6624755859375 2041.559814453125 2784.975830078125 2606.16796875 1791.5081787109375 1204.0753173828125 865.468994140625 452.089996337890625 713.6204833984375 583.51727294921875 1216.1597900390625 2150.459228515625 3083.36279296875 3694.1513671875 3231.28173828125 2659.48486328125 2370.83984375 2118.529052734375 1399.87109375 607.1458740234375 427.655792236328125 334.557281494140625 747.14752197265625 975.18743896484375 629.350830078125 374.057952880859375 289.81378173828125 266.77154541015625 655.78515625 426.3428955078125 541.49151611328125 770.021728515625 983.83892822265625 473.383026123046875 191.2725982666015625 163.1367034912109375 152.947265625 146.243377685546875 108.75970458984375 325.104644775390625 998.79827880859375 1859.029052734375 2072.2490234375 1355.13720703125 876.0123291015625 742.35748291015625 315.595855712890625 180.0925445556640625 751.53875732421875 751.19952392578125 705.3704833984375 552.891845703125 97.234344482421875 132.9906005859375 113.81186676025390625 70.99713134765625 63.433376312255859375 92.850341796875 99.05249786376953125 129.0513458251953125 194.9502105712890625 313.911773681640625 196.014801025390625 232.1173248291015625 nan 
nan 832.9451904296875 333.865203857421875 203.846527099609375 276.564178466796875 156.0485687255859375 227.71307373046875 190.17596435546875 140.64447021484375 197.8863525390625 146.5885009765625 83.838409423828125 76.3907470703125 170.5027313232421875 181.7391510009765625 190.343414306640625 766.307373046875 1132.8272705078125 712.0894775390625 418.33697509765625 627.7276611328125 1336.608642578125 2001.8095703125 2603.396728515625 3196.6953125 3363.812744140625 3139.50927734375 2690.28515625 1937.9814453125 1144.642822265625 412.244964599609375 96.72299957275390625 182.2750091552734375 787.4080810546875 1118.209716796875 634.73089599609375 327.898834228515625 350.620697021484375 340.120330810546875 472.134246826171875 515.707763671875 937.48675537109375 468.617889404296875 193.5588531494140625 102.21661376953125 141.6918182373046875 91.2880859375 59.215557098388671875 55.377918243408203125 40.704708099365234375 46.225799560546875 102.33272552490234375 529.58709716796875 957.34698486328125 341.977783203125 72.51982879638671875 360.62371826171875 567.521484375 281.491943359375 159.3770904541015625 468.0496826171875 649.4730224609375 1225.2431640625 1824.62353515625 2425.4677734375 3157.64111328125 3049.006103515625 2099.3447265625 1134.230712890625 310.788299560546875 128.5525665283203125 136.69732666015625 142.6279296875 99.648590087890625 119.0910186767578125 110.26816558837890625 49.411579132080078125 74.518402099609375 116.63399505615234375 90.8358306884765625 137.8013458251953125 97.49883270263671875 328.668731689453125 589.60205078125 396.56463623046875 503.7708740234375 178.7935943603515625 177.2847442626953125 346.260467529296875 279.713287353515625 457.53436279296875 119.0433502197265625 78.8802337646484375 237.91357421875 161.6414642333984375 280.05902099609375 782.5648193359375 1220.7701416015625 1377.5333251953125 700.13067626953125 303.031280517578125 728.603759765625 884.84881591796875 1000.0247802734375 1377.02490234375 1805.4296875 2445.872314453125 2519.559326171875 1932.280517578125 1595.9903564453125 1158.878173828125 746.57806396484375 816.34552001953125 604.7755126953125 1133.0667724609375 1876.949462890625 2679.85693359375 3237.46484375 2655.490966796875 1919.5093994140625 1518.0460205078125 1617.4810791015625 1601.22314453125 1088.1231689453125 1032.3292236328125 1017.05596923828125 1336.393798828125 1562.23291015625 904.73516845703125 326.5955810546875 216.91607666015625 227.7239990234375 484.7513427734375 330.04986572265625 222.7682037353515625 338.76416015625 848.97064208984375 585.974609375 409.427978515625 280.912689208984375 245.940521240234375 73.5674896240234375 123.92374420166015625 353.57708740234375 827.464111328125 1446.018798828125 1597.0870361328125 952.05926513671875 323.99981689453125 295.809661865234375 219.801055908203125 258.23419189453125 356.33148193359375 472.36175537109375 977.57598876953125 564.51458740234375 236.4180145263671875 478.38134765625 550.07574462890625 417.50946044921875 278.16131591796875 345.718109130859375 353.344329833984375 231.6849517822265625 441.613189697265625 376.2069091796875 143.8770294189453125 181.09686279296875 nan 
nan 881.60491943359375 258.077789306640625 174.848388671875 211.209320068359375 319.56396484375 205.3399505615234375 141.858154296875 191.2075653076171875 173.567657470703125 127.23676300048828125 128.8077392578125 125.2940521240234375 98.954498291015625 151.854766845703125 388.290985107421875 1007.896728515625 856.0316162109375 205.269744873046875 64.0374298095703125 191.342041015625 745.7972412109375 1306.1251220703125 1950.5909423828125 2442.457763671875 2545.222900390625 2374.69921875 2503.824951171875 2379.8994140625 1681.2525634765625 958.1192626953125 326.14141845703125 92.977874755859375 346.792083740234375 794.93011474609375 828.5264892578125 639.2535400390625 385.50958251953125 169.405487060546875 242.694854736328125 572.71502685546875 1037.451416015625 640.822509765625 166.4247589111328125 91.75885009765625 102.4991455078125 222.5132598876953125 113.24964141845703125 116.363006591796875 174.5785064697265625 87.91436004638671875 61.36511993408203125 430.828033447265625 954.420166015625 376.2762451171875 68.76113128662109375 123.0126800537109375 384.259674072265625 319.71148681640625 219.2967987060546875 419.726043701171875 951.41766357421875 1336.0458984375 1980.4759521484375 2759.99853515625 3514.42431640625 3264.708740234375 2350.663330078125 1433.19677734375 548.16424560546875 197.1350555419921875 108.892852783203125 97.50879669189453125 202.78192138671875 191.1327972412109375 76.49506378173828125 50.3672332763671875 103.97069549560546875 98.11524200439453125 87.8433685302734375 102.8988037109375 120.44454193115234375 390.23712158203125 269.326934814453125 187.288116455078125 238.3707427978515625 174.6786346435546875 245.656036376953125 446.16424560546875 289.9180908203125 348.821685791015625 147.6097564697265625 104.75528717041015625 50.443431854248046875 79.62668609619140625 150.368194580078125 296.998687744140625 667.53228759765625 942.86279296875 299.412689208984375 90.97402191162109375 189.5104827880859375 206.015228271484375 328.57366943359375 634.56695556640625 1171.8995361328125 1974.8109130859375 2022.397216796875 1299.955322265625 967.00213623046875 1122.9786376953125 1234.078369140625 1334.266845703125 902.22607421875 737.25714111328125 1398.3343505859375 2299.9931640625 2899.54736328125 2289.859619140625 1369.910888671875 720.3004150390625 905.0968017578125 1095.6473388671875 709.601806640625 872.206787109375 1170.8800048828125 1352.4815673828125 1672.22802734375 1153.908447265625 510.994110107421875 247.482086181640625 188.200958251953125 282.398956298828125 273.443817138671875 301.832183837890625 360.442657470703125 519.245849609375 374.253326416015625 665.91204833984375 690.71246337890625 184.97149658203125 70.81322479248046875 94.07657623291015625 294.5782470703125 447.66143798828125 683.234375 979.7230224609375 883.68609619140625 404.48779296875 214.965057373046875 155.8082275390625 172.9370574951171875 115.68117523193359375 275.804779052734375 499.796112060546875 677.434326171875 871.7982177734375 1163.6180419921875 1356.406494140625 1170.782958984375 702.68145751953125 390.6536865234375 369.725006103515625 450.421905517578125 768.18145751953125 341.98089599609375 164.656768798828125 259.999237060546875 nan 
nan 736.4744873046875 192.74725341796875 267.348175048828125 161.89031982421875 282.452117919921875 163.6114044189453125 194.605224609375 203.4837799072265625 199.03594970703125 145.9575042724609375 106.466278076171875 148.1769256591796875 135.5503692626953125 156.2472076416015625 412.062225341796875 1152.2060546875 1099.238525390625 426.832305908203125 77.94864654541015625 62.16448211669921875 237.945831298828125 792.57415771484375 1240.202392578125 1753.2099609375 1779.7769775390625 1506.38720703125 1794.479248046875 2362.608642578125 2243.7705078125 1547.3076171875 781.2626953125 283.05828857421875 198.4447174072265625 250.343902587890625 648.0267333984375 1095.349365234375 977.3896484375 605.64007568359375 801.33154296875 1157.5103759765625 906.41143798828125 629.45928955078125 584.19647216796875 334.87335205078125 156.4542236328125 149.22222900390625 118.8371124267578125 67.7792205810546875 181.1269378662109375 115.4711761474609375 49.47545623779296875 419.535797119140625 1110.53662109375 833.91839599609375 260.13970947265625 83.48587799072265625 91.76226043701171875 124.72438812255859375 143.8537750244140625 161.1617431640625 402.545928955078125 768.62738037109375 1610.84716796875 2572.6044921875 3511.6396484375 3543.325927734375 2635.018798828125 1665.2369384765625 714.9000244140625 359.197357177734375 295.292205810546875 88.092132568359375 90.3648529052734375 121.65258026123046875 62.07631683349609375 41.902484893798828125 76.220428466796875 120.89263153076171875 108.27777862548828125 87.50740814208984375 93.15543365478515625 378.54229736328125 227.974090576171875 76.66461944580078125 115.20693206787109375 94.86008453369140625 192.9524993896484375 240.5360260009765625 138.881195068359375 197.3507843017578125 209.7441558837890625 71.849334716796875 73.17026519775390625 59.7454833984375 141.18853759765625 98.12762451171875 466.021392822265625 801.99591064453125 223.1585693359375 94.59543609619140625 89.025726318359375 145.0887603759765625 129.1517333984375 197.9120025634765625 850.66259765625 1460.37109375 1627.22607421875 854.77978515625 274.76373291015625 458.107635498046875 677.31671142578125 1164.6103515625 888.93994140625 584.33111572265625 1202.9000244140625 1884.914794921875 2480.832275390625 2136.465087890625 1209.2828369140625 395.02191162109375 504.5321044921875 406.82861328125 278.76922607421875 405.6126708984375 581.60858154296875 643.6578369140625 1137.734619140625 938.2584228515625 782.263916015625 779.99615478515625 438.97113037109375 422.428436279296875 338.487762451171875 359.453277587890625 432.32183837890625 336.700347900390625 346.032806396484375 749.6661376953125 1045.034912109375 492.646209716796875 303.337646484375 187.5164337158203125 170.811492919921875 64.7194366455078125 113.01570892333984375 446.00872802734375 383.51885986328125 441.845245361328125 814.11724853515625 591.037841796875 319.29736328125 247.53228759765625 253.18157958984375 178.9881591796875 381.640838623046875 764.84661865234375 1128.1402587890625 1518.1973876953125 1520.72607421875 923.011962890625 464.256011962890625 182.70257568359375 159.260467529296875 549.0279541015625 444.940216064453125 177.580352783203125 196.7050018310546875 nan 
nan 700.50909423828125 270.276824951171875 294.7947998046875 170.02264404296875 193.2360076904296875 144.0204315185546875 256.259490966796875 231.8722076416015625 302.289520263671875 106.6465606689453125 110.6505126953125 237.1231842041015625 189.9254608154296875 150.92169189453125 466.2374267578125 1085.6224365234375 1502.301513671875 989.07550048828125 339.923431396484375 122.38835906982421875 229.0095977783203125 534.58245849609375 614.33984375 1321.714599609375 1187.047119140625 708.99139404296875 1187.1689453125 2077.647216796875 2638.01416015625 2100.630126953125 1430.4293212890625 985.0015869140625 693.83636474609375 233.6094970703125 198.706878662109375 744.06085205078125 1273.4718017578125 1374.3175048828125 1591.326416015625 1491.0419921875 667.31463623046875 459.269012451171875 693.1435546875 330.150970458984375 191.194366455078125 200.2257843017578125 222.067352294921875 104.72800445556640625 80.795196533203125 135.0813751220703125 101.83745574951171875 272.892303466796875 870.209228515625 1029.3389892578125 649.826171875 374.58465576171875 168.022369384765625 104.63016510009765625 198.0236663818359375 236.0927276611328125 152.3314666748046875 628.4091796875 1541.264892578125 2458.29443359375 3360.146728515625 3619.357177734375 2817.491943359375 1900.2738037109375 1131.393310546875 714.814453125 271.734039306640625 105.24385833740234375 86.84200286865234375 231.369537353515625 235.3480224609375 58.150264739990234375 74.95355224609375 150.9224090576171875 93.013336181640625 101.83863067626953125 65.08123016357421875 289.664520263671875 273.7939453125 99.364471435546875 171.6849517822265625 76.1916961669921875 258.9266357421875 173.6872406005859375 286.184326171875 506.157684326171875 196.932586669921875 108.24935150146484375 221.6851959228515625 171.612518310546875 79.44788360595703125 55.07376861572265625 412.51483154296875 679.85394287109375 137.952789306640625 70.1379852294921875 93.472442626953125 102.5890960693359375 119.51087188720703125 213.6150970458984375 442.3433837890625 764.8834228515625 1259.4031982421875 673.29779052734375 107.72170257568359375 113.1680450439453125 209.6927337646484375 798.142578125 868.19268798828125 722.4775390625 745.239501953125 1296.5946044921875 1912.9959716796875 1691.944580078125 1130.583740234375 733.48974609375 385.155914306640625 208.850830078125 609.529052734375 766.83782958984375 636.8531494140625 309.2147216796875 766.3778076171875 450.52899169921875 414.97772216796875 1065.31494140625 752.59521484375 286.647613525390625 263.575958251953125 511.88726806640625 577.504638671875 387.044952392578125 490.528289794921875 528.68243408203125 962.87384033203125 486.353546142578125 263.19232177734375 109.446075439453125 130.5243682861328125 116.4429779052734375 69.73886871337890625 277.759063720703125 279.086090087890625 788.4342041015625 1446.38916015625 1362.9283447265625 1094.89013671875 1013.50225830078125 914.6622314453125 698.470703125 523.55609130859375 267.18511962890625 504.24273681640625 821.103515625 1024.125244140625 1219.66845703125 1130.9765625 757.023681640625 576.45947265625 438.782379150390625 211.07098388671875 224.4911041259765625 211.6344146728515625 nan 
nan 599.17724609375 235.8257904052734375 242.554840087890625 254.7478179931640625 126.75853729248046875 120.8919219970703125 358.770721435546875 514.44635009765625 335.074462890625 40.484996795654296875 143.1671905517578125 386.0050048828125 270.501953125 156.352447509765625 216.040435791015625 792.0164794921875 1303.5284423828125 1436.4656982421875 876.65911865234375 641.8890380859375 844.72039794921875 882.02716064453125 810.66485595703125 1396.18603515625 1100.4083251953125 559.4364013671875 1090.5606689453125 2027.7607421875 2873.041748046875 2725.630859375 2184.2548828125 1822.868408203125 1384.6793212890625 666.8157958984375 159.50103759765625 273.131378173828125 911.431640625 1605.8790283203125 2139.5439453125 1744.396240234375 976.2078857421875 858.725341796875 740.2303466796875 177.9987640380859375 126.25063323974609375 167.8552398681640625 400.774658203125 234.2427825927734375 86.99982452392578125 120.3457489013671875 130.8646240234375 99.2353363037109375 269.0467529296875 478.701446533203125 882.345458984375 1016.05706787109375 577.935546875 112.057891845703125 150.6891632080078125 153.3413848876953125 136.02520751953125 514.8341064453125 1270.4635009765625 2137.3515625 2910.687744140625 3252.189697265625 3038.464599609375 2416.765869140625 1813.12158203125 1156.9595947265625 667.87445068359375 371.72119140625 113.40531158447265625 256.0859375 178.043731689453125 37.86075592041015625 42.1207122802734375 78.13306427001953125 69.6395263671875 110.9805145263671875 59.479633331298828125 172.4952392578125 379.999603271484375 100.3262176513671875 162.994415283203125 131.7222747802734375 171.8990631103515625 445.2352294921875 618.3809814453125 304.686065673828125 118.28508758544921875 130.9576416015625 456.147735595703125 296.295013427734375 102.0465240478515625 68.93487548828125 363.861328125 849.4161376953125 428.166046142578125 117.00933837890625 69.0601043701171875 56.825439453125 80.65966796875 85.04241180419921875 148.22271728515625 514.9090576171875 961.22723388671875 427.419952392578125 87.9637603759765625 106.1708221435546875 166.7640228271484375 382.743621826171875 239.447235107421875 218.1185150146484375 223.94732666015625 929.3079833984375 1220.9932861328125 1039.96044921875 585.40216064453125 770.09619140625 498.00982666015625 601.42510986328125 1208.9530029296875 1531.053955078125 1211.851806640625 737.212158203125 662.32916259765625 338.042999267578125 485.8336181640625 1056.91650390625 942.1927490234375 360.7535400390625 114.080718994140625 303.27008056640625 388.603790283203125 665.65966796875 449.4420166015625 475.45086669921875 1022.02728271484375 721.253173828125 499.724822998046875 302.454498291015625 100.6272125244140625 187.1683349609375 107.551300048828125 283.691925048828125 820.81402587890625 1412.475830078125 2066.232666015625 2173.689453125 1971.8134765625 1893.21826171875 1741.9869384765625 1533.7354736328125 1113.6123046875 533.404541015625 543.63995361328125 356.584014892578125 358.50482177734375 849.87017822265625 1451.6427001953125 1549.6285400390625 1337.1019287109375 732.71978759765625 329.22686767578125 239.8939208984375 189.0638427734375 nan 
nan 705.98858642578125 372.603973388671875 298.354400634765625 241.617401123046875 101.5665435791015625 130.36126708984375 244.2722625732421875 296.75909423828125 183.9125518798828125 82.718963623046875 241.877685546875 187.110687255859375 314.146392822265625 243.153411865234375 190.4241180419921875 456.904541015625 749.06640625 1517.5909423828125 1576.094482421875 1475.9437255859375 1676.6895751953125 1648.30908203125 1585.56494140625 1915.517333984375 1609.9105224609375 1275.8885498046875 1600.2938232421875 2341.316162109375 3174.694580078125 3382.007568359375 2979.10888671875 2609.968017578125 1981.8828125 1258.935546875 475.650115966796875 85.323486328125 410.8856201171875 1167.3131103515625 1971.540771484375 1952.3685302734375 1369.08984375 1280.0291748046875 1045.4500732421875 444.18670654296875 355.926422119140625 194.22998046875 171.306488037109375 93.42693328857421875 74.221923828125 63.991641998291015625 94.32511138916015625 254.29583740234375 385.4356689453125 200.4139251708984375 721.47576904296875 1381.7408447265625 893.01416015625 192.1311798095703125 153.2203521728515625 160.6435089111328125 157.866973876953125 240.8536224365234375 940.7293701171875 1781.017333984375 2196.396484375 2438.4658203125 2596.70703125 2719.989990234375 2425.504150390625 1831.55615234375 1459.9705810546875 910.9415283203125 230.018646240234375 117.2107391357421875 116.93581390380859375 39.980686187744140625 71.18897247314453125 107.6954345703125 42.1954345703125 58.030902862548828125 63.624378204345703125 231.559722900390625 602.18194580078125 211.418365478515625 197.1393280029296875 195.8424072265625 190.9016876220703125 751.80609130859375 931.4140625 320.71783447265625 161.413116455078125 181.077056884765625 603.6082763671875 423.675628662109375 92.3593292236328125 96.08400726318359375 603.26336669921875 1286.3153076171875 891.750732421875 261.155548095703125 66.90792083740234375 53.39369964599609375 73.68004608154296875 85.3090362548828125 459.3974609375 861.537109375 851.95196533203125 339.221099853515625 180.535614013671875 137.3387603759765625 113.1518096923828125 89.99443817138671875 65.76847076416015625 76.8915863037109375 183.3919830322265625 664.7515869140625 483.6431884765625 395.25506591796875 222.7254180908203125 576.07568359375 988.89593505859375 1338.0303955078125 1841.857421875 2180.0830078125 1626.5421142578125 809.92791748046875 243.298431396484375 293.5340576171875 487.398040771484375 668.142333984375 1228.879638671875 858.08782958984375 423.875701904296875 273.7943115234375 422.26080322265625 471.056396484375 374.540191650390625 386.614105224609375 851.22930908203125 381.23004150390625 465.6612548828125 604.6253662109375 173.4563751220703125 222.7525634765625 82.7809600830078125 256.5029296875 1084.94287109375 1956.8160400390625 2707.169189453125 2986.930908203125 2854.4384765625 2774.107421875 2589.743408203125 2324.957763671875 1741.291259765625 1274.34814453125 826.6309814453125 290.1439208984375 176.44354248046875 423.336669921875 1062.617919921875 1641.9423828125 1512.45166015625 818.8516845703125 325.673919677734375 386.51385498046875 171.888427734375 nan 
nan 614.3050537109375 236.6373443603515625 191.4198760986328125 187.4411773681640625 160.4725189208984375 323.996551513671875 238.7808685302734375 182.801788330078125 161.98553466796875 188.6730804443359375 281.7386474609375 275.40728759765625 228.5705413818359375 206.881866455078125 144.5587158203125 319.058074951171875 875.2821044921875 1694.365966796875 2278.906005859375 2343.245849609375 2528.60986328125 2491.517822265625 2442.5263671875 2634.0107421875 2356.648681640625 2138.05126953125 2321.437255859375 2711.999755859375 3073.693115234375 3387.7314453125 3493.92724609375 3159.780517578125 2508.088134765625 1630.9752197265625 695.98883056640625 108.29766845703125 194.7228851318359375 807.45452880859375 1629.3980712890625 1609.1795654296875 858.78399658203125 701.6864013671875 1074.56640625 1044.0830078125 627.3265380859375 201.8031463623046875 146.9005126953125 81.54967498779296875 81.11829376220703125 72.28603363037109375 61.615573883056640625 346.543121337890625 854.5283203125 510.7989501953125 682.48248291015625 1162.652099609375 740.35418701171875 205.01470947265625 123.2104339599609375 195.5954437255859375 227.221282958984375 262.82293701171875 648.3402099609375 1121.6484375 1345.4853515625 1577.11181640625 1760.0369873046875 2221.406982421875 2665.88818359375 2504.05029296875 1919.91162109375 1005.12371826171875 212.5636749267578125 111.19112396240234375 189.5374298095703125 44.961238861083984375 42.519542694091796875 58.252742767333984375 27.86297607421875 50.732021331787109375 86.2171783447265625 425.33172607421875 979.75885009765625 703.13299560546875 434.68560791015625 139.170867919921875 224.421875 807.552734375 1271.102783203125 739.20965576171875 164.9484100341796875 90.24623870849609375 462.882781982421875 425.73114013671875 95.11280059814453125 135.5275421142578125 794.5269775390625 1585.2142333984375 1231.939453125 614.73443603515625 159.26885986328125 72.45458221435546875 52.12091827392578125 63.386119842529296875 461.040191650390625 608.50128173828125 439.310455322265625 179.20819091796875 245.067535400390625 151.567413330078125 80.51227569580078125 125.5025787353515625 133.69287109375 73.632568359375 176.557037353515625 278.688934326171875 103.3285369873046875 67.4904327392578125 58.452823638916015625 200.1182708740234375 799.9005126953125 1551.2315673828125 1871.982666015625 2036.1279296875 1530.1837158203125 577.4327392578125 61.432682037353515625 213.50665283203125 406.7486572265625 694.24365234375 1148.087890625 793.04144287109375 741.62078857421875 629.32574462890625 311.463653564453125 268.80059814453125 607.28338623046875 569.744873046875 843.3402099609375 732.993896484375 711.9105224609375 803.892578125 425.675079345703125 190.7995758056640625 115.68315887451171875 362.24554443359375 1218.171630859375 2161.495361328125 2941.91845703125 3356.663330078125 3583.587646484375 3637.3984375 3432.294677734375 3009.455322265625 2418.90380859375 1906.9644775390625 1210.7489013671875 628.4598388671875 170.8236541748046875 191.0346527099609375 586.3978271484375 975.12591552734375 905.77850341796875 911.2791748046875 424.146881103515625 195.734283447265625 105.63193511962890625 nan 
nan 536.793212890625 172.0189666748046875 142.203460693359375 123.02398681640625 294.72064208984375 412.59991455078125 233.885772705078125 178.0534515380859375 167.0294647216796875 170.610748291015625 225.0485992431640625 279.741424560546875 355.530731201171875 205.306549072265625 253.957122802734375 613.4388427734375 1396.412109375 2166.53955078125 2898.689697265625 3211.328125 3387.081787109375 3351.548095703125 3311.98681640625 3424.6376953125 3149.898681640625 2813.235595703125 2472.647216796875 2226.804931640625 2284.666748046875 2672.740478515625 2964.8115234375 2758.451904296875 2478.384765625 1671.7523193359375 777.68829345703125 136.6384429931640625 160.1295928955078125 508.82318115234375 1060.0081787109375 1306.495849609375 727.43572998046875 409.94482421875 905.00433349609375 1047.484375 963.52557373046875 426.291290283203125 170.3113861083984375 149.2931365966796875 157.9002227783203125 170.0003204345703125 87.41942596435546875 294.43292236328125 909.08892822265625 438.6256103515625 323.717254638671875 520.667236328125 314.676971435546875 108.3150482177734375 86.21266937255859375 180.7787933349609375 460.46270751953125 594.46136474609375 361.097442626953125 368.068756103515625 514.4530029296875 727.7178955078125 963.7777099609375 1568.17822265625 2143.7158203125 2261.3779296875 1782.70361328125 1046.33544921875 393.68890380859375 361.16156005859375 111.219879150390625 30.455677032470703125 20.492244720458984375 15.490634918212890625 31.58551025390625 51.586208343505859375 132.3161468505859375 664.09393310546875 1311.905517578125 1338.748779296875 749.42041015625 285.85308837890625 271.14373779296875 458.01470947265625 1089.895751953125 922.747314453125 211.448394775390625 67.10479736328125 278.53948974609375 343.093475341796875 92.96794891357421875 199.2461090087890625 964.48974609375 1661.6072998046875 1123.4747314453125 403.605438232421875 102.27140045166015625 92.1980438232421875 69.426971435546875 118.62978363037109375 448.1708984375 213.99853515625 191.0498809814453125 125.1279144287109375 269.368865966796875 329.980987548828125 111.73122406005859375 246.14410400390625 134.950042724609375 160.44610595703125 164.3728485107421875 84.1014251708984375 71.6988677978515625 56.61064910888671875 72.44771575927734375 125.6660614013671875 611.01287841796875 979.8543701171875 1083.32177734375 1419.4073486328125 1458.3140869140625 635.65557861328125 193.77105712890625 582.28857421875 1060.344970703125 1255.3673095703125 988.00689697265625 328.009063720703125 444.238037109375 519.17633056640625 574.40155029296875 446.78375244140625 382.574493408203125 346.38214111328125 694.53131103515625 1084.692138671875 532.29241943359375 701.20294189453125 629.1981201171875 296.279876708984375 124.51355743408203125 388.195404052734375 1231.7713623046875 1975.0740966796875 2324.677001953125 2749.3720703125 3408.104248046875 4037.0888671875 3837.053466796875 3097.17431640625 2412.973876953125 1821.7684326171875 1300.0574951171875 605.264404296875 128.9189605712890625 127.5455322265625 223.8996734619140625 499.966766357421875 327.709930419921875 583.86993408203125 836.5985107421875 400.843048095703125 141.5782012939453125 nan 
nan 808.50433349609375 198.719635009765625 131.6790008544921875 185.5753936767578125 218.639251708984375 200.445159912109375 325.143951416015625 238.526641845703125 297.4322509765625 170.634185791015625 288.860443115234375 121.83246612548828125 400.68450927734375 247.4136962890625 379.53253173828125 1116.9581298828125 1892.097900390625 2701.73828125 3479.039794921875 3904.5673828125 3847.376220703125 3659.239501953125 3619.142333984375 3718.773193359375 3338.796630859375 2625.12353515625 1853.4134521484375 1376.4951171875 1446.8818359375 1985.103759765625 2230.205078125 1903.904052734375 1903.5462646484375 1534.5814208984375 678.84674072265625 218.910919189453125 112.00086212158203125 180.2702484130859375 404.59228515625 743.537353515625 850.300537109375 857.8712158203125 955.25726318359375 499.80084228515625 868.4329833984375 850.47454833984375 464.83837890625 158.5789031982421875 153.3318634033203125 331.744110107421875 266.198822021484375 244.9013214111328125 794.1270751953125 480.86053466796875 98.59369659423828125 141.465423583984375 122.6617279052734375 91.44713592529296875 176.29046630859375 192.8500518798828125 434.56524658203125 763.6337890625 500.333099365234375 351.565521240234375 236.347808837890625 193.0069427490234375 376.2193603515625 890.2379150390625 1415.9683837890625 1478.6590576171875 1097.579833984375 713.02996826171875 419.63140869140625 251.628173828125 35.133144378662109375 16.52902984619140625 10.044054985046386719 10.121619224548339844 17.89945220947265625 24.9533233642578125 71.5670013427734375 363.70196533203125 943.584716796875 1333.4197998046875 641.3310546875 190.7733306884765625 142.7310638427734375 192.2848968505859375 828.4677734375 1036.6553955078125 382.06072998046875 153.7422943115234375 165.5697784423828125 326.65802001953125 158.734588623046875 304.072052001953125 1130.2459716796875 1643.242919921875 897.380859375 180.3927764892578125 80.9640960693359375 88.58371734619140625 61.182491302490234375 251.4471435546875 444.35260009765625 120.25562286376953125 158.7138824462890625 76.22126007080078125 232.9907073974609375 358.200653076171875 115.43422698974609375 142.211883544921875 87.33013916015625 363.3016357421875 179.982147216796875 75.23436737060546875 74.47161865234375 81.94185638427734375 77.17751312255859375 109.43892669677734375 425.8240966796875 384.913299560546875 400.170135498046875 969.67919921875 1502.848876953125 1093.73974609375 808.1651611328125 1145.538330078125 1653.3953857421875 1854.2939453125 1283.66552734375 692.1773681640625 402.5294189453125 172.08648681640625 539.53192138671875 887.32025146484375 393.4681396484375 284.872772216796875 484.3087158203125 935.16741943359375 811.57659912109375 722.7186279296875 388.7530517578125 372.833953857421875 265.89794921875 671.77899169921875 1175.42919921875 1290.9342041015625 1504.24560546875 2091.4375 2913.16845703125 3741.420654296875 3545.574951171875 2647.107421875 1808.9134521484375 1135.0855712890625 690.4066162109375 342.796051025390625 317.135711669921875 477.298919677734375 510.942138671875 440.6900634765625 316.09356689453125 322.0965576171875 769.5601806640625 789.45965576171875 386.153350830078125 nan 
nan 640.8822021484375 255.5458221435546875 168.2405548095703125 304.2978515625 167.0035858154296875 192.92730712890625 183.5729217529296875 363.6551513671875 429.8994140625 190.9992523193359375 196.473114013671875 198.1099853515625 218.3954620361328125 238.2674713134765625 579.69482421875 1363.2049560546875 2290.6708984375 3176.75146484375 3828.1162109375 3666.746826171875 3227.094970703125 2910.973876953125 2859.32666015625 3028.9033203125 2719.596435546875 2107.788818359375 1340.6605224609375 628.62017822265625 724.81573486328125 1494.716796875 1631.6015625 1081.0535888671875 1157.9649658203125 1514.0059814453125 1208.4814453125 849.6439208984375 345.18731689453125 117.6476593017578125 137.58935546875 172.9225311279296875 277.1986083984375 632.27032470703125 1128.630615234375 831.84271240234375 1181.8343505859375 1520.5260009765625 1059.127197265625 544.03240966796875 156.0469207763671875 199.986724853515625 343.6806640625 508.25225830078125 439.096466064453125 199.6416168212890625 78.9159698486328125 72.01218414306640625 56.76462554931640625 125.72997283935546875 117.06273651123046875 91.3668212890625 111.47664642333984375 366.66265869140625 689.943359375 804.6103515625 776.8385009765625 446.734649658203125 276.1912841796875 275.169708251953125 781.7769775390625 711.74298095703125 342.911041259765625 132.5406494140625 87.26665496826171875 76.288665771484375 27.3511962890625 26.898380279541015625 25.267780303955078125 18.710683822631835938 14.560694694519042969 17.670602798461914063 31.368770599365234375 163.8634490966796875 646.15557861328125 1030.6678466796875 429.150360107421875 163.9803619384765625 169.8075103759765625 125.01642608642578125 622.6983642578125 1261.7142333984375 1000.82891845703125 514.677978515625 144.1427154541015625 196.4680633544921875 126.40494537353515625 491.88824462890625 1265.2137451171875 1575.8922119140625 780.96685791015625 160.665802001953125 75.7637939453125 115.657440185546875 70.93282318115234375 321.21502685546875 468.11419677734375 114.1844024658203125 89.0794830322265625 48.121891021728515625 107.9929351806640625 187.6659088134765625 179.0286712646484375 114.3838043212890625 220.9131927490234375 423.04296875 113.07059478759765625 66.8780670166015625 92.60668182373046875 96.43344879150390625 99.7608795166015625 125.1016845703125 277.949249267578125 156.4658050537109375 143.75897216796875 574.67755126953125 1046.9664306640625 955.68292236328125 1041.275390625 904.155029296875 1289.873291015625 1922.278076171875 1775.0859375 967.9840087890625 367.794708251953125 385.1278076171875 742.36090087890625 1269.3004150390625 840.6591796875 367.524139404296875 469.897186279296875 445.21038818359375 650.955078125 317.02099609375 311.59234619140625 580.27911376953125 254.097503662109375 403.098052978515625 555.11114501953125 495.426177978515625 826.1644287109375 1665.281494140625 2600.728271484375 3368.067626953125 3259.54833984375 2339.49609375 1387.862548828125 560.822265625 275.888336181640625 321.04254150390625 761.0732421875 1058.67919921875 1042.603515625 680.5574951171875 320.500518798828125 265.660308837890625 453.435760498046875 983.47723388671875 981.39996337890625 nan 
nan 415.407989501953125 232.381195068359375 140.4492340087890625 349.377685546875 242.569427490234375 175.02203369140625 261.6480712890625 236.2886505126953125 245.06005859375 357.47137451171875 269.22637939453125 395.333221435546875 498.740753173828125 647.52325439453125 1220.0279541015625 1796.3297119140625 2602.8701171875 3426.7841796875 3538.723876953125 2977.853515625 2422.662109375 2056.175537109375 1988.0003662109375 2202.370361328125 2036.9056396484375 1428.144287109375 837.25006103515625 260.1182861328125 486.40252685546875 1342.6552734375 1319.2652587890625 498.96392822265625 545.17022705078125 1373.1748046875 1720.798095703125 1071.71826171875 340.797027587890625 125.0709991455078125 117.91159820556640625 202.846588134765625 132.047027587890625 575.3369140625 1408.9267578125 1614.5006103515625 1813.3438720703125 1988.363037109375 1542.18701171875 978.12188720703125 352.6812744140625 157.78302001953125 178.4362030029296875 518.17681884765625 299.34906005859375 107.7633514404296875 170.3709869384765625 73.97507476806640625 65.67547607421875 123.5762786865234375 52.048919677734375 38.69243621826171875 47.392971038818359375 76.74742889404296875 171.1345672607421875 282.596160888671875 546.581298828125 398.168060302734375 334.000244140625 201.7308807373046875 315.5782470703125 161.9941253662109375 51.915729522705078125 57.166851043701171875 190.084991455078125 341.850250244140625 201.36578369140625 279.0643310546875 287.378631591796875 151.7248992919921875 47.2602081298828125 55.985187530517578125 70.24158477783203125 92.7273712158203125 224.1345062255859375 606.54364013671875 233.090728759765625 136.8209991455078125 82.1510467529296875 281.086273193359375 795.25494384765625 1561.41259765625 1615.1114501953125 873.42071533203125 302.035186767578125 140.7841949462890625 97.715362548828125 308.96514892578125 869.54290771484375 1174.3231201171875 679.0240478515625 148.256561279296875 75.61679840087890625 109.25672149658203125 150.5123291015625 571.317138671875 562.05096435546875 94.99018096923828125 81.5919189453125 140.9266510009765625 125.59752655029296875 199.010498046875 447.650421142578125 185.3187408447265625 288.02764892578125 306.86663818359375 80.046661376953125 79.481964111328125 135.6964263916015625 138.486175537109375 202.2403564453125 269.3109130859375 189.1729583740234375 76.65665435791015625 76.42450714111328125 206.831573486328125 381.537139892578125 316.214630126953125 416.922454833984375 242.2852020263671875 734.6973876953125 1469.717529296875 1775.927978515625 1390.4764404296875 994.60284423828125 1108.2169189453125 1387.4168701171875 1818.3583984375 1397.3834228515625 1044.6328125 938.2525634765625 575.1343994140625 492.771240234375 365.817169189453125 513.48907470703125 959.82489013671875 712.33209228515625 398.8135986328125 397.197479248046875 349.83709716796875 803.401611328125 1582.9549560546875 2197.45458984375 2711.960693359375 2982.771484375 2247.70263671875 1264.6973876953125 431.1610107421875 199.463714599609375 199.3638916015625 463.82244873046875 650.42816162109375 647.43719482421875 916.43670654296875 819.40289306640625 515.29180908203125 396.173126220703125 705.15692138671875 1115.8304443359375 nan 
nan 536.58868408203125 205.4981842041015625 156.1741485595703125 415.46856689453125 274.53790283203125 178.8321533203125 200.4752349853515625 296.078460693359375 444.700714111328125 810.5069580078125 882.9298095703125 1047.435791015625 1229.673095703125 1350.190673828125 1900.5225830078125 2473.386474609375 3096.44287109375 3353.27587890625 2850.968505859375 2288.6630859375 1672.763916015625 1220.2347412109375 1128.70849609375 1372.9677734375 1331.492431640625 785.28509521484375 354.40557861328125 184.279144287109375 455.896636962890625 1196.8736572265625 1296.2845458984375 600.37420654296875 657.83404541015625 1455.4117431640625 1803.3681640625 1089.375732421875 468.374603271484375 255.2481842041015625 165.524139404296875 166.7080230712890625 157.147308349609375 450.23779296875 1246.337646484375 1700.1651611328125 1745.42529296875 1563.7174072265625 1084.396240234375 887.61627197265625 901.6080322265625 632.64935302734375 234.46673583984375 339.0850830078125 546.83892822265625 275.409332275390625 97.08873748779296875 62.341556549072265625 95.0388641357421875 103.57895660400390625 77.4532928466796875 40.271381378173828125 41.4609375 45.256740570068359375 50.671268463134765625 39.8562469482421875 118.22528839111328125 297.067626953125 420.967041015625 382.1654052734375 318.428375244140625 39.52591705322265625 92.91419219970703125 401.843231201171875 804.9075927734375 851.7012939453125 353.167144775390625 453.0015869140625 735.11212158203125 547.5306396484375 157.88482666015625 142.411895751953125 103.1723175048828125 102.75992584228515625 97.12990570068359375 307.35845947265625 139.1329803466796875 78.05171966552734375 102.3393707275390625 445.823211669921875 1255.5716552734375 2014.027099609375 2106.463623046875 1476.1265869140625 804.4244384765625 245.1049652099609375 107.81110382080078125 191.8472747802734375 431.749267578125 544.0750732421875 353.27984619140625 111.62969970703125 131.2122650146484375 248.9670257568359375 493.841400146484375 1100.4822998046875 974.2783203125 302.743408203125 97.319183349609375 157.1892547607421875 136.0491790771484375 130.8683013916015625 354.725830078125 93.74932098388671875 82.0027008056640625 101.26358795166015625 77.33611297607421875 113.91558074951171875 78.632904052734375 186.0084228515625 464.272613525390625 189.4923858642578125 71.5389404296875 96.69197845458984375 85.816070556640625 126.32378387451171875 79.88561248779296875 87.94518280029296875 77.90789794921875 63.438373565673828125 321.389862060546875 752.14019775390625 1206.213134765625 1576.372802734375 1746.7628173828125 1948.5469970703125 2182.5791015625 2469.375 2119.150390625 1867.6593017578125 1474.1195068359375 696.93603515625 304.816650390625 460.12176513671875 825.1995849609375 837.70220947265625 663.17962646484375 460.860626220703125 581.60186767578125 593.80108642578125 1143.8426513671875 1236.67236328125 1453.684814453125 2003.6231689453125 2608.8388671875 2367.0478515625 1542.8270263671875 890.92132568359375 404.706298828125 189.896453857421875 123.53498077392578125 135.1793365478515625 238.175994873046875 600.39208984375 910.82080078125 646.55426025390625 263.2867431640625 253.7150115966796875 572.4351806640625 nan 
nan 602.4208984375 258.74957275390625 213.7817840576171875 213.8288421630859375 129.4818115234375 141.6235809326171875 165.50372314453125 218.7940216064453125 425.137603759765625 689.65283203125 1058.673095703125 1613.517822265625 1914.703125 2130.814453125 2591.65478515625 3191.63671875 3515.966796875 2975.9404296875 2181.409423828125 1569.42431640625 991.80084228515625 480.7666015625 370.244110107421875 657.48681640625 757.37457275390625 301.0618896484375 228.49981689453125 176.389373779296875 215.304046630859375 740.47991943359375 1251.683349609375 1142.2969970703125 1167.4747314453125 1325.753173828125 1479.4058837890625 1450.3397216796875 1137.4903564453125 898.76544189453125 549.80010986328125 210.9415740966796875 117.40335845947265625 307.254638671875 814.76971435546875 979.14239501953125 1036.2042236328125 838.78338623046875 688.17498779296875 560.8779296875 1275.5565185546875 1326.4288330078125 575.06024169921875 158.42413330078125 367.66339111328125 426.9063720703125 119.67513275146484375 143.598052978515625 250.1102752685546875 203.24920654296875 124.55228424072265625 81.417144775390625 79.415191650390625 61.147624969482421875 94.019378662109375 58.55838775634765625 76.9656829833984375 80.49567413330078125 152.2002105712890625 261.194671630859375 460.421417236328125 163.05535888671875 484.276763916015625 1071.83935546875 1553.1143798828125 1310.277587890625 526.4766845703125 230.3495330810546875 557.71636962890625 324.097198486328125 104.17237091064453125 104.608001708984375 83.19205474853515625 66.51329803466796875 43.8502197265625 53.16666412353515625 94.5115203857421875 133.427215576171875 103.22829437255859375 497.285308837890625 1333.2384033203125 2079.696044921875 2288.544677734375 1866.06884765625 1129.101806640625 324.072540283203125 137.6924896240234375 111.76457977294921875 178.472869873046875 228.473663330078125 191.7135009765625 73.40802764892578125 105.17044830322265625 403.027008056640625 1087.4573974609375 1671.9927978515625 1496.5831298828125 697.7008056640625 163.5287628173828125 155.9302520751953125 185.12115478515625 122.34546661376953125 397.241058349609375 201.1052398681640625 94.7906036376953125 50.149631500244140625 119.7093048095703125 88.97272491455078125 73.663909912109375 225.4315948486328125 407.8623046875 69.57776641845703125 63.873134613037109375 104.0188446044921875 84.32390594482421875 232.5787353515625 107.2060394287109375 105.83216094970703125 71.28617095947265625 72.1789093017578125 82.06667327880859375 163.6031494140625 518.24737548828125 1015.89166259765625 1743.4755859375 2158.318115234375 2527.42236328125 2788.564208984375 2713.685791015625 2473.93408203125 1661.533203125 756.7886962890625 290.24591064453125 228.579986572265625 431.50860595703125 476.260406494140625 447.22601318359375 713.1903076171875 831.56329345703125 1175.90478515625 1135.8328857421875 546.583984375 727.29046630859375 1441.518310546875 1963.4190673828125 2218.643798828125 2049.2490234375 1502.8726806640625 916.12860107421875 606.3316650390625 257.51190185546875 165.7884521484375 190.78814697265625 126.22455596923828125 439.481964111328125 974.99114990234375 694.35455322265625 305.705657958984375 617.59698486328125 nan 
nan 493.71197509765625 178.8670806884765625 211.7457275390625 125.96329498291015625 155.8556671142578125 160.4716644287109375 183.6327056884765625 143.0702056884765625 244.36376953125 249.2543182373046875 666.29400634765625 1248.7628173828125 1592.3599853515625 2255.521484375 3031.2939453125 3746.8388671875 3591.823486328125 2660.044921875 1714.14599609375 898.93658447265625 424.828033447265625 167.633270263671875 169.588104248046875 324.816986083984375 417.0810546875 396.432159423828125 357.649871826171875 236.2974853515625 199.456329345703125 565.347900390625 710.61724853515625 884.77685546875 820.8536376953125 573.88726806640625 733.095947265625 1036.345458984375 1233.010498046875 1410.72802734375 974.97662353515625 323.055511474609375 106.034027099609375 344.7548828125 533.28289794921875 585.03240966796875 740.2413330078125 521.7093505859375 977.39886474609375 1057.4267578125 1570.63818359375 1662.82861328125 839.2764892578125 246.5556640625 325.73919677734375 435.494720458984375 236.833251953125 138.0682830810546875 176.93157958984375 157.5092315673828125 78.12722015380859375 80.29418182373046875 68.6755828857421875 82.234893798828125 86.166778564453125 58.37039947509765625 62.51500701904296875 51.628448486328125 69.53045654296875 294.5494384765625 700.90570068359375 371.85009765625 723.6822509765625 1398.1798095703125 2002.35546875 1556.6500244140625 635.93218994140625 304.42034912109375 233.6908416748046875 295.619659423828125 151.1898040771484375 85.923828125 147.724365234375 100.28345489501953125 46.405323028564453125 59.753520965576171875 345.322601318359375 383.969268798828125 134.118255615234375 375.8250732421875 878.121337890625 1557.8114013671875 1658.879150390625 1345.60693359375 1106.9498291015625 449.06854248046875 184.06512451171875 80.32198333740234375 202.592926025390625 267.089508056640625 131.52685546875 89.9633941650390625 143.1361236572265625 572.69830322265625 1461.870361328125 2233.64501953125 1964.701171875 1144.9700927734375 477.01995849609375 267.39361572265625 117.28137969970703125 70.8186798095703125 330.56878662109375 351.849700927734375 122.5286102294921875 93.54628753662109375 131.2530059814453125 76.7548675537109375 105.97843170166015625 283.272125244140625 429.56341552734375 96.1729583740234375 79.81180572509765625 66.46881103515625 54.343471527099609375 151.8585968017578125 86.2402801513671875 115.0862579345703125 118.910125732421875 87.24744415283203125 63.8629302978515625 61.836910247802734375 96.180450439453125 577.56268310546875 1162.755615234375 1420.4827880859375 1924.6324462890625 2092.39208984375 2276.489990234375 2483.456787109375 1867.836181640625 1181.751708984375 476.406158447265625 166.4361419677734375 211.0945281982421875 561.7818603515625 887.298828125 524.60211181640625 566.35906982421875 1301.9117431640625 920.70343017578125 321.71685791015625 457.981597900390625 1057.2794189453125 1160.7374267578125 1522.136962890625 1905.4559326171875 2016.302001953125 1704.84130859375 1347.9642333984375 898.5318603515625 746.58209228515625 752.56915283203125 415.813262939453125 460.91650390625 969.50408935546875 893.8345947265625 320.857208251953125 480.88592529296875 nan 
nan 318.972625732421875 141.9422760009765625 73.8914031982421875 78.6280059814453125 150.74761962890625 135.50115966796875 150.266632080078125 150.959136962890625 227.646453857421875 168.2581939697265625 449.258758544921875 589.841064453125 1017.57342529296875 1928.3262939453125 2893.301025390625 3769.29638671875 3580.884765625 2615.272216796875 1642.12939453125 747.660888671875 331.43841552734375 155.3546905517578125 228.4615631103515625 423.471160888671875 384.7557373046875 313.25384521484375 449.98004150390625 322.8074951171875 318.615203857421875 476.541046142578125 470.92584228515625 536.302734375 266.298553466796875 128.0065765380859375 205.58551025390625 376.95184326171875 545.67962646484375 1045.724609375 1136.0950927734375 437.780364990234375 142.581573486328125 144.8087615966796875 327.219879150390625 562.63916015625 1023.4183349609375 1088.744140625 1414.6962890625 1226.7412109375 1266.906494140625 1637.16845703125 1198.557373046875 400.43414306640625 161.59405517578125 290.2760009765625 480.37420654296875 213.8709716796875 144.7696075439453125 149.46588134765625 121.331787109375 119.36791229248046875 109.401336669921875 89.73180389404296875 58.914424896240234375 60.920108795166015625 51.550792694091796875 58.06146240234375 61.729106903076171875 293.83135986328125 883.921630859375 579.1407470703125 342.53802490234375 1040.9169921875 1873.53173828125 1694.236328125 785.32073974609375 221.3157196044921875 262.86669921875 665.19970703125 669.6915283203125 408.151031494140625 172.333160400390625 142.2873382568359375 163.3750152587890625 287.635528564453125 609.9625244140625 541.35150146484375 224.6348876953125 133.704193115234375 371.631103515625 957.4818115234375 982.58245849609375 607.1771240234375 737.3699951171875 332.08038330078125 119.5410614013671875 83.60717010498046875 287.824798583984375 409.445709228515625 133.4218292236328125 95.434112548828125 226.442138671875 845.7591552734375 1711.42041015625 2563.536865234375 2442.6767578125 1670.2418212890625 940.3466796875 296.2052001953125 163.5036163330078125 124.1228485107421875 351.7298583984375 208.6749267578125 104.08074951171875 68.6632232666015625 74.12056732177734375 117.14940643310546875 236.792083740234375 283.115203857421875 271.080291748046875 123.92588043212890625 118.06299591064453125 131.664306640625 91.687652587890625 139.695098876953125 70.86974334716796875 59.783802032470703125 60.231555938720703125 84.9762725830078125 81.23342132568359375 78.52276611328125 59.54860687255859375 217.290191650390625 398.850128173828125 711.13531494140625 1310.10302734375 1240.609130859375 1523.3651123046875 2006.7791748046875 1494.051513671875 964.7784423828125 741.29827880859375 429.4453125 448.438323974609375 988.2086181640625 963.82598876953125 382.233795166015625 507.61236572265625 1201.69140625 680.50030517578125 308.450286865234375 700.10797119140625 740.79132080078125 437.355010986328125 739.26214599609375 1276.091796875 1894.3084716796875 2061.442626953125 1863.875244140625 1482.089599609375 1376.2064208984375 1216.70068359375 894.1544189453125 860.3521728515625 551.70648193359375 783.56622314453125 737.4091796875 431.537017822265625 nan 
nan 268.36968994140625 22.392658233642578125 19.516513824462890625 65.11489105224609375 115.01946258544921875 187.885650634765625 224.3629302978515625 180.6876068115234375 218.638519287109375 188.3688201904296875 415.586334228515625 380.097930908203125 954.37738037109375 1774.6644287109375 2628.078369140625 3431.17626953125 3606.36669921875 2769.12451171875 1827.5404052734375 898.54302978515625 240.740478515625 135.29547119140625 209.473419189453125 357.430450439453125 290.438262939453125 130.7182159423828125 185.573577880859375 378.008270263671875 214.9274749755859375 169.3740081787109375 222.032867431640625 393.501190185546875 338.50433349609375 180.285247802734375 193.2348480224609375 124.5410003662109375 220.40631103515625 890.9034423828125 1426.0306396484375 903.40118408203125 285.9029541015625 109.0901336669921875 341.287200927734375 411.97918701171875 886.64581298828125 1579.517822265625 1434.5447998046875 655.007568359375 635.2327880859375 1426.9683837890625 1489.7491455078125 758.9981689453125 220.41094970703125 126.8614654541015625 318.408111572265625 255.9456939697265625 222.5320281982421875 229.8214874267578125 95.25966644287109375 88.9653778076171875 124.1855316162109375 122.36157989501953125 69.080657958984375 71.25621795654296875 59.239200592041015625 49.62889862060546875 47.338848114013671875 214.8582000732421875 659.95477294921875 673.91790771484375 258.157867431640625 779.1827392578125 1671.4228515625 1798.12646484375 942.39697265625 240.9107208251953125 373.6959228515625 1050.9412841796875 881.1876220703125 493.404693603515625 318.756195068359375 171.820281982421875 479.16802978515625 829.0496826171875 656.69403076171875 269.251129150390625 175.485809326171875 40.8905792236328125 111.58712005615234375 373.211669921875 639.713134765625 623.33856201171875 656.58013916015625 229.993011474609375 164.2443695068359375 197.928436279296875 344.84429931640625 279.35638427734375 127.37337493896484375 112.403045654296875 227.322662353515625 970.00762939453125 1941.3758544921875 2829.890380859375 2663.51904296875 1729.3504638671875 794.46673583984375 178.0022125244140625 133.9452362060546875 97.13103485107421875 172.647674560546875 294.24981689453125 148.0836334228515625 82.8619537353515625 87.5190277099609375 166.6459808349609375 345.131622314453125 160.190032958984375 122.05480194091796875 122.007843017578125 144.5094146728515625 128.0058746337890625 96.8943328857421875 168.88043212890625 70.49701690673828125 84.9335479736328125 56.998058319091796875 57.668392181396484375 56.736499786376953125 55.888751983642578125 41.608768463134765625 43.831783294677734375 57.325817108154296875 378.08990478515625 757.09552001953125 540.22857666015625 1008.79376220703125 1655.697021484375 1131.328857421875 418.5401611328125 489.266326904296875 941.489990234375 1041.6705322265625 993.51824951171875 527.17388916015625 180.78765869140625 705.723876953125 1267.2913818359375 635.33837890625 197.38372802734375 627.77490234375 783.31390380859375 310.39453125 276.52459716796875 690.466796875 1290.1151123046875 1362.4322509765625 1347.425048828125 1026.4830322265625 994.111572265625 674.68450927734375 436.966033935546875 734.0074462890625 760.9560546875 1043.3238525390625 1313.0389404296875 1093.077392578125 nan 
nan 256.514007568359375 11.400759696960449219 14.811191558837890625 76.649322509765625 156.9913482666015625 219.9482574462890625 169.7427520751953125 232.7025604248046875 290.01641845703125 354.28558349609375 234.5741424560546875 289.212066650390625 663.59881591796875 1335.994384765625 2116.1318359375 2930.11669921875 3403.841064453125 2666.931884765625 1700.9273681640625 784.2327880859375 213.3341064453125 173.9440460205078125 354.98419189453125 424.97802734375 346.01873779296875 403.967529296875 322.843963623046875 278.31146240234375 179.10552978515625 318.854736328125 388.6505126953125 481.05523681640625 346.12261962890625 316.61187744140625 327.416961669921875 122.11652374267578125 312.87725830078125 1083.0643310546875 1754.16064453125 1312.8125 455.35723876953125 100.7895050048828125 167.0623016357421875 262.109100341796875 769.29278564453125 1628.30615234375 1460.041015625 693.08050537109375 770.8062744140625 1549.146728515625 1779.1900634765625 952.60626220703125 215.6939239501953125 198.30084228515625 206.2125701904296875 240.1185302734375 387.712249755859375 202.987945556640625 230.8715057373046875 383.322296142578125 308.157501220703125 138.7507476806640625 146.362701416015625 139.0620269775390625 85.547088623046875 58.21868133544921875 63.18365478515625 64.548614501953125 246.2711334228515625 780.2545166015625 650.28271484375 893.4337158203125 1731.091796875 2098.30859375 1413.1513671875 759.4078369140625 721.36651611328125 1121.15283203125 548.22314453125 247.58905029296875 354.9505615234375 397.93890380859375 499.41748046875 530.03692626953125 523.73126220703125 528.9151611328125 251.4641571044921875 66.7228240966796875 45.21469879150390625 166.237548828125 707.00006103515625 1120.509033203125 652.51031494140625 158.150909423828125 104.2650909423828125 217.360931396484375 422.461273193359375 159.1914215087890625 107.19213104248046875 112.4931182861328125 417.79461669921875 1228.1485595703125 2134.017822265625 2972.20361328125 2698.79248046875 1736.572998046875 831.02691650390625 280.84185791015625 111.801910400390625 245.724456787109375 203.223785400390625 197.2212982177734375 127.9824676513671875 115.54990386962890625 115.75103759765625 328.9541015625 196.639007568359375 273.371856689453125 206.9456787109375 160.2859039306640625 107.79685211181640625 72.39957427978515625 103.171051025390625 114.7723236083984375 71.265533447265625 88.3990936279296875 75.8236541748046875 81.2423553466796875 69.19116973876953125 66.7733306884765625 44.117511749267578125 27.567203521728515625 38.99979400634765625 106.56817626953125 253.90765380859375 547.88232421875 944.2880859375 1176.0709228515625 1068.671142578125 614.5870361328125 461.573944091796875 838.9993896484375 721.73028564453125 395.314056396484375 259.470428466796875 407.090972900390625 1098.7828369140625 1600.4271240234375 1072.33544921875 565.16552734375 606.81903076171875 1148.5772705078125 748.1943359375 395.2879638671875 491.519195556640625 716.34637451171875 525.85638427734375 657.8154296875 451.96221923828125 510.517547607421875 388.4642333984375 187.272857666015625 505.1435546875 1188.4132080078125 1295.32666015625 1247.3153076171875 1376.2196044921875 nan 
nan 252.5755615234375 11.136125564575195313 15.202748298645019531 94.64349365234375 210.5961761474609375 226.11541748046875 183.339202880859375 254.1079559326171875 150.6423797607421875 182.8598480224609375 166.06488037109375 176.3068084716796875 262.479217529296875 810.75030517578125 1642.4921875 2570.852783203125 3254.591064453125 2653.981201171875 1680.460693359375 745.0072021484375 212.7086029052734375 201.943695068359375 206.76788330078125 304.23809814453125 321.91339111328125 476.94451904296875 408.658294677734375 200.37896728515625 168.4825286865234375 646.73956298828125 648.89508056640625 189.1304473876953125 109.39171600341796875 211.9209442138671875 199.661376953125 179.2457427978515625 238.73126220703125 812.5699462890625 1492.160888671875 1227.711181640625 417.00628662109375 128.6412811279296875 188.9815673828125 598.15850830078125 1130.9676513671875 1661.0830078125 1676.307861328125 1388.30078125 1475.5771484375 2006.8975830078125 1908.238037109375 1041.5843505859375 486.916595458984375 582.36376953125 598.970703125 263.664825439453125 192.6980133056640625 250.8615570068359375 344.056976318359375 271.294158935546875 320.753326416015625 296.1519775390625 148.635345458984375 134.99725341796875 253.57965087890625 204.3132781982421875 114.47806549072265625 64.69765472412109375 195.53753662109375 912.59234619140625 1304.4481201171875 1532.0792236328125 2164.503173828125 2573.28466796875 2035.8704833984375 1536.029296875 1476.3192138671875 1308.9212646484375 527.96484375 196.9459381103515625 213.9711151123046875 202.1333465576171875 134.535858154296875 214.2851715087890625 226.7769927978515625 574.54315185546875 614.57598876953125 233.154541015625 71.83322906494140625 47.917652130126953125 347.94610595703125 887.466796875 453.1475830078125 267.514862060546875 453.3319091796875 510.320770263671875 229.6808319091796875 126.434783935546875 153.138427734375 115.95721435546875 561.87445068359375 1412.49609375 2187.251953125 2972.065185546875 2917.524169921875 2094.5048828125 1373.3646240234375 684.197265625 152.82110595703125 167.259368896484375 242.99285888671875 142.763214111328125 106.97821807861328125 90.99915313720703125 91.61194610595703125 313.715728759765625 351.0599365234375 170.3057098388671875 149.28857421875 120.95404815673828125 91.1356201171875 82.91009521484375 97.502960205078125 76.56328582763671875 61.798931121826171875 95.045135498046875 83.18811798095703125 72.7984161376953125 67.9635162353515625 71.58841705322265625 60.5802764892578125 40.485355377197265625 25.929840087890625 22.554758071899414063 127.045379638671875 432.89691162109375 509.11676025390625 500.849151611328125 681.53033447265625 885.32232666015625 807.62530517578125 428.157470703125 241.9343109130859375 450.89617919921875 622.98504638671875 612.477294921875 1299.546142578125 2027.271240234375 1782.17919921875 1312.009765625 1258.878662109375 1659.7032470703125 1428.1729736328125 918.7047119140625 548.04608154296875 312.628692626953125 250.434600830078125 293.000335693359375 293.771453857421875 407.679473876953125 319.786407470703125 234.5846405029296875 772.3170166015625 1222.36767578125 768.9149169921875 463.702362060546875 711.42779541015625 nan 
nan 253.5756683349609375 17.72296142578125 33.4374237060546875 141.3743438720703125 199.0264434814453125 243.7625579833984375 212.2652740478515625 322.6785888671875 223.83123779296875 257.571533203125 159.424163818359375 227.6900482177734375 149.7927093505859375 590.82611083984375 1461.5836181640625 2387.364501953125 3177.603515625 2870.786376953125 1970.47802734375 1098.3375244140625 419.61041259765625 203.6947174072265625 177.07403564453125 331.5498046875 221.5028533935546875 329.208343505859375 361.557586669921875 204.7279510498046875 169.8397216796875 456.250457763671875 401.075164794921875 230.675811767578125 178.6862030029296875 195.11175537109375 191.124908447265625 171.816253662109375 131.9968719482421875 500.384063720703125 830.31317138671875 836.648193359375 438.08349609375 348.340484619140625 143.9162139892578125 333.37823486328125 864.04541015625 1056.0059814453125 1249.8201904296875 1715.3604736328125 1768.6998291015625 2044.8773193359375 1844.1090087890625 995.06793212890625 394.602020263671875 326.087677001953125 570.4046630859375 414.55291748046875 199.6820831298828125 217.32952880859375 214.1782379150390625 198.3628692626953125 234.3704681396484375 484.547882080078125 145.8379669189453125 168.2109832763671875 317.756683349609375 573.5294189453125 224.7521514892578125 75.19863128662109375 149.3686676025390625 625.74658203125 1029.4970703125 1632.3857421875 2455.800537109375 3061.6142578125 2754.202880859375 2377.163330078125 2267.642822265625 1767.10009765625 1060.8834228515625 598.07867431640625 191.523223876953125 145.4741973876953125 159.0448150634765625 179.5926971435546875 263.452972412109375 590.6904296875 682.402099609375 232.9011077880859375 71.4078369140625 35.4769439697265625 104.25324249267578125 407.974334716796875 202.15716552734375 346.033843994140625 1014.5982666015625 887.42919921875 304.0352783203125 111.39521026611328125 128.0326080322265625 97.05945587158203125 428.49078369140625 973.268798828125 1777.4234619140625 2690.999755859375 3185.19580078125 2653.948486328125 1861.2139892578125 933.31280517578125 195.669342041015625 95.41999053955078125 164.2188568115234375 309.7733154296875 129.7488555908203125 116.70896148681640625 118.4005889892578125 173.3049774169921875 324.2330322265625 145.01416015625 148.1683197021484375 91.41878509521484375 118.95623016357421875 175.478363037109375 130.076416015625 91.25089263916015625 88.64635467529296875 94.14989471435546875 112.2204437255859375 70.54775238037109375 69.13439178466796875 51.890880584716796875 52.99123382568359375 46.41545867919921875 36.75414276123046875 213.69537353515625 620.5860595703125 741.09002685546875 563.30615234375 553.12481689453125 331.4815673828125 334.837249755859375 352.16522216796875 279.8604736328125 535.15478515625 1152.146484375 1401.1456298828125 1346.919921875 1785.17822265625 2496.4482421875 2525.81591796875 2146.416748046875 2099.308837890625 2354.605712890625 1962.0631103515625 1084.8115234375 413.937652587890625 547.52325439453125 537.11859130859375 364.26416015625 305.70062255859375 339.20928955078125 315.394287109375 305.142822265625 921.6524658203125 956.906005859375 323.516021728515625 93.27939605712890625 254.4423828125 nan 
nan 267.544158935546875 67.05216217041015625 144.924072265625 174.6138763427734375 131.277679443359375 227.0299224853515625 217.7469329833984375 372.099853515625 330.891998291015625 150.9694366455078125 292.851776123046875 385.43157958984375 199.53094482421875 514.50970458984375 1185.4200439453125 2028.9888916015625 2847.561279296875 2891.7138671875 2053.21484375 1278.441162109375 694.06494140625 228.962677001953125 206.9388275146484375 258.9276123046875 341.025299072265625 294.677734375 247.006927490234375 306.106658935546875 410.7330322265625 317.958984375 218.385101318359375 291.430023193359375 419.696441650390625 216.91522216796875 256.668182373046875 177.03271484375 146.6856842041015625 181.0814361572265625 222.0345916748046875 570.63031005859375 991.1910400390625 849.996826171875 422.3577880859375 275.23345947265625 402.19610595703125 412.848297119140625 787.12213134765625 1267.1334228515625 1051.1680908203125 1419.7945556640625 1524.24560546875 696.13873291015625 154.8983154296875 164.518890380859375 182.1511383056640625 288.961578369140625 419.28485107421875 467.9837646484375 625.49432373046875 352.964630126953125 270.276153564453125 480.703704833984375 150.0302734375 123.81063079833984375 292.49212646484375 623.695556640625 219.6243133544921875 51.215061187744140625 72.3541717529296875 234.4335479736328125 524.7169189453125 1314.7230224609375 2191.52685546875 3022.534912109375 3395.842041015625 3239.814453125 2994.696533203125 2355.117919921875 1768.3304443359375 1112.7734375 428.40509033203125 277.130889892578125 433.34490966796875 238.7884368896484375 237.145477294921875 433.90838623046875 459.9063720703125 472.70831298828125 248.9234771728515625 54.1803131103515625 46.93543243408203125 116.5789794921875 197.9413299560546875 409.540130615234375 849.01751708984375 997.76580810546875 467.43634033203125 126.32464599609375 162.8879852294921875 118.997528076171875 244.3704376220703125 649.91583251953125 1472.71923828125 2347.971923828125 3168.88232421875 2987.681640625 2060.35205078125 1160.0943603515625 408.36553955078125 107.85638427734375 248.3414764404296875 326.315338134765625 267.8165283203125 425.34344482421875 481.609039306640625 601.1671142578125 361.262908935546875 127.71205902099609375 149.469757080078125 179.3598785400390625 96.509307861328125 134.748046875 82.66762542724609375 66.2161865234375 110.96149444580078125 78.740478515625 101.19638824462890625 71.6675567626953125 62.642482757568359375 62.92205047607421875 58.422496795654296875 77.8148956298828125 91.0548858642578125 470.06512451171875 849.19482421875 1122.4576416015625 1104.594970703125 622.88922119140625 316.0499267578125 175.7964630126953125 375.170654296875 696.1783447265625 1091.9315185546875 1698.789306640625 2165.528564453125 2203.916748046875 2499.612548828125 3084.723876953125 3282.500244140625 3008.115966796875 2968.399658203125 2991.82763671875 2310.328857421875 1519.3094482421875 1077.751220703125 1097.041015625 551.63006591796875 257.800140380859375 418.1326904296875 591.2005615234375 395.4208984375 498.62841796875 1029.5721435546875 1076.638671875 492.023284912109375 140.12652587890625 439.772430419921875 nan 
nan 358.985321044921875 113.11944580078125 217.6732330322265625 260.42578125 175.09271240234375 261.858673095703125 352.058380126953125 368.651275634765625 313.202850341796875 296.717742919921875 281.247955322265625 277.6922607421875 315.413238525390625 324.081329345703125 774.2005615234375 1594.32470703125 2505.594970703125 2676.44384765625 1778.352783203125 860.00872802734375 384.370147705078125 202.775665283203125 221.04278564453125 291.13037109375 301.265594482421875 223.4016876220703125 194.29974365234375 274.702728271484375 314.812957763671875 228.469512939453125 340.836883544921875 333.807373046875 335.81884765625 190.2808074951171875 177.90191650390625 241.197845458984375 169.563690185546875 123.4296722412109375 118.115264892578125 465.448638916015625 1182.718505859375 957.83197021484375 757.29754638671875 477.6331787109375 295.8905029296875 425.14910888671875 917.82061767578125 992.6461181640625 477.5128173828125 1021.52587890625 1134.3289794921875 603.04913330078125 548.18646240234375 519.44488525390625 178.062164306640625 332.444580078125 448.796966552734375 243.8047027587890625 577.98223876953125 319.8922119140625 162.7674102783203125 312.74676513671875 116.8612823486328125 159.7376708984375 402.115142822265625 670.61871337890625 389.668853759765625 257.1990966796875 132.013153076171875 132.7921142578125 337.101318359375 926.26641845703125 1753.60009765625 2625.855224609375 3491.99462890625 3929.252685546875 3622.5791015625 3040.25390625 2406.42529296875 1647.467041015625 838.7528076171875 377.16607666015625 687.9039306640625 731.56976318359375 382.37109375 165.806732177734375 256.47979736328125 614.87969970703125 374.70849609375 65.22167205810546875 74.64652252197265625 102.649566650390625 194.96453857421875 149.3372802734375 204.4396820068359375 436.6114501953125 366.321044921875 141.66693115234375 255.0229644775390625 98.45479583740234375 132.845977783203125 358.7122802734375 1129.704833984375 2086.8388671875 3040.4306640625 3215.3408203125 2409.028564453125 1529.6929931640625 648.7012939453125 131.97479248046875 177.52862548828125 479.340118408203125 753.7362060546875 1099.317626953125 1279.218017578125 1168.549560546875 475.924072265625 166.65594482421875 160.5972900390625 154.1325836181640625 91.09033966064453125 84.7132110595703125 96.41556549072265625 102.22959136962890625 89.8555755615234375 97.57244110107421875 130.3782501220703125 93.60974884033203125 99.91030120849609375 71.47998046875 114.638580322265625 99.16718292236328125 88.0969696044921875 142.44036865234375 245.4133148193359375 535.75347900390625 741.97711181640625 444.9871826171875 385.271575927734375 634.36981201171875 1106.4715576171875 1143.9268798828125 1034.2020263671875 1494.689697265625 2285.86669921875 2914.600830078125 3294.2353515625 3773.603515625 4067.59033203125 3880.99267578125 3833.868408203125 3569.084228515625 2839.63427734375 2218.703369140625 1923.157958984375 1685.420654296875 1047.59326171875 434.759002685546875 337.7730712890625 639.5052490234375 673.44415283203125 513.5394287109375 667.65460205078125 1254.138671875 733.50634765625 469.27935791015625 960.257080078125 nan 
nan 486.38336181640625 198.9129791259765625 252.418304443359375 227.3587646484375 263.951446533203125 305.842437744140625 212.0877685546875 205.9737091064453125 262.914031982421875 328.633331298828125 326.9871826171875 250.9884033203125 201.7518310546875 173.4001922607421875 587.61383056640625 1472.519287109375 2427.10595703125 2592.02197265625 1696.7286376953125 733.2828369140625 171.5902099609375 192.57122802734375 267.67626953125 204.879547119140625 219.3406219482421875 223.3893585205078125 204.6746368408203125 359.602783203125 380.31640625 249.640350341796875 305.44927978515625 276.754608154296875 310.281707763671875 165.18170166015625 192.3941802978515625 210.7456512451171875 231.831298828125 187.5060882568359375 137.3725738525390625 398.925567626953125 840.00445556640625 646.15771484375 589.299560546875 661.09710693359375 246.8551483154296875 482.09027099609375 1202.416259765625 1265.171630859375 873.84478759765625 1228.2510986328125 992.34857177734375 525.71826171875 1050.338623046875 977.01678466796875 333.2701416015625 409.006744384765625 321.663238525390625 208.284423828125 235.2478485107421875 155.88037109375 64.1297149658203125 131.9527130126953125 150.5445404052734375 199.793670654296875 211.8605499267578125 469.356842041015625 572.334228515625 378.059234619140625 113.6182861328125 76.11474609375 81.09929656982421875 523.4847412109375 1380.1431884765625 2334.45556640625 3286.025390625 3689.339111328125 3525.83447265625 3328.530029296875 2853.709716796875 2016.017822265625 1083.3023681640625 310.0174560546875 292.272003173828125 454.759674072265625 590.1148681640625 270.458740234375 157.426513671875 396.976715087890625 437.92852783203125 135.4935150146484375 64.16710662841796875 63.94671630859375 185.6338958740234375 145.8565216064453125 60.119792938232421875 74.66306304931640625 128.8379058837890625 157.48284912109375 130.392303466796875 96.6632843017578125 210.3770904541015625 350.39605712890625 1134.3177490234375 2085.41552734375 2810.07666015625 3130.170654296875 2530.86865234375 1555.1417236328125 632.70892333984375 123.4368896484375 186.26397705078125 279.600830078125 518.64105224609375 1064.257568359375 1680.6732177734375 1311.0062255859375 522.85333251953125 153.5406036376953125 100.6438140869140625 125.65665435791015625 85.97101593017578125 112.40056610107421875 187.56671142578125 87.18398284912109375 94.975433349609375 120.57720184326171875 126.41248321533203125 138.4515380859375 102.43737030029296875 105.94390106201171875 86.540374755859375 77.11301422119140625 88.16533660888671875 66.43204498291015625 44.569629669189453125 101.93926239013671875 152.7120819091796875 183.8574676513671875 624.30853271484375 1223.6214599609375 1419.5859375 918.34271240234375 464.6673583984375 1123.2471923828125 2091.21240234375 3071.131103515625 3918.36962890625 4512.771484375 4870.24462890625 4759.4716796875 4658.0087890625 4167.41845703125 3503.17333984375 3012.64990234375 2765.06982421875 2340.201904296875 1663.5196533203125 1051.2291259765625 657.69677734375 360.4237060546875 659.26031494140625 673.07061767578125 853.141845703125 1469.533935546875 1311.5557861328125 1232.3846435546875 1556.0797119140625 nan 
nan 421.50238037109375 207.431427001953125 247.1505889892578125 350.00146484375 279.986053466796875 381.468414306640625 242.1378173828125 194.5286865234375 281.188079833984375 294.99407958984375 248.5263824462890625 238.647003173828125 98.35120391845703125 205.296783447265625 818.1602783203125 1619.7236328125 2452.566162109375 2423.08544921875 1500.9630126953125 588.646484375 170.0701141357421875 257.757171630859375 515.89453125 271.143218994140625 234.90570068359375 199.92694091796875 158.9968719482421875 382.134857177734375 530.05242919921875 270.474945068359375 242.132080078125 291.487701416015625 215.8643951416015625 231.731353759765625 273.526397705078125 260.38348388671875 189.98016357421875 152.11993408203125 122.97078704833984375 150.6666107177734375 444.625946044921875 846.8878173828125 1073.6241455078125 1074.5770263671875 589.8365478515625 567.93267822265625 1367.797119140625 1844.290771484375 1677.5579833984375 1680.5830078125 1205.060791015625 965.77197265625 1428.1007080078125 1290.2965087890625 487.414764404296875 253.446807861328125 564.42291259765625 437.86395263671875 208.1082611083984375 212.1214447021484375 154.0132598876953125 133.5753936767578125 125.48183441162109375 165.9717254638671875 169.6497344970703125 403.782257080078125 892.95587158203125 571.10223388671875 202.83209228515625 52.811946868896484375 66.82032012939453125 420.094573974609375 1294.526611328125 2269.2255859375 3060.001708984375 2931.5029296875 2688.891357421875 2625.804443359375 2558.112548828125 2175.564697265625 1376.1531982421875 765.37091064453125 484.323883056640625 378.39044189453125 847.23760986328125 773.56304931640625 254.803009033203125 235.468475341796875 343.442352294921875 376.410369873046875 151.2343902587890625 134.420501708984375 365.5458984375 337.3079833984375 239.4774169921875 277.85894775390625 155.12451171875 112.43804931640625 122.4946136474609375 115.7519683837890625 365.171844482421875 786.89501953125 1388.595458984375 1844.285400390625 2102.98583984375 2603.39404296875 2581.51953125 1689.9697265625 754.32989501953125 164.9593353271484375 204.8884124755859375 150.9808807373046875 174.3010101318359375 831.791259765625 1511.0032958984375 951.36981201171875 277.90557861328125 139.9455718994140625 154.5758056640625 197.2039794921875 110.821197509765625 100.13983917236328125 157.7891693115234375 100.17407989501953125 140.9597625732421875 186.457275390625 114.47254180908203125 155.7619171142578125 99.97386932373046875 102.81575775146484375 72.80789947509765625 80.1026153564453125 89.62127685546875 78.05106353759765625 55.087398529052734375 81.3328857421875 66.2335052490234375 256.786895751953125 573.00982666015625 1029.7635498046875 813.9188232421875 513.25177001953125 438.923797607421875 1167.02734375 2137.763671875 3124.666015625 4113.74853515625 5038.88134765625 5569.31787109375 5520.431640625 5362.033203125 4815.00830078125 4244.1357421875 3848.31103515625 3568.348876953125 2986.990478515625 2340.221923828125 1748.943603515625 1019.47918701171875 370.857635498046875 384.41497802734375 394.70660400390625 689.615966796875 1203.2811279296875 1662.451904296875 1527.935302734375 1325.6356201171875 nan 
nan 308.0443115234375 105.06038665771484375 237.08587646484375 241.0881195068359375 265.34197998046875 409.400848388671875 270.40625 239.400909423828125 161.1406707763671875 402.48736572265625 263.63372802734375 299.979644775390625 136.8354339599609375 196.134521484375 572.89288330078125 1311.6961669921875 2072.2548828125 2291.931396484375 1517.283203125 698.82476806640625 319.57513427734375 351.849456787109375 387.483001708984375 223.88140869140625 237.78466796875 158.4825592041015625 175.55914306640625 365.73736572265625 575.6519775390625 350.433074951171875 304.258941650390625 216.444366455078125 195.6556854248046875 182.8214263916015625 236.8696441650390625 258.424285888671875 223.5597381591796875 286.560546875 181.8681488037109375 221.383514404296875 273.657135009765625 577.66754150390625 1274.40673828125 1576.3193359375 1290.2225341796875 1231.5772705078125 1783.5467529296875 2166.22900390625 1786.0364990234375 1446.768310546875 810.09442138671875 615.94757080078125 1344.3062744140625 1490.414794921875 712.74945068359375 320.1497802734375 482.757110595703125 244.6977081298828125 150.9964447021484375 230.3970794677734375 320.567901611328125 149.6019439697265625 141.75177001953125 174.109832763671875 117.09189605712890625 275.567474365234375 627.62994384765625 563.35528564453125 367.59466552734375 154.0131072998046875 61.769847869873046875 328.47381591796875 1173.2559814453125 2130.555419921875 2651.080078125 2162.87646484375 1818.2586669921875 1755.6138916015625 1769.8848876953125 2075.820068359375 1969.7109375 1571.9580078125 1283.561767578125 1114.3612060546875 1419.1739501953125 1218.1044921875 522.05157470703125 303.275238037109375 599.84423828125 540.263427734375 324.640960693359375 473.922119140625 539.37738037109375 388.844482421875 369.56622314453125 461.77850341796875 134.282379150390625 99.49390411376953125 118.149200439453125 107.9310302734375 349.94622802734375 1038.1180419921875 1396.8245849609375 1129.8680419921875 1341.291015625 2073.994873046875 2581.424560546875 1920.1917724609375 1097.458984375 487.829681396484375 173.447021484375 227.3563232421875 400.246551513671875 1092.0882568359375 1551.481201171875 820.3240966796875 144.314453125 96.5967254638671875 146.249908447265625 93.959136962890625 78.1365814208984375 165.506256103515625 342.4649658203125 133.302642822265625 282.3150634765625 190.07763671875 72.07566070556640625 99.387542724609375 116.40366363525390625 90.169464111328125 75.987945556640625 65.414459228515625 85.3877410888671875 74.21016693115234375 85.40421295166015625 81.42720794677734375 105.8421478271484375 533.8472900390625 774.53302001953125 634.38287353515625 201.678924560546875 105.5543975830078125 337.630035400390625 1187.71337890625 2172.553466796875 3166.832763671875 4161.76513671875 5021.5546875 5293.15380859375 5206.25634765625 5227.314453125 5215.228515625 4990.02880859375 4695.4853515625 4291.92822265625 3649.887451171875 3020.991455078125 2257.31005859375 1483.7342529296875 865.43463134765625 346.365936279296875 322.56829833984375 369.419586181640625 669.66534423828125 1257.9681396484375 913.6033935546875 525.07598876953125 nan 
nan 333.8521728515625 138.5733795166015625 199.5604705810546875 299.1685791015625 305.351715087890625 498.098358154296875 321.833251953125 435.92254638671875 227.0901336669921875 211.83258056640625 296.3856201171875 191.4000244140625 229.5363006591796875 251.67462158203125 311.069580078125 845.06982421875 1444.7982177734375 2026.470458984375 1572.293701171875 709.97857666015625 278.521453857421875 237.10028076171875 241.1178741455078125 410.018402099609375 249.3828582763671875 134.6324005126953125 225.1528472900390625 509.668853759765625 485.17864990234375 218.7245635986328125 317.014007568359375 258.027313232421875 234.8978118896484375 208.8099822998046875 306.179443359375 327.806060791015625 293.86004638671875 280.886474609375 199.7363433837890625 306.134796142578125 264.01422119140625 352.152862548828125 739.599609375 1213.1295166015625 1693.0089111328125 2018.6805419921875 2153.479736328125 1762.3289794921875 1119.7861328125 779.8447265625 763.9102783203125 659.0108642578125 1248.712158203125 1675.10400390625 1236.3289794921875 730.996826171875 284.09075927734375 180.3621826171875 183.760589599609375 147.81494140625 176.4026031494140625 139.3199462890625 111.88913726806640625 174.938568115234375 200.2662506103515625 247.2095489501953125 217.2834320068359375 174.8997344970703125 174.7279815673828125 311.83013916015625 165.940948486328125 232.3069305419921875 1006.93365478515625 1893.1370849609375 2160.71875 1521.217041015625 985.49237060546875 927.76409912109375 954.71368408203125 1557.6795654296875 2260.181640625 2385.22900390625 2126.770263671875 1981.463623046875 2123.021728515625 1790.783447265625 1215.671630859375 1062.8070068359375 1124.858642578125 618.90411376953125 201.3716583251953125 218.3049163818359375 226.927337646484375 437.40496826171875 734.89453125 553.78631591796875 206.1561126708984375 157.26580810546875 95.81693267822265625 86.720367431640625 186.4020843505859375 519.9315185546875 913.40234375 539.325927734375 872.2647705078125 1805.447998046875 2594.113037109375 2169.963134765625 1318.466552734375 533.3521728515625 194.8425750732421875 108.03328704833984375 315.30450439453125 937.791748046875 1547.290283203125 1102.19140625 445.484344482421875 143.8055572509765625 145.891937255859375 113.36197662353515625 65.46916961669921875 168.672760009765625 198.844757080078125 134.6789093017578125 238.717315673828125 153.5734100341796875 91.230499267578125 100.2575531005859375 49.19602203369140625 94.0954437255859375 91.51665496826171875 81.2055206298828125 59.0751190185546875 79.035003662109375 69.8185882568359375 66.10012054443359375 311.694915771484375 805.47369384765625 876.11029052734375 457.14453125 95.28676605224609375 103.1842193603515625 598.193359375 1450.287841796875 2352.05859375 3294.60791015625 4150.2060546875 4451.908203125 4433.6328125 4325.33447265625 4388.830078125 4667.90576171875 5068.69873046875 5314.77978515625 4961.890625 4320.99169921875 3568.308349609375 2785.4736328125 2009.0391845703125 1135.71240234375 366.191619873046875 206.8292999267578125 289.862152099609375 352.29046630859375 763.6766357421875 462.547698974609375 234.52850341796875 nan 
nan 265.913299560546875 105.85688018798828125 145.4165802001953125 224.6793212890625 197.60137939453125 258.256072998046875 279.6177978515625 432.050384521484375 293.2266845703125 245.8135528564453125 287.619537353515625 280.9676513671875 210.293548583984375 206.4717254638671875 167.65350341796875 346.543182373046875 974.73150634765625 1629.520751953125 1216.6668701171875 459.99127197265625 125.9041290283203125 203.663665771484375 161.9315643310546875 276.661102294921875 251.0676727294921875 169.4444122314453125 318.548309326171875 422.35491943359375 255.7432403564453125 294.164215087890625 230.009979248046875 339.528533935546875 326.606231689453125 192.225067138671875 145.68267822265625 209.769317626953125 248.012664794921875 228.272308349609375 167.9015655517578125 239.41339111328125 216.0048370361328125 220.4786834716796875 271.375579833984375 642.82904052734375 1478.54931640625 2257.642578125 1986.2039794921875 1158.075927734375 539.93768310546875 222.2000579833984375 641.3216552734375 682.123046875 784.76080322265625 1436.54150390625 1614.7127685546875 816.90643310546875 218.2264862060546875 202.8226776123046875 175.2367095947265625 184.046905517578125 154.203338623046875 277.463775634765625 240.5665435791015625 132.819732666015625 239.5893402099609375 168.3650360107421875 156.6623992919921875 133.67926025390625 137.4040985107421875 270.3470458984375 263.2325439453125 260.10638427734375 899.9671630859375 1358.872802734375 1545.1573486328125 1212.2322998046875 512.01873779296875 498.640655517578125 444.453369140625 1209.1322021484375 2174.174072265625 2953.0400390625 2975.810791015625 2862.58642578125 2896.3837890625 2476.338623046875 2028.2135009765625 1837.3370361328125 1296.99755859375 490.59686279296875 222.420379638671875 152.1531982421875 210.7991180419921875 337.374725341796875 467.20166015625 400.28472900390625 252.9284820556640625 230.886993408203125 157.0016937255859375 78.82450103759765625 95.51943206787109375 176.3880615234375 724.559326171875 828.20526123046875 1121.2354736328125 1915.107421875 2600.812255859375 2090.749267578125 1108.949951171875 284.788970947265625 215.592315673828125 214.000732421875 125.2507781982421875 626.81353759765625 1494.080078125 1351.8502197265625 519.34832763671875 246.95562744140625 141.983978271484375 125.62731170654296875 88.54172515869140625 93.016204833984375 86.63027191162109375 144.00091552734375 154.5547943115234375 171.259735107421875 184.8465728759765625 90.51966094970703125 53.3094482421875 47.556316375732421875 49.11083984375 78.209075927734375 115.62225341796875 197.8912811279296875 163.5206298828125 129.850189208984375 324.41192626953125 324.55621337890625 248.1606292724609375 166.341522216796875 103.0135955810546875 129.9901123046875 703.14239501953125 1658.08056640625 2622.29443359375 3506.53564453125 3760.7216796875 3597.713134765625 3559.40625 3441.328125 3520.72607421875 3865.150634765625 4413.93505859375 5084.4296875 5432.060546875 4890.69287109375 4099.62841796875 3268.078369140625 2395.17236328125 1584.928955078125 989.69915771484375 859.86822509765625 882.246337890625 677.8505859375 692.4239501953125 270.03741455078125 220.2172088623046875 nan 
nan 330.241119384765625 103.8063812255859375 178.8714141845703125 325.05523681640625 245.685791015625 403.693145751953125 452.941986083984375 271.4495849609375 251.5985565185546875 187.9170074462890625 506.90386962890625 350.290435791015625 189.279815673828125 142.6585235595703125 189.00335693359375 382.4014892578125 934.4459228515625 1312.5628662109375 689.54730224609375 233.3979949951171875 166.356201171875 235.0660400390625 167.685943603515625 176.794219970703125 144.7808074951171875 234.74932861328125 220.51824951171875 155.1119842529296875 177.1620635986328125 267.627899169921875 355.83563232421875 438.41668701171875 200.6133270263671875 180.9988555908203125 244.5216064453125 246.5098724365234375 366.45306396484375 454.784332275390625 248.7072296142578125 433.933990478515625 313.671173095703125 192.1999664306640625 180.584686279296875 383.895904541015625 1208.3133544921875 2041.4925537109375 1709.0330810546875 765.97174072265625 215.344512939453125 282.63726806640625 301.731353759765625 231.8368377685546875 469.218505859375 1277.7030029296875 1780.97705078125 1233.578857421875 486.03662109375 149.44012451171875 180.417205810546875 157.4759521484375 162.929779052734375 177.3956451416015625 196.6578826904296875 99.40348052978515625 159.2208099365234375 138.0986480712890625 182.4750823974609375 160.6676483154296875 94.9681243896484375 216.7856903076171875 208.8419036865234375 234.925018310546875 454.612762451171875 581.14971923828125 964.423828125 1351.6307373046875 1007.369140625 985.99017333984375 867.4056396484375 1417.814208984375 2298.424072265625 3230.79296875 3738.869873046875 3653.0703125 3452.739990234375 3059.822265625 2720.510986328125 2209.457275390625 1485.8101806640625 977.54522705078125 623.678466796875 228.0467987060546875 345.31158447265625 186.0475006103515625 186.8336639404296875 194.74578857421875 343.580108642578125 237.022003173828125 144.0248260498046875 170.285400390625 228.1899566650390625 215.8308258056640625 394.749114990234375 827.54248046875 1156.457763671875 1710.5819091796875 2296.91064453125 2096.747314453125 1186.9613037109375 388.700653076171875 159.4474029541015625 241.4803619384765625 153.1204071044921875 512.26129150390625 1387.121826171875 1345.953857421875 492.10107421875 151.6215057373046875 144.11749267578125 101.6847076416015625 105.3432159423828125 112.92580413818359375 93.07968902587890625 137.38043212890625 169.6419677734375 170.318084716796875 136.785247802734375 64.24117279052734375 36.4324188232421875 31.971055984497070313 43.148586273193359375 37.295196533203125 216.510284423828125 490.06280517578125 319.74615478515625 427.26519775390625 293.1431884765625 107.16901397705078125 69.03790283203125 81.363189697265625 121.18296051025390625 401.6705322265625 1063.120849609375 1869.6300048828125 2785.144287109375 3343.843994140625 3003.655029296875 2719.53759765625 2692.480224609375 2561.708984375 2667.220947265625 3107.2841796875 3767.984375 4554.39208984375 5352.46533203125 5364.73486328125 4561.56201171875 3708.2041015625 2912.30859375 2238.769287109375 1809.473876953125 1737.345947265625 1717.6015625 1481.7054443359375 1177.2154541015625 592.5726318359375 280.30645751953125 nan 
nan 496.06585693359375 94.95272064208984375 173.936004638671875 237.47509765625 302.10772705078125 290.679107666015625 410.618682861328125 375.7962646484375 213.90887451171875 188.371734619140625 557.55035400390625 358.654327392578125 125.96788787841796875 115.46466064453125 232.0991058349609375 262.690155029296875 780.51751708984375 748.76007080078125 309.210693359375 117.8144683837890625 193.3853912353515625 155.8893280029296875 164.657012939453125 150.1988677978515625 195.480621337890625 272.013275146484375 184.5979156494140625 166.732330322265625 166.402984619140625 256.7408447265625 358.15704345703125 273.966064453125 358.376495361328125 151.3615570068359375 155.5572357177734375 228.3201751708984375 431.376800537109375 482.370513916015625 280.000732421875 485.97430419921875 335.78106689453125 193.423919677734375 154.21881103515625 435.034759521484375 1290.2576904296875 2095.659423828125 1720.1875 849.18743896484375 572.1307373046875 613.128662109375 261.019775390625 443.1158447265625 495.72406005859375 974.30511474609375 1519.718505859375 1626.9859619140625 925.72247314453125 244.693603515625 187.5176544189453125 166.70440673828125 171.1051025390625 222.5506591796875 202.862884521484375 177.823883056640625 107.607269287109375 143.544281005859375 180.8841400146484375 140.518402099609375 78.9882354736328125 182.6467437744140625 290.934417724609375 420.647735595703125 389.70721435546875 196.7754058837890625 737.319580078125 1478.5582275390625 1707.66650390625 1777.828857421875 1693.5816650390625 2035.93408203125 2698.851806640625 3345.2333984375 3754.962890625 3556.63037109375 2985.582275390625 2618.595703125 2467.735595703125 1861.98974609375 1101.87353515625 871.091796875 900.3826904296875 702.39300537109375 645.9697265625 229.0812225341796875 93.27027130126953125 208.496978759765625 549.4508056640625 237.0823974609375 137.28240966796875 239.759918212890625 155.3428802490234375 304.524627685546875 180.3436431884765625 320.579376220703125 479.9481201171875 1067.763427734375 1654.7734375 1905.823486328125 1557.531982421875 895.6434326171875 324.2578125 264.41094970703125 133.6918487548828125 508.42816162109375 1103.3927001953125 1094.2193603515625 396.62310791015625 149.9566802978515625 177.11383056640625 123.806884765625 96.51921844482421875 204.2702178955078125 169.7396697998046875 175.6615142822265625 173.05474853515625 124.970245361328125 60.76873779296875 63.7969207763671875 25.487447738647460938 17.672008514404296875 41.479877471923828125 28.626972198486328125 46.460765838623046875 236.3097381591796875 398.779815673828125 465.953277587890625 137.648193359375 77.3558349609375 57.6323394775390625 65.174346923828125 152.157928466796875 760.57763671875 1387.9241943359375 2063.63232421875 2855.361083984375 2883.395751953125 2247.28173828125 1853.095947265625 1841.912109375 1692.9195556640625 1848.4537353515625 2440.056884765625 3239.48291015625 4119.22265625 5009.23046875 5564.5068359375 5032.41015625 4245.70068359375 3546.82080078125 2992.48828125 2668.97509765625 2621.398193359375 2565.38232421875 2309.548583984375 1863.183837890625 1224.7366943359375 577.173583984375 nan 
nan 503.9853515625 137.2827301025390625 144.981414794921875 327.7454833984375 422.00677490234375 307.170257568359375 508.923095703125 526.97076416015625 192.977386474609375 310.737640380859375 442.600555419921875 280.71044921875 154.93109130859375 170.753143310546875 221.36700439453125 488.27020263671875 685.75115966796875 257.60443115234375 125.10385894775390625 104.565093994140625 190.1374053955078125 403.368865966796875 255.3532867431640625 101.5927581787109375 152.283050537109375 229.345062255859375 175.671844482421875 122.4591064453125 143.399566650390625 165.79925537109375 218.862640380859375 251.459686279296875 341.412200927734375 222.80279541015625 55.216037750244140625 196.9771728515625 369.98248291015625 546.6607666015625 473.774505615234375 611.74322509765625 409.985595703125 207.464324951171875 159.31048583984375 569.661376953125 1477.252685546875 2326.189208984375 2108.1435546875 1488.6839599609375 1246.0982666015625 726.369140625 394.9793701171875 493.124053955078125 320.31353759765625 394.392242431640625 1102.3193359375 1779.84423828125 1258.875 449.8218994140625 262.2794189453125 255.0748748779296875 196.0245208740234375 173.660247802734375 183.947021484375 124.20794677734375 108.4570159912109375 150.354400634765625 199.1698760986328125 154.685577392578125 78.27315521240234375 107.0590972900390625 178.2765350341796875 242.240386962890625 643.6859130859375 448.325042724609375 513.09173583984375 949.416015625 1611.082275390625 2220.32666015625 2493.857421875 2665.34326171875 2720.120361328125 2751.81396484375 3007.953125 2937.5390625 2266.606201171875 1773.8953857421875 1727.572998046875 1544.457275390625 672.99444580078125 266.100311279296875 856.19866943359375 1148.23193359375 513.0859375 209.2042999267578125 118.57480621337890625 430.6727294921875 921.2598876953125 532.71783447265625 352.417755126953125 305.179779052734375 252.8697662353515625 343.639801025390625 477.33660888671875 344.244659423828125 168.0023956298828125 675.71026611328125 909.51727294921875 1359.4085693359375 1745.64697265625 1055.4803466796875 288.28680419921875 157.2396392822265625 127.3795318603515625 522.394775390625 530.54266357421875 490.082489013671875 291.3646240234375 104.02751922607421875 100.8607635498046875 146.2804107666015625 137.7418365478515625 188.3912506103515625 121.29784393310546875 167.643646240234375 90.7188720703125 60.29422760009765625 72.34261322021484375 70.029998779296875 33.760066986083984375 12.796570777893066406 18.310853958129882813 42.42713165283203125 110.20489501953125 212.8028411865234375 401.254669189453125 305.172149658203125 94.76080322265625 90.19365692138671875 59.46413421630859375 97.241607666015625 252.3673248291015625 573.46380615234375 894.9329833984375 1726.7236328125 2482.82470703125 2252.565185546875 1585.5394287109375 1025.990234375 1026.1688232421875 858.00885009765625 1138.59326171875 1943.865478515625 2834.2734375 3716.132080078125 4608.70166015625 5474.2958984375 5535.65673828125 4868.80517578125 4263.10986328125 3796.517822265625 3543.122802734375 3506.513916015625 3417.805908203125 3111.0234375 2526.195068359375 1794.1075439453125 1237.936279296875 nan 
nan 519.8021240234375 154.0688934326171875 197.55572509765625 378.12933349609375 226.8283843994140625 232.6767730712890625 607.72064208984375 415.24432373046875 243.3269805908203125 567.56036376953125 383.9288330078125 259.3272705078125 146.638763427734375 244.5246124267578125 263.453948974609375 644.95684814453125 592.72467041015625 320.278411865234375 244.593597412109375 399.698272705078125 695.07666015625 1007.6707763671875 534.21807861328125 110.1607666015625 154.18609619140625 218.3798980712890625 140.17431640625 153.63519287109375 120.535858154296875 134.423736572265625 166.005401611328125 228.93572998046875 115.27217864990234375 81.3868408203125 13.949201583862304688 61.697841644287109375 240.84539794921875 216.351806640625 133.0634002685546875 267.033203125 258.828094482421875 257.3350830078125 341.502349853515625 907.4398193359375 1751.42138671875 2609.47705078125 2717.5859375 2290.753662109375 1873.367431640625 1232.43408203125 807.54034423828125 494.018707275390625 522.87652587890625 551.2376708984375 1057.8043212890625 1681.914794921875 1426.6771240234375 570.68896484375 214.1187591552734375 184.983245849609375 156.6638336181640625 206.8338775634765625 129.1454315185546875 129.1553497314453125 152.70733642578125 169.5836944580078125 155.825164794921875 216.9866790771484375 170.8578643798828125 182.8003387451171875 281.557952880859375 184.6289520263671875 368.3218994140625 467.451568603515625 323.37530517578125 508.084197998046875 1099.5909423828125 1846.659912109375 2611.7763671875 2483.727783203125 1984.65625 1886.9090576171875 2216.73779296875 2307.2236328125 1677.25634765625 990.62347412109375 960.7373046875 1366.0128173828125 829.67120361328125 470.97186279296875 1011.86083984375 1457.9854736328125 918.5137939453125 391.750762939453125 182.9210357666015625 360.592864990234375 651.93731689453125 903.92449951171875 1085.9669189453125 1013.23443603515625 892.60302734375 655.48272705078125 464.781524658203125 707.062744140625 674.25799560546875 684.060546875 355.390869140625 941.44091796875 1516.836669921875 1206.551025390625 479.889678955078125 196.850189208984375 136.05419921875 285.04571533203125 283.822601318359375 81.356170654296875 151.778961181640625 232.39324951171875 175.003570556640625 130.62738037109375 124.83343505859375 184.481170654296875 127.55654144287109375 114.3398590087890625 83.45249176025390625 62.518032073974609375 57.784587860107421875 79.62286376953125 52.733585357666015625 16.078191757202148438 23.569498062133789063 188.878692626953125 644.35382080078125 617.86517333984375 251.238128662109375 117.69702911376953125 75.55149078369140625 82.54376220703125 60.816089630126953125 81.242156982421875 326.250244140625 512.60687255859375 790.7088623046875 1667.4881591796875 2111.17138671875 1553.9638671875 957.78594970703125 357.895660400390625 373.6898193359375 276.5682373046875 685.33245849609375 1547.466064453125 2429.815185546875 3354.9697265625 4311.14599609375 5281.3837890625 5927.4697265625 5560.94921875 5025.70458984375 4630.55810546875 4423.4111328125 4390.94140625 4269.11181640625 3832.705078125 3119.01513671875 2456.99609375 2072.352294921875 nan 
nan 401.269287109375 161.9252166748046875 445.834259033203125 574.35589599609375 263.35260009765625 336.229766845703125 535.69732666015625 264.691650390625 243.2334442138671875 443.977996826171875 392.725921630859375 264.044158935546875 216.101470947265625 350.59039306640625 321.154754638671875 381.419525146484375 472.8671875 267.359405517578125 154.1604766845703125 346.58331298828125 1020.0008544921875 1430.0172119140625 736.66082763671875 124.98340606689453125 133.76812744140625 215.5587310791015625 196.825897216796875 151.2656097412109375 128.4053955078125 150.6474456787109375 354.604949951171875 653.09259033203125 312.48382568359375 74.00018310546875 16.735996246337890625 79.7794952392578125 269.41461181640625 266.41253662109375 160.0858306884765625 227.317413330078125 238.7023468017578125 326.960845947265625 375.732666015625 826.3782958984375 1707.7625732421875 2663.53515625 3265.71630859375 2890.88232421875 2075.874755859375 1184.1162109375 475.70458984375 205.288848876953125 319.270111083984375 776.63043212890625 700.8961181640625 1101.15478515625 1228.2457275390625 498.8692626953125 178.1445465087890625 176.0971527099609375 272.53240966796875 268.795562744140625 135.0970916748046875 178.9200439453125 146.325927734375 127.62397003173828125 140.1348876953125 173.32879638671875 191.1204833984375 241.4390106201171875 232.499786376953125 177.2360076904296875 139.987213134765625 208.7702178955078125 452.7625732421875 387.19024658203125 648.10223388671875 1555.0062255859375 2328.3505859375 1948.0045166015625 1218.2611083984375 1048.0426025390625 1463.13720703125 1567.21337890625 1315.448486328125 545.3560791015625 575.40850830078125 1382.5711669921875 1441.666259765625 1259.0318603515625 1612.840087890625 2014.9073486328125 1596.680908203125 997.966796875 618.5465087890625 249.4694671630859375 207.2314605712890625 705.3201904296875 1501.0018310546875 1817.5933837890625 1631.250244140625 1153.4859619140625 793.65087890625 922.60137939453125 976.74237060546875 692.11920166015625 408.1822509765625 543.718505859375 808.027587890625 864.84600830078125 596.68084716796875 299.35595703125 214.459869384765625 173.9534759521484375 125.63657379150390625 112.0783233642578125 145.6516571044921875 106.35323333740234375 137.1139984130859375 129.13787841796875 250.1396636962890625 234.6477813720703125 172.7176513671875 155.0957794189453125 111.47032928466796875 97.1328582763671875 69.8423614501953125 83.0789337158203125 55.399242401123046875 42.73937225341796875 163.2346038818359375 412.2694091796875 1025.9688720703125 751.90167236328125 158.30810546875 66.4755401611328125 52.824001312255859375 82.07205963134765625 64.68963623046875 86.38040924072265625 482.44189453125 1072.396484375 1397.63671875 1954.6251220703125 1798.32275390625 965.72314453125 343.08551025390625 83.1009674072265625 248.11981201171875 283.4197998046875 405.566680908203125 1232.613037109375 2201.716796875 3189.529296875 4179.0322265625 5160.21142578125 6069.88037109375 6247.53125 5820.44775390625 5482.2275390625 5306.74853515625 5273.3759765625 5071.64208984375 4450.8515625 3759.857177734375 3223.4453125 2939.735107421875 nan 
nan 560.14886474609375 165.7427520751953125 303.97344970703125 344.5406494140625 232.225738525390625 360.681671142578125 268.7471923828125 262.373260498046875 241.34295654296875 281.689178466796875 191.8350067138671875 229.106842041015625 418.956390380859375 361.246856689453125 371.201141357421875 237.443145751953125 153.67938232421875 191.1928558349609375 166.8077850341796875 159.28021240234375 738.234130859375 1388.043212890625 861.34893798828125 347.506317138671875 188.7093963623046875 191.9962005615234375 192.8970184326171875 197.8599853515625 159.7161407470703125 160.516876220703125 214.2392425537109375 362.86651611328125 214.0980682373046875 96.352783203125 88.17917633056640625 157.0582427978515625 176.0133056640625 342.276641845703125 276.258453369140625 234.6636810302734375 221.8550567626953125 252.6046600341796875 252.870849609375 755.98822021484375 1613.3140869140625 2528.585693359375 3278.06201171875 2951.428955078125 1986.523193359375 1016.4744873046875 287.358978271484375 271.47674560546875 292.84368896484375 653.81878662109375 361.674896240234375 690.52838134765625 950.785888671875 412.730438232421875 166.4157867431640625 153.819793701171875 178.339508056640625 278.7064208984375 351.803558349609375 468.613067626953125 176.754425048828125 81.38995361328125 131.1667938232421875 164.405242919921875 218.4787750244140625 190.181671142578125 299.2315673828125 203.843170166015625 201.0932159423828125 154.103607177734375 148.5009765625 255.4983978271484375 520.5103759765625 1295.5489501953125 1841.264892578125 1562.33349609375 776.1141357421875 476.1204833984375 880.68499755859375 775.6395263671875 1134.7935791015625 972.6875 1032.53662109375 1702.8897705078125 2164.163818359375 2076.234619140625 2134.211669921875 2265.171142578125 2161.2724609375 1718.6455078125 1273.32080078125 575.95989990234375 132.9792022705078125 519.7645263671875 1303.395263671875 1899.9093017578125 1852.0941162109375 980.45452880859375 399.992218017578125 465.527313232421875 469.229400634765625 217.149932861328125 216.4137115478515625 306.81414794921875 234.582366943359375 262.08624267578125 323.129669189453125 170.78509521484375 278.005889892578125 264.670684814453125 89.3426513671875 286.267578125 208.0753326416015625 176.2927703857421875 127.37378692626953125 146.1425628662109375 408.660247802734375 308.350341796875 122.9897308349609375 189.0987701416015625 103.14600372314453125 92.8366851806640625 66.7011260986328125 79.0772705078125 74.5573272705078125 75.677764892578125 232.783966064453125 678.1728515625 663.15185546875 381.24835205078125 117.92368316650390625 117.1949005126953125 88.877960205078125 78.52646636962890625 60.07234954833984375 172.886627197265625 694.80181884765625 1548.455322265625 2019.206298828125 1875.1602783203125 1358.3267822265625 654.27154541015625 115.1808624267578125 66.94830322265625 305.409698486328125 288.46099853515625 607.98638916015625 1353.7296142578125 2215.66650390625 3109.397216796875 4012.70361328125 4926.17138671875 5854.5224609375 6623.46728515625 6621.96142578125 6344.36474609375 6191.82177734375 6142.69873046875 5764.5224609375 5081.58935546875 4480.6416015625 4040.477783203125 3817.70263671875 nan 
nan 599.89251708984375 312.076324462890625 379.40325927734375 326.049835205078125 368.409576416015625 341.2777099609375 381.2940673828125 368.957183837890625 309.386749267578125 221.8672943115234375 356.831756591796875 320.89849853515625 286.837066650390625 395.49169921875 153.7703704833984375 221.0686798095703125 266.225006103515625 266.454925537109375 394.689300537109375 169.79571533203125 666.44775390625 1501.2413330078125 1443.735595703125 936.81451416015625 361.435638427734375 163.528076171875 182.1641845703125 201.0295867919921875 109.64702606201171875 162.4201812744140625 123.3980712890625 186.8760833740234375 183.00958251953125 128.5456695556640625 179.47894287109375 164.42315673828125 267.61004638671875 432.31768798828125 252.0478668212890625 245.4900360107421875 216.5787811279296875 279.282318115234375 244.17913818359375 591.67669677734375 1313.8173828125 2148.369140625 2699.5458984375 2797.215087890625 2162.492919921875 1318.1888427734375 548.00323486328125 502.585540771484375 856.549072265625 1171.6707763671875 909.3603515625 958.70556640625 911.8450927734375 395.6136474609375 137.4623565673828125 106.8899383544921875 100.6945953369140625 232.3902435302734375 384.522186279296875 282.66021728515625 178.817413330078125 98.089599609375 123.4502105712890625 278.926422119140625 236.5204010009765625 198.754119873046875 203.298065185546875 293.999298095703125 299.076995849609375 104.529571533203125 146.4268646240234375 236.3837890625 299.735870361328125 776.36572265625 1081.7669677734375 947.21148681640625 805.33001708984375 819.2872314453125 658.753173828125 361.278411865234375 1033.077880859375 1643.889404296875 1832.3426513671875 2289.220458984375 2671.826904296875 2198.35546875 1657.549072265625 1568.5333251953125 1997.6956787109375 2288.396728515625 1706.7552490234375 778.03118896484375 239.52972412109375 277.729736328125 694.41876220703125 1432.6636962890625 1838.0364990234375 1154.525634765625 429.539276123046875 525.57489013671875 412.8243408203125 146.3476409912109375 239.4835205078125 457.65386962890625 317.042266845703125 480.762908935546875 135.7488250732421875 96.9811248779296875 505.374969482421875 515.9912109375 97.6716766357421875 225.626861572265625 408.6368408203125 275.309478759765625 89.13687896728515625 129.2888031005859375 160.623443603515625 182.25311279296875 119.59973907470703125 130.4232940673828125 95.11385345458984375 113.13860321044921875 108.6938629150390625 114.2843017578125 91.40473175048828125 99.3265380859375 146.4819488525390625 413.20721435546875 205.0054779052734375 117.7168426513671875 86.85694122314453125 83.5234375 118.1478271484375 101.7768096923828125 112.36028289794921875 560.3115234375 1230.92236328125 1904.9970703125 1950.2777099609375 1244.0111083984375 689.59149169921875 232.7118377685546875 62.218593597412109375 101.2307891845703125 328.41546630859375 150.7884063720703125 557.3370361328125 1144.751220703125 1883.2706298828125 2752.810546875 3681.232177734375 4638.8330078125 5609.2451171875 6480.36279296875 6908.4814453125 7032.00341796875 7048.79638671875 6953.49755859375 6409.56689453125 5774.79296875 5253.24609375 4883.0966796875 4700.3134765625 nan 
nan 243.8387298583984375 122.73038482666015625 287.921661376953125 383.21246337890625 241.0500335693359375 386.500885009765625 285.252838134765625 295.59869384765625 316.256378173828125 336.3253173828125 332.133148193359375 266.290985107421875 311.19525146484375 408.82550048828125 267.58404541015625 196.066009521484375 324.18096923828125 493.57763671875 303.07916259765625 210.78717041015625 822.76153564453125 1716.73486328125 1879.6353759765625 1062.9547119140625 295.31243896484375 157.819305419921875 154.905242919921875 129.1026153564453125 139.1165924072265625 153.2980804443359375 129.78533935546875 208.9720458984375 377.99786376953125 337.50616455078125 240.46929931640625 162.7138671875 221.2144622802734375 269.1439208984375 268.6402587890625 491.31646728515625 364.85919189453125 235.0316162109375 186.2127227783203125 442.524261474609375 1103.9937744140625 1540.10888671875 1931.6951904296875 2138.78564453125 1992.8206787109375 1626.1094970703125 1034.1953125 1020.45635986328125 1574.6746826171875 1814.023193359375 1525.6810302734375 1159.2847900390625 607.0872802734375 499.12103271484375 311.90008544921875 377.3948974609375 214.0787811279296875 177.94207763671875 216.3613433837890625 303.002655029296875 408.69659423828125 208.900970458984375 168.911346435546875 170.3331451416015625 108.4783782958984375 173.4173431396484375 268.07806396484375 280.162200927734375 266.41412353515625 173.427093505859375 155.708404541015625 150.416351318359375 212.4226531982421875 565.05682373046875 414.015472412109375 289.192840576171875 622.31072998046875 1076.8909912109375 706.12359619140625 676.5308837890625 1364.942138671875 2163.39208984375 2662.2373046875 2959.971435546875 2679.63134765625 1778.3055419921875 956.52740478515625 801.4202880859375 1490.704833984375 2131.592529296875 1854.4088134765625 942.72711181640625 281.84661865234375 190.09051513671875 379.07708740234375 1025.228759765625 1725.5435791015625 1584.6976318359375 987.65087890625 991.7471923828125 683.8421630859375 363.39111328125 213.747833251953125 250.770111083984375 559.71673583984375 641.3602294921875 167.4847412109375 138.0056915283203125 302.4468994140625 255.087310791015625 136.763885498046875 192.61279296875 369.9598388671875 246.1546478271484375 119.3274993896484375 212.385955810546875 261.758453369140625 108.82285308837890625 141.89239501953125 141.3643798828125 99.1004180908203125 98.795623779296875 94.7057037353515625 123.482269287109375 87.6103973388671875 205.2560272216796875 252.3318939208984375 134.623291015625 83.7376556396484375 148.2178192138671875 86.69605255126953125 72.26631927490234375 76.8230133056640625 89.88800048828125 171.055999755859375 728.59454345703125 1533.83935546875 1765.0234375 1456.2568359375 758.3984375 208.2783050537109375 114.33463287353515625 53.22954559326171875 87.51488494873046875 99.8748931884765625 63.445903778076171875 157.8318634033203125 631.09088134765625 1541.328369140625 2517.681640625 3507.398193359375 4499.60400390625 5376.61669921875 5860.7529296875 6231.03955078125 6711.2138671875 7240.07373046875 7516.9248046875 7082.81103515625 6515.66845703125 6058.18310546875 5740.09814453125 5585.37451171875 nan 
nan 230.5872955322265625 113.8166351318359375 233.6794586181640625 330.6802978515625 345.478607177734375 379.04437255859375 215.6844329833984375 194.6071624755859375 169.489959716796875 431.260284423828125 226.1421661376953125 386.46282958984375 443.188568115234375 291.24078369140625 252.2654266357421875 261.70758056640625 248.698150634765625 757.361572265625 756.68096923828125 645.8841552734375 1103.2601318359375 1951.343017578125 2001.8746337890625 1130.72021484375 435.410369873046875 192.81927490234375 147.53118896484375 206.6644134521484375 172.662384033203125 183.9947967529296875 125.87769317626953125 374.99505615234375 779.40191650390625 464.5052490234375 254.84881591796875 260.42071533203125 213.1882171630859375 304.490936279296875 522.86041259765625 731.90704345703125 504.583831787109375 279.395050048828125 240.5906524658203125 622.89959716796875 858.4852294921875 747.87841796875 1254.42822265625 1340.272216796875 1188.0001220703125 1376.7998046875 1574.038818359375 1732.5198974609375 2000.6243896484375 1632.1612548828125 1106.4095458984375 894.26361083984375 645.99957275390625 808.45892333984375 835.86590576171875 1024.700439453125 711.69610595703125 299.963775634765625 287.83843994140625 388.27960205078125 404.1597900390625 182.47003173828125 128.1487884521484375 126.4775390625 138.1385040283203125 168.8604736328125 256.623809814453125 154.8470001220703125 108.14315032958984375 248.4548492431640625 172.198944091796875 324.186798095703125 183.6535491943359375 262.0054931640625 269.039276123046875 170.8455047607421875 389.44024658203125 587.619873046875 1019.1083984375 1339.740234375 1934.9532470703125 2684.499267578125 3385.53076171875 3470.245849609375 2666.791259765625 1691.9791259765625 799.11358642578125 590.49359130859375 1028.85986328125 1532.0555419921875 1828.5318603515625 1104.2686767578125 391.284271240234375 335.127410888671875 187.3090667724609375 639.914306640625 1546.2864990234375 2061.8984375 1794.9136962890625 1504.2486572265625 785.289306640625 638.94866943359375 690.4951171875 327.4129638671875 600.74114990234375 517.0291748046875 172.7418670654296875 207.8830718994140625 149.3526763916015625 201.088165283203125 140.1554718017578125 125.52225494384765625 265.29266357421875 358.65045166015625 158.489227294921875 202.9122467041015625 299.290130615234375 165.286041259765625 166.992584228515625 93.7110137939453125 107.5785064697265625 99.635101318359375 82.58104705810546875 132.6540374755859375 137.64794921875 118.26091766357421875 107.47776031494140625 128.93994140625 93.16767120361328125 128.9453887939453125 89.38507843017578125 66.35455322265625 69.80094146728515625 84.13074493408203125 77.48779296875 490.3016357421875 1084.9210205078125 1058.1771240234375 725.08154296875 357.10491943359375 108.70282745361328125 92.84648895263671875 75.199798583984375 113.63213348388671875 57.845958709716796875 84.69075775146484375 209.50433349609375 693.6123046875 1562.760009765625 2512.9677734375 3478.9091796875 4358.466796875 4773.75146484375 5030.5810546875 5439.994140625 5989.4111328125 6644.767578125 7345.80126953125 7640.39208984375 7287.953125 6884.12744140625 6605.8857421875 6471.86328125 nan 
nan 317.248626708984375 94.6032257080078125 163.780426025390625 201.934844970703125 239.878082275390625 260.762542724609375 264.64202880859375 325.508575439453125 298.285308837890625 522.34234619140625 274.864837646484375 287.79913330078125 152.420623779296875 359.694976806640625 362.57110595703125 564.19573974609375 686.51629638671875 1284.205810546875 1541.970458984375 1477.3558349609375 1733.2373046875 2345.658935546875 2241.05126953125 1352.7547607421875 496.42462158203125 233.1519012451171875 162.5245819091796875 193.0660858154296875 135.49249267578125 210.48675537109375 201.450775146484375 316.84075927734375 436.699951171875 292.727874755859375 409.77374267578125 396.21844482421875 186.440093994140625 193.62957763671875 222.36956787109375 370.292266845703125 218.7309417724609375 266.948455810546875 294.05810546875 381.53338623046875 569.13128662109375 334.9117431640625 722.288818359375 629.5159912109375 427.88092041015625 717.076171875 1188.9696044921875 1547.1221923828125 1708.340087890625 1148.1112060546875 435.934814453125 433.84820556640625 680.4122314453125 1218.304443359375 1609.5277099609375 1751.6485595703125 1214.988037109375 711.1806640625 658.3131103515625 457.5592041015625 305.831878662109375 224.8491058349609375 222.542938232421875 228.330474853515625 218.1107635498046875 208.56121826171875 349.3494873046875 227.73681640625 113.3731231689453125 160.153533935546875 187.9310150146484375 170.359405517578125 187.3794708251953125 210.219940185546875 234.1539459228515625 169.848846435546875 152.3292999267578125 370.05572509765625 928.50164794921875 1488.8536376953125 2173.8369140625 3015.9111328125 3728.912841796875 3555.29541015625 2843.0673828125 2033.888916015625 1356.486083984375 829.60980224609375 476.142242431640625 1086.626953125 1867.0455322265625 1575.84716796875 960.64013671875 730.9769287109375 626.83740234375 980.04608154296875 1744.802978515625 2535.021240234375 2590.2919921875 2029.183349609375 1425.916748046875 1350.6912841796875 1252.81298828125 613.302490234375 380.8017578125 635.57818603515625 595.093505859375 381.176483154296875 324.403228759765625 381.52685546875 399.978759765625 218.9257049560546875 118.03275299072265625 328.773681640625 251.503326416015625 129.124603271484375 135.3963470458984375 121.72586822509765625 182.3984832763671875 124.5669708251953125 101.4104766845703125 98.33547210693359375 195.634307861328125 176.6035614013671875 190.827789306640625 108.1549224853515625 116.54315185546875 181.2291717529296875 125.0325164794921875 89.88227081298828125 106.4900970458984375 101.54740142822265625 92.61348724365234375 77.84694671630859375 124.27387237548828125 495.541534423828125 514.89044189453125 486.315216064453125 204.769683837890625 227.513153076171875 80.97246551513671875 126.2071685791015625 189.96160888671875 149.113250732421875 57.653934478759765625 140.071990966796875 521.04168701171875 866.00701904296875 1515.10546875 2358.498779296875 3246.717529296875 3779.58984375 3917.721435546875 4202.94140625 4684.60205078125 5312.65087890625 6038.0048828125 6808.52294921875 7554.66064453125 7772.75634765625 7601.36328125 7444.12939453125 7355.3349609375 nan 
nan 372.58660888671875 117.1942596435546875 210.054290771484375 273.742095947265625 252.00714111328125 317.4400634765625 333.227142333984375 243.01959228515625 296.696502685546875 425.988433837890625 320.183013916015625 192.9036102294921875 189.4788818359375 677.37005615234375 901.55328369140625 1216.1578369140625 1377.905029296875 1404.57861328125 1456.5101318359375 1857.75537109375 2395.966796875 2787.68408203125 2210.9208984375 1234.2667236328125 368.973236083984375 254.7821807861328125 141.0265350341796875 257.00762939453125 250.657684326171875 162.1812286376953125 186.6393280029296875 288.431793212890625 408.0511474609375 272.267333984375 175.4085235595703125 206.8122711181640625 225.2830963134765625 262.23541259765625 265.183929443359375 297.190673828125 158.9730072021484375 295.300048828125 190.889739990234375 215.6509857177734375 659.23779296875 574.80438232421875 274.49249267578125 290.32513427734375 186.2995147705078125 308.97088623046875 605.85064697265625 735.1973876953125 1188.43994140625 1167.3548583984375 621.0733642578125 373.453094482421875 360.4736328125 1138.922607421875 1951.2027587890625 2218.564208984375 1471.094970703125 703.79473876953125 718.1131591796875 808.2342529296875 456.85467529296875 725.685302734375 602.79327392578125 400.5579833984375 241.1124420166015625 114.93058013916015625 198.0445404052734375 186.8638916015625 181.1824188232421875 184.0843353271484375 157.2670135498046875 132.683074951171875 201.2763519287109375 230.0949249267578125 253.1947021484375 272.556060791015625 198.6936798095703125 573.1199951171875 574.05517578125 984.96539306640625 1895.24072265625 2863.562744140625 3374.521484375 2933.56494140625 2555.699462890625 2332.09765625 1919.4046630859375 1170.408203125 777.298583984375 1255.9630126953125 2083.96484375 2171.280517578125 1762.084228515625 1537.1307373046875 1480.25830078125 1717.80517578125 2282.131591796875 3026.204345703125 3259.976806640625 2677.97998046875 2244.186279296875 2164.158935546875 1848.6444091796875 1138.20849609375 458.5830078125 310.443939208984375 685.68646240234375 494.613555908203125 313.10723876953125 326.314544677734375 290.962158203125 262.43988037109375 121.14997100830078125 146.6246795654296875 188.59906005859375 163.35797119140625 105.68941497802734375 135.31231689453125 144.6953277587890625 78.6125030517578125 70.6206207275390625 166.21051025390625 384.391357421875 275.296875 95.27948760986328125 109.39951324462890625 140.7245635986328125 148.5305023193359375 175.0641632080078125 96.075286865234375 94.20471954345703125 90.5599365234375 141.5692596435546875 130.7736968994140625 382.51165771484375 846.1181640625 636.5126953125 279.380157470703125 90.255401611328125 391.0711669921875 198.4954986572265625 201.0075531005859375 484.436492919921875 197.14788818359375 51.205455780029296875 37.571201324462890625 147.86181640625 350.37139892578125 1115.906494140625 2062.599609375 2803.5830078125 2939.61474609375 3050.0439453125 3406.4384765625 3985.0869140625 4701.01171875 5473.41162109375 6282.5302734375 6990.2216796875 7176.87646484375 7294.0537109375 7506.74560546875 7764.1845703125 nan 
nan 481.48297119140625 235.6390228271484375 382.754608154296875 371.707672119140625 473.06390380859375 425.419281005859375 316.62066650390625 351.3243408203125 209.723907470703125 328.704803466796875 251.2224578857421875 166.8980560302734375 381.496063232421875 900.282958984375 1139.3492431640625 1277.442138671875 1386.5867919921875 839.18719482421875 743.9686279296875 1499.5491943359375 2432.344970703125 2791.288818359375 2012.497314453125 1071.2432861328125 297.15618896484375 394.197601318359375 205.37322998046875 344.892486572265625 532.50567626953125 213.8814849853515625 133.5840301513671875 191.8908233642578125 595.0848388671875 626.90960693359375 260.259246826171875 325.2857666015625 358.9541015625 229.9301910400390625 253.8483428955078125 264.32586669921875 251.70233154296875 350.01336669921875 232.6098175048828125 232.9239501953125 606.7393798828125 371.244781494140625 134.6319427490234375 329.435516357421875 276.7774658203125 231.5069122314453125 241.755218505859375 291.20330810546875 979.96112060546875 1575.1080322265625 1291.7056884765625 587.96441650390625 315.351318359375 802.6419677734375 1652.3453369140625 2192.068115234375 1483.0291748046875 667.289306640625 725.9556884765625 823.4027099609375 653.39556884765625 1205.259521484375 1182.856201171875 894.763671875 416.511260986328125 125.96479034423828125 150.9534454345703125 120.2120819091796875 147.601165771484375 240.881927490234375 150.60394287109375 108.5333404541015625 148.1607666015625 146.75421142578125 342.119354248046875 304.356781005859375 163.5260467529296875 315.674072265625 380.735809326171875 868.79254150390625 1805.367919921875 2755.912353515625 2904.545166015625 2216.382080078125 1737.7784423828125 1757.8306884765625 2052.757568359375 1835.3656005859375 1605.4407958984375 1887.367431640625 2545.712158203125 2868.460205078125 2613.321533203125 2396.66796875 2360.224365234375 2539.761474609375 2972.4404296875 3604.8447265625 3888.626220703125 3429.826171875 3102.23974609375 2973.275390625 2422.435791015625 1571.7933349609375 780.4923095703125 372.86614990234375 364.3966064453125 236.09954833984375 185.6667022705078125 211.5724334716796875 214.4583282470703125 187.555877685546875 287.77276611328125 265.28997802734375 196.0422515869140625 268.45703125 127.3472137451171875 96.20359039306640625 123.044677734375 95.122711181640625 125.576629638671875 208.140167236328125 388.93829345703125 121.1651763916015625 98.25970458984375 133.4739227294921875 106.84880828857421875 97.6371917724609375 106.14734649658203125 96.60639190673828125 73.6539459228515625 72.0546722412109375 131.39483642578125 398.943572998046875 938.93707275390625 1096.4124755859375 554.6473388671875 122.50276947021484375 56.621551513671875 137.1570281982421875 146.0205078125 149.6110687255859375 356.363189697265625 88.38851165771484375 52.343963623046875 54.210540771484375 68.2676239013671875 311.361724853515625 1090.1866455078125 1876.6649169921875 2136.779296875 2054.394775390625 2199.59716796875 2669.0166015625 3365.101806640625 4140.36474609375 4964.6640625 5818.54052734375 6264.04443359375 6291.2294921875 6431.93994140625 6720.00537109375 7125.853515625 nan 
nan 430.695159912109375 284.561126708984375 349.28302001953125 373.477142333984375 348.2274169921875 270.371917724609375 550.36260986328125 445.106781005859375 253.4736175537109375 411.25311279296875 221.9884185791015625 435.774505615234375 517.32666015625 673.73138427734375 551.4044189453125 650.3072509765625 708.648193359375 612.52178955078125 680.55609130859375 1468.3038330078125 2396.7099609375 2516.696044921875 1658.468017578125 769.76678466796875 256.17681884765625 367.576324462890625 230.7500457763671875 179.567596435546875 237.3484039306640625 210.50616455078125 206.6390228271484375 158.4626312255859375 401.9608154296875 711.65325927734375 253.01263427734375 241.9783782958984375 178.717742919921875 209.59381103515625 317.038970947265625 182.6611785888671875 343.3682861328125 335.717864990234375 246.4613800048828125 201.3940582275390625 364.552764892578125 290.3011474609375 289.624481201171875 486.17901611328125 465.0628662109375 211.7895660400390625 370.895721435546875 267.93157958984375 887.16107177734375 1745.0113525390625 1625.0263671875 740.95458984375 245.2480010986328125 671.5948486328125 1599.826904296875 2165.35302734375 1794.4560546875 1332.0255126953125 1258.11376953125 746.7020263671875 527.803955078125 1334.5421142578125 1800.5836181640625 1379.7171630859375 701.9447021484375 344.93585205078125 235.9320526123046875 149.123138427734375 160.9202423095703125 392.479339599609375 275.276031494140625 80.1456451416015625 31.41534423828125 101.69722747802734375 252.43585205078125 122.363525390625 201.5036773681640625 175.7376251220703125 196.7584228515625 755.09552001953125 1730.4022216796875 2633.686279296875 2475.39990234375 1635.2452392578125 954.5155029296875 998.6810302734375 1737.7786865234375 2382.961181640625 2472.828125 2669.629638671875 3177.665771484375 3613.0283203125 3475.3701171875 3267.590576171875 3244.1845703125 3392.805419921875 3735.78759765625 4274.1015625 4586.94775390625 4235.3984375 3968.377685546875 3643.921875 2864.498779296875 2069.161865234375 1363.14794921875 620.09967041015625 206.5479278564453125 108.35631561279296875 136.432647705078125 212.570892333984375 236.018585205078125 254.84710693359375 298.267333984375 141.8695831298828125 182.70587158203125 551.39959716796875 392.0152587890625 113.68111419677734375 77.27689361572265625 145.72613525390625 239.1296539306640625 189.9234161376953125 160.810882568359375 64.13782501220703125 185.5660858154296875 104.28974151611328125 110.73130035400390625 111.59354400634765625 114.60843658447265625 110.60541534423828125 95.56891632080078125 68.99570465087890625 112.058197021484375 592.0706787109375 1274.475830078125 842.73101806640625 174.97857666015625 57.38692474365234375 53.687717437744140625 155.676605224609375 355.34814453125 315.55950927734375 264.23992919921875 78.31256866455078125 53.28176116943359375 74.57939910888671875 77.22328948974609375 305.18572998046875 894.47540283203125 1261.73486328125 1317.9490966796875 1172.468017578125 1397.000244140625 2032.53857421875 2812.427978515625 3661.2421875 4568.31103515625 5337.3857421875 5421.228515625 5405.1298828125 5568.2373046875 5898.57666015625 6357.11181640625 nan 
nan 274.580291748046875 424.333160400390625 494.612945556640625 375.1806640625 665.68511962890625 534.65301513671875 411.019134521484375 180.2972564697265625 392.297607421875 472.4609375 248.33734130859375 442.404327392578125 604.86273193359375 533.86883544921875 245.930816650390625 351.59759521484375 241.893524169921875 720.2001953125 1319.2147216796875 1907.157958984375 2598.4931640625 2307.77392578125 1364.7725830078125 472.588165283203125 289.740203857421875 235.0237579345703125 269.167236328125 144.2226104736328125 229.2326202392578125 402.90496826171875 326.610870361328125 195.4775390625 387.244293212890625 732.49163818359375 243.0247650146484375 331.2738037109375 335.800262451171875 231.4546661376953125 219.8071136474609375 166.2111968994140625 319.91229248046875 311.596710205078125 187.4594573974609375 239.3693084716796875 427.080780029296875 300.484222412109375 199.0249481201171875 324.8682861328125 307.089019775390625 352.2891845703125 490.488189697265625 477.041351318359375 990.45111083984375 1833.509521484375 1903.2791748046875 1224.2977294921875 821.8299560546875 1077.04931640625 1717.86279296875 1630.19677734375 1502.273681640625 1773.1015625 1828.380615234375 1259.9404296875 1110.87744140625 1675.3759765625 2019.65478515625 1239.3380126953125 464.6033935546875 253.530792236328125 243.4950408935546875 307.646209716796875 180.8990936279296875 235.3572540283203125 403.480712890625 190.406005859375 44.7107086181640625 69.76306915283203125 133.7626190185546875 129.7306365966796875 213.128875732421875 213.219329833984375 203.622222900390625 789.6226806640625 1704.5247802734375 2416.593017578125 2206.079345703125 1275.2945556640625 479.39337158203125 674.02166748046875 1583.57275390625 2549.322509765625 3226.357666015625 3502.101806640625 3905.603271484375 4373.53369140625 4339.32568359375 4144.76416015625 4129.845703125 4258.9482421875 4542.923828125 4987.8916015625 5301.02978515625 5053.99365234375 4766.14794921875 4163.9931640625 3329.441162109375 2452.990478515625 1515.9349365234375 582.450927734375 194.299041748046875 187.614959716796875 137.0443267822265625 126.16280364990234375 133.9323577880859375 116.3721771240234375 109.82781219482421875 108.29566192626953125 114.6681060791015625 318.62982177734375 349.4295654296875 135.4600982666015625 71.61432647705078125 194.183868408203125 374.060150146484375 195.6343536376953125 103.43396759033203125 78.94007110595703125 191.1192779541015625 97.7617950439453125 130.1370391845703125 126.39113616943359375 100.45569610595703125 170.4460296630859375 81.61759185791015625 90.819915771484375 105.709869384765625 480.39093017578125 1012.46551513671875 631.9986572265625 92.5381317138671875 65.08339691162109375 66.88809967041015625 281.33087158203125 827.5767822265625 674.16815185546875 206.98760986328125 62.054889678955078125 52.299640655517578125 63.743968963623046875 67.57288360595703125 127.99062347412109375 350.73956298828125 533.16180419921875 554.1507568359375 391.915435791015625 734.6611328125 1503.6522216796875 2397.160400390625 3348.78369140625 4298.5009765625 4712.69921875 4542.59765625 4520.68701171875 4714.41748046875 5100.265625 5624.31884765625 nan 
nan 312.073944091796875 216.527923583984375 449.482513427734375 224.7337188720703125 580.83026123046875 330.6015625 244.75555419921875 206.12530517578125 306.586700439453125 242.27972412109375 273.310455322265625 407.641510009765625 364.25 294.765533447265625 256.278961181640625 200.717742919921875 370.390625 1052.6741943359375 1896.6998291015625 2541.70849609375 2679.55908203125 2048.904296875 1178.15283203125 343.940948486328125 490.667724609375 453.834197998046875 253.26031494140625 185.92755126953125 157.9802093505859375 419.525238037109375 388.03240966796875 221.1725006103515625 522.21142578125 762.33917236328125 200.842742919921875 313.314361572265625 387.67510986328125 224.5261077880859375 137.563262939453125 186.270904541015625 355.1575927734375 268.500762939453125 157.1692352294921875 256.811126708984375 295.082977294921875 227.02911376953125 331.7286376953125 272.9071044921875 300.936370849609375 444.35089111328125 305.977325439453125 726.71270751953125 1523.9232177734375 2260.06982421875 2454.786376953125 1977.68115234375 1658.55712890625 1766.01708984375 1694.4029541015625 957.650390625 740.9263916015625 1343.6103515625 1986.826171875 2009.3499755859375 1943.1112060546875 2292.873046875 2202.152099609375 1287.0335693359375 456.787322998046875 187.13031005859375 156.0531768798828125 288.989349365234375 239.4518890380859375 276.12945556640625 239.239105224609375 116.0234375 107.6373748779296875 184.3371124267578125 234.3946533203125 121.461761474609375 178.9705047607421875 172.9873504638671875 231.518341064453125 733.58514404296875 1239.5889892578125 1810.9395751953125 2060.73583984375 1405.4259033203125 813.43438720703125 1073.6021728515625 1812.1988525390625 2637.65673828125 3457.19580078125 4017.493896484375 4506.52197265625 5031.412109375 5089.35009765625 4959.61279296875 4968.4560546875 5014.07568359375 5072.59326171875 5148.15234375 5270.74755859375 5221.27001953125 4882.59423828125 4392.599609375 3559.47265625 2605.201171875 1682.9815673828125 879.73455810546875 312.93133544921875 143.9727783203125 123.8907012939453125 165.0125274658203125 128.0042266845703125 170.786590576171875 227.060760498046875 168.3845062255859375 114.394866943359375 211.36468505859375 290.09356689453125 261.89599609375 243.789154052734375 332.948211669921875 637.4454345703125 262.853271484375 85.17310333251953125 106.875732421875 144.6513824462890625 65.70314788818359375 137.35528564453125 136.000152587890625 92.3963775634765625 106.70417022705078125 78.8103485107421875 65.8737640380859375 93.7841949462890625 248.362579345703125 672.37335205078125 455.24237060546875 118.64251708984375 79.25983428955078125 116.9598541259765625 411.611236572265625 1077.701904296875 998.74658203125 301.4393310546875 80.329681396484375 60.4350128173828125 60.023815155029296875 97.58484649658203125 240.370086669921875 322.32904052734375 334.2015380859375 439.236602783203125 347.292510986328125 507.512939453125 1294.5115966796875 2266.98193359375 3256.726318359375 4055.55224609375 3949.3515625 3666.239990234375 3639.079833984375 3876.953369140625 4337.7890625 4943.44921875 nan 
nan 305.101776123046875 397.758636474609375 589.89300537109375 338.720489501953125 535.70416259765625 379.060211181640625 318.108795166015625 279.83746337890625 334.24322509765625 294.5313720703125 263.57061767578125 342.374053955078125 233.38427734375 214.9628448486328125 404.891632080078125 501.121551513671875 437.99871826171875 1176.6072998046875 2130.813720703125 2829.387939453125 2348.001708984375 1523.44482421875 823.55316162109375 309.2991943359375 596.67193603515625 625.00836181640625 176.2857513427734375 162.4965362548828125 329.64080810546875 365.21795654296875 239.20391845703125 266.607391357421875 687.82000732421875 898.995849609375 334.108306884765625 209.158050537109375 344.150970458984375 227.4741058349609375 214.72314453125 360.79754638671875 268.0762939453125 199.2211456298828125 146.326324462890625 293.144561767578125 396.237823486328125 179.1864776611328125 281.237060546875 275.138458251953125 317.769439697265625 207.4140167236328125 362.92156982421875 1081.75732421875 1936.369140625 2780.95556640625 3127.718017578125 2784.14990234375 2524.198486328125 2373.1083984375 1640.3924560546875 686.218017578125 285.962493896484375 895.19464111328125 1827.7794189453125 2583.555908203125 2721.807373046875 2742.260498046875 2383.398193359375 1580.237548828125 927.51171875 444.203460693359375 320.503082275390625 416.677825927734375 575.42425537109375 620.04595947265625 239.22283935546875 93.19326019287109375 203.1277618408203125 198.66888427734375 354.941986083984375 305.21148681640625 257.86529541015625 235.24090576171875 184.079803466796875 317.640625 561.45391845703125 1150.6734619140625 1616.1148681640625 1373.668212890625 1179.8929443359375 1160.01171875 1574.5078125 2244.43212890625 2927.36962890625 3515.7158203125 4205.330078125 4782.79052734375 4790.736328125 4824.28173828125 4926.072265625 4740.41943359375 4494.76953125 4360.880859375 4440.74755859375 4478.11767578125 4121.7666015625 3853.925048828125 3441.39697265625 2657.494384765625 1827.2147216796875 1101.0992431640625 614.72869873046875 376.761260986328125 349.0650634765625 314.728515625 177.3498992919921875 167.0630645751953125 431.688262939453125 420.274261474609375 186.8618927001953125 554.97064208984375 584.48516845703125 354.196441650390625 168.8704833984375 166.5603485107421875 395.606536865234375 296.5341796875 115.06131744384765625 96.98247528076171875 75.2967376708984375 85.67882537841796875 89.7324981689453125 92.3668365478515625 205.5453033447265625 126.38702392578125 102.0222320556640625 106.41229248046875 101.48987579345703125 287.302764892578125 606.88232421875 340.85107421875 170.0939788818359375 240.12103271484375 238.7457427978515625 338.980865478515625 1095.9384765625 985.45184326171875 210.7111053466796875 88.25077056884765625 61.011138916015625 60.98395538330078125 177.382354736328125 291.00811767578125 655.900390625 984.36578369140625 1016.99920654296875 880.60772705078125 1029.35009765625 1619.7353515625 2470.67578125 3337.805908203125 3653.935791015625 3164.9951171875 2798.65380859375 2763.045654296875 3069.180908203125 3633.711669921875 4339.01025390625 nan 
nan 215.5830535888671875 185.498077392578125 295.360748291015625 259.837127685546875 382.2412109375 274.761077880859375 286.99603271484375 297.3338623046875 215.04473876953125 312.1396484375 244.9126739501953125 250.9466094970703125 369.463531494140625 514.96893310546875 793.16351318359375 1122.7200927734375 1074.5557861328125 1587.7364501953125 2378.170654296875 2685.174560546875 1974.5589599609375 1073.2691650390625 343.428558349609375 234.1441802978515625 323.199859619140625 331.6156005859375 321.03472900390625 204.1875762939453125 168.584381103515625 201.953094482421875 388.950714111328125 361.107208251953125 535.38543701171875 1006.73028564453125 743.64373779296875 272.39154052734375 216.6653900146484375 155.7926177978515625 225.5846405029296875 239.8209381103515625 327.405853271484375 182.92791748046875 233.84967041015625 388.921600341796875 314.036376953125 168.738616943359375 286.35986328125 197.38323974609375 198.71331787109375 204.5283050537109375 613.13922119140625 1440.49365234375 2159.851806640625 2740.92919921875 3294.280517578125 3428.337890625 3216.16796875 2580.464111328125 1660.2708740234375 849.7122802734375 589.2767333984375 1069.6168212890625 1930.63818359375 2739.546142578125 2627.431396484375 2196.47412109375 2092.479736328125 2017.6986083984375 1565.767578125 984.41571044921875 709.2000732421875 342.465057373046875 886.90399169921875 1030.9715576171875 495.43621826171875 178.0686492919921875 242.7145233154296875 343.985687255859375 301.448944091796875 517.849853515625 364.832366943359375 358.776580810546875 259.49676513671875 270.736602783203125 202.873260498046875 769.3138427734375 1024.2498779296875 627.92694091796875 573.6314697265625 453.207366943359375 926.525634765625 1642.0745849609375 2216.662841796875 2876.15625 3671.314453125 4046.095458984375 3912.773193359375 3968.791259765625 4099.97314453125 3896.53271484375 3629.089111328125 3476.040283203125 3576.999755859375 3692.365234375 3303.96923828125 2999.59326171875 2836.488525390625 2203.59228515625 1415.610107421875 664.76226806640625 334.533477783203125 393.139923095703125 528.64117431640625 272.025238037109375 178.931732177734375 152.38507080078125 520.6171875 450.515472412109375 359.064727783203125 868.24774169921875 614.7435302734375 262.17803955078125 229.5216064453125 229.476226806640625 213.275390625 177.6503143310546875 92.60066986083984375 83.718109130859375 88.88327789306640625 77.657318115234375 115.2486572265625 142.257568359375 174.82220458984375 93.9012298583984375 116.970672607421875 88.0914764404296875 90.91645050048828125 232.604522705078125 447.227447509765625 370.907806396484375 299.845001220703125 218.1756439208984375 105.07944488525390625 287.50738525390625 1077.374755859375 1006.94439697265625 270.80450439453125 73.3375396728515625 132.5202178955078125 343.613006591796875 499.39556884765625 648.9644775390625 1093.1629638671875 1463.65576171875 910.34051513671875 547.00238037109375 1064.9830322265625 1908.2708740234375 2661.475341796875 2987.4765625 3012.960205078125 2447.058349609375 1951.5753173828125 1900.4395751953125 2322.064697265625 3029.006591796875 3847.234619140625 nan 
nan 195.136962890625 201.8296661376953125 292.762664794921875 280.16259765625 270.72259521484375 196.07855224609375 248.0625 294.990325927734375 182.1197052001953125 184.735443115234375 277.79193115234375 337.234344482421875 382.1751708984375 295.3675537109375 712.73638916015625 1404.0472412109375 1840.0802001953125 2252.00341796875 2592.794921875 2222.230712890625 1507.924560546875 773.5814208984375 266.91412353515625 229.552032470703125 277.779937744140625 210.24188232421875 472.632415771484375 432.961700439453125 247.1534423828125 308.123382568359375 370.03485107421875 541.333251953125 282.173736572265625 866.751708984375 1087.73583984375 433.10101318359375 159.31494140625 214.1952362060546875 273.29742431640625 172.4795684814453125 181.50115966796875 175.3276214599609375 259.32293701171875 310.50140380859375 213.6267242431640625 328.034210205078125 296.19293212890625 252.2122344970703125 249.0092315673828125 319.909515380859375 628.9281005859375 1109.88427734375 1598.3543701171875 2074.041748046875 2750.336669921875 3022.84228515625 3041.757080078125 2451.966552734375 1485.1463623046875 613.5159912109375 563.160400390625 1371.732177734375 2249.235595703125 2557.477783203125 2011.0657958984375 1389.8914794921875 1303.947509765625 1818.8087158203125 2084.984375 1735.372802734375 1161.935791015625 781.14117431640625 1150.263916015625 900.48529052734375 271.54266357421875 277.315216064453125 428.432861328125 296.35186767578125 129.9662322998046875 221.517303466796875 214.799591064453125 227.966064453125 357.572479248046875 221.1354827880859375 250.4370269775390625 555.04180908203125 484.1129150390625 187.077972412109375 214.079559326171875 170.82232666015625 428.515045166015625 974.02081298828125 1560.7637939453125 2400.63916015625 3229.0498046875 3264.48974609375 3031.4912109375 3103.151123046875 3257.2041015625 3046.799072265625 2767.239990234375 2594.314208984375 2728.35302734375 2949.43896484375 2526.579345703125 2137.135009765625 2103.028076171875 1815.4017333984375 948.76422119140625 406.667694091796875 307.589111328125 323.878753662109375 815.7110595703125 676.5531005859375 192.6897430419921875 176.9278411865234375 271.81536865234375 357.69403076171875 350.03167724609375 499.02294921875 724.1138916015625 371.842437744140625 600.27081298828125 791.2921142578125 550.99517822265625 158.8712921142578125 77.74611663818359375 80.5648345947265625 122.74370574951171875 121.87145233154296875 246.2349700927734375 171.9462890625 129.83428955078125 103.51930999755859375 93.0105438232421875 73.5939483642578125 114.5593719482421875 149.193115234375 165.128082275390625 182.9323883056640625 347.9185791015625 246.00653076171875 146.041015625 501.706878662109375 1260.4102783203125 1075.3653564453125 399.91937255859375 81.0074920654296875 230.09967041015625 418.20184326171875 216.21051025390625 344.486480712890625 738.98712158203125 1303.933349609375 962.1866455078125 517.80279541015625 1008.83978271484375 1813.77685546875 2103.299560546875 2143.579833984375 2301.46826171875 1871.4405517578125 1170.1290283203125 1084.8212890625 1716.36669921875 2594.327880859375 3515.797119140625 nan 
nan 298.861114501953125 307.678924560546875 342.0511474609375 240.54498291015625 363.700164794921875 291.520172119140625 261.873291015625 465.81842041015625 321.9700927734375 175.6820068359375 203.433746337890625 278.754119873046875 161.4803619384765625 135.72918701171875 451.222747802734375 1232.4814453125 2159.416015625 2676.3544921875 2265.015869140625 1573.447265625 912.16082763671875 366.53509521484375 300.704315185546875 158.8616943359375 243.9965057373046875 322.967620849609375 518.90631103515625 323.3623046875 395.03375244140625 272.508575439453125 268.608489990234375 213.72650146484375 230.2646331787109375 838.84271240234375 1083.4234619140625 404.95611572265625 165.679718017578125 175.08734130859375 177.8098907470703125 172.8352813720703125 241.8603668212890625 178.1066131591796875 362.9888916015625 310.031402587890625 200.822723388671875 263.966705322265625 482.936737060546875 393.907989501953125 207.386444091796875 368.027252197265625 323.81707763671875 527.0908203125 839.32843017578125 1512.395751953125 2159.163818359375 2158.37548828125 2336.61279296875 2345.18994140625 1676.6661376953125 964.5826416015625 925.457275390625 1610.29248046875 2307.98388671875 1999.6790771484375 1402.111328125 750.66363525390625 604.24639892578125 1339.31787109375 2110.05712890625 2266.227783203125 1720.9539794921875 1334.0487060546875 984.3427734375 496.40301513671875 367.514556884765625 814.55792236328125 968.918212890625 615.4947509765625 229.5266265869140625 168.3852386474609375 120.824066162109375 259.9266357421875 600.3546142578125 292.269012451171875 184.4193267822265625 298.792755126953125 208.386077880859375 309.99517822265625 465.933837890625 262.554931640625 231.816253662109375 490.227294921875 1229.6573486328125 2199.037109375 2848.527099609375 2485.833740234375 2157.7021484375 2256.524658203125 2445.495849609375 2199.0576171875 1912.54541015625 1718.3568115234375 1905.361572265625 2208.48974609375 1829.16845703125 1301.0028076171875 1304.9447021484375 1463.4451904296875 819.183837890625 168.1797332763671875 85.31207275390625 185.15289306640625 755.717041015625 962.240234375 312.842132568359375 101.0793609619140625 97.595916748046875 135.2899322509765625 159.1766815185546875 231.2650604248046875 774.91485595703125 882.0047607421875 1107.507080078125 1378.412109375 1096.8905029296875 527.30096435546875 319.947357177734375 353.851043701171875 391.36724853515625 206.13385009765625 88.67417144775390625 89.44536590576171875 91.2478790283203125 69.59062957763671875 79.22955322265625 120.9253387451171875 100.87918853759765625 175.2164306640625 196.25323486328125 150.7743988037109375 280.608306884765625 195.0804901123046875 190.188568115234375 813.3665771484375 1166.0758056640625 714.59716796875 159.0776519775390625 138.05413818359375 237.478912353515625 162.534027099609375 64.08689117431640625 48.074375152587890625 339.73614501953125 1199.5985107421875 1515.7601318359375 1218.218994140625 1290.45263671875 1402.33203125 1248.496337890625 1271.112548828125 1553.9478759765625 1531.7547607421875 726.90380859375 597.53302001953125 1443.5384521484375 2422.447998046875 3378.0263671875 nan 
nan 213.389556884765625 233.9320526123046875 284.08746337890625 249.312652587890625 252.5450897216796875 225.6274566650390625 311.35870361328125 401.046905517578125 325.1806640625 306.990936279296875 210.679962158203125 359.614593505859375 240.40240478515625 310.00164794921875 816.57940673828125 1466.7955322265625 2020.969970703125 2248.176513671875 1785.537353515625 959.3963623046875 359.45465087890625 254.5431671142578125 460.289215087890625 177.673553466796875 431.751739501953125 481.370086669921875 272.52093505859375 130.095458984375 254.4969482421875 187.886505126953125 201.9300384521484375 123.47248077392578125 147.1599273681640625 533.7344970703125 632.037109375 345.020294189453125 173.04498291015625 151.33258056640625 153.5111846923828125 225.656890869140625 109.7940521240234375 129.8108673095703125 530.75823974609375 502.631866455078125 186.0282745361328125 263.678619384765625 474.162567138671875 328.255340576171875 250.4460906982421875 234.271697998046875 182.7964630126953125 166.434844970703125 461.655670166015625 1313.27978515625 1578.4599609375 1297.426025390625 1524.2156982421875 1825.253173828125 2014.413818359375 1734.460205078125 1717.1529541015625 2154.0546875 2223.598388671875 1462.3167724609375 730.92059326171875 354.434173583984375 241.509185791015625 855.5625 1671.5460205078125 1933.7703857421875 1446.3514404296875 945.7681884765625 412.6431884765625 190.614471435546875 623.24517822265625 1234.468994140625 1072.8853759765625 682.8099365234375 381.541534423828125 286.560546875 325.067901611328125 289.60870361328125 405.393280029296875 300.6644287109375 148.222503662109375 96.1527557373046875 162.12750244140625 272.4482421875 377.09954833984375 191.65704345703125 358.225067138671875 860.45330810546875 1473.849853515625 2319.245849609375 2508.48486328125 1794.945556640625 1307.228759765625 1461.84326171875 1712.4649658203125 1363.8170166015625 1074.734130859375 858.22369384765625 1113.332763671875 1394.86962890625 1250.65576171875 616.8294677734375 578.9681396484375 767.62445068359375 767.61614990234375 273.3519287109375 66.62924957275390625 202.20623779296875 600.0003662109375 956.29534912109375 491.063568115234375 114.732086181640625 53.884632110595703125 154.342987060546875 326.073638916015625 242.461395263671875 729.03863525390625 1075.3072509765625 786.5645751953125 951.4246826171875 1346.5631103515625 1241.5118408203125 1002.01385498046875 1050.6739501953125 990.42034912109375 614.34423828125 279.2281494140625 228.818511962890625 135.5927581787109375 100.1266937255859375 119.61283111572265625 126.8534088134765625 109.98578643798828125 241.047088623046875 286.630828857421875 292.77789306640625 147.7116546630859375 103.79151153564453125 293.719207763671875 619.68572998046875 508.659271240234375 322.57440185546875 263.9027099609375 355.947235107421875 192.7995452880859375 89.31529998779296875 64.90625 68.547027587890625 357.529022216796875 1250.620361328125 1693.9874267578125 1169.958251953125 755.72412109375 608.8006591796875 424.695770263671875 449.779022216796875 844.201416015625 1393.825439453125 1097.254638671875 1011.43792724609375 1637.5548095703125 2406.4296875 3104.246826171875 nan 
nan 214.5084991455078125 259.720611572265625 397.706085205078125 393.67041015625 217.9666290283203125 373.83544921875 333.5264892578125 322.775970458984375 380.129302978515625 231.7752838134765625 151.851226806640625 267.951019287109375 384.341033935546875 311.96539306640625 757.036865234375 1388.5198974609375 1338.4881591796875 1548.6044921875 1476.5447998046875 602.0179443359375 186.3649749755859375 231.3641815185546875 310.69451904296875 333.372528076171875 378.734527587890625 293.389251708984375 165.76812744140625 260.81585693359375 226.42022705078125 201.483795166015625 155.0106964111328125 158.310211181640625 143.8062286376953125 162.388153076171875 182.4742889404296875 162.0129852294921875 142.9432525634765625 166.296295166015625 156.5092620849609375 283.746551513671875 147.3500213623046875 134.388336181640625 527.44366455078125 463.6568603515625 144.5884552001953125 141.60272216796875 230.7861480712890625 186.167724609375 164.5453338623046875 257.764617919921875 302.037139892578125 149.17132568359375 518.61383056640625 1240.549560546875 1112.35791015625 549.14068603515625 741.85986328125 1122.7530517578125 1895.09033203125 2428.053955078125 2566.05419921875 2645.439208984375 1988.7244873046875 1062.4925537109375 307.24017333984375 160.1001434326171875 121.224853515625 482.72412109375 1094.5614013671875 1240.9752197265625 717.71466064453125 307.7691650390625 125.5514678955078125 324.6971435546875 564.97662353515625 851.49884033203125 839.76458740234375 517.297119140625 807.171630859375 906.5528564453125 658.67083740234375 327.77716064453125 299.1824951171875 327.123504638671875 249.5046539306640625 171.7957000732421875 103.03908538818359375 222.70440673828125 284.046844482421875 165.449432373046875 530.97479248046875 1370.7559814453125 2007.801513671875 2400.76708984375 2135.9033203125 1339.547119140625 609.1883544921875 864.5181884765625 1184.9896240234375 627.53021240234375 402.974212646484375 226.208160400390625 460.80938720703125 579.8524169921875 752.3248291015625 615.153076171875 293.01776123046875 214.6129608154296875 621.8458251953125 349.390350341796875 102.54610443115234375 147.4737091064453125 454.947265625 535.3446044921875 219.6441650390625 159.280548095703125 116.54242706298828125 346.596923828125 554.138427734375 186.29669189453125 339.751922607421875 712.3565673828125 330.325714111328125 419.574127197265625 1112.803466796875 1758.423828125 1789.30859375 1861.6685791015625 1751.4097900390625 1217.07763671875 917.745849609375 848.2677001953125 708.24053955078125 596.67608642578125 618.344970703125 493.18609619140625 392.53607177734375 389.651641845703125 309.20965576171875 287.7410888671875 90.9829559326171875 180.4957733154296875 479.5621337890625 219.9213714599609375 135.5856781005859375 96.62075042724609375 301.75128173828125 369.747406005859375 87.0712890625 78.28510284423828125 55.948780059814453125 108.47368621826171875 556.255615234375 1343.2017822265625 1383.972412109375 602.3306884765625 170.2623748779296875 103.74967193603515625 64.08579254150390625 79.89765167236328125 388.363677978515625 1191.4398193359375 1550.579345703125 1443.349609375 1497.5955810546875 1875.462158203125 2504.34765625 nan 
nan 286.552703857421875 337.880828857421875 244.6482086181640625 448.429107666015625 343.496337890625 318.98193359375 280.385498046875 307.254730224609375 229.8228912353515625 172.9105682373046875 206.4562835693359375 256.601715087890625 383.947052001953125 339.00103759765625 608.97589111328125 901.277099609375 610.4405517578125 992.77984619140625 1255.445068359375 478.44122314453125 127.29138946533203125 164.0954132080078125 286.213897705078125 407.5504150390625 229.30548095703125 266.721466064453125 279.364044189453125 220.104400634765625 187.4865570068359375 161.6717071533203125 132.90020751953125 220.4088897705078125 278.88665771484375 136.1255950927734375 229.4861602783203125 130.549560546875 124.85710906982421875 152.65789794921875 211.7719879150390625 159.375579833984375 184.261871337890625 142.4787445068359375 311.639129638671875 429.54974365234375 180.55206298828125 238.7989959716796875 505.690673828125 364.21014404296875 207.0587921142578125 162.63641357421875 307.957550048828125 256.419952392578125 289.465423583984375 892.2711181640625 1014.1356201171875 345.3128662109375 218.2559661865234375 741.431396484375 1698.6141357421875 2660.237060546875 3252.183837890625 2829.19580078125 1868.73876953125 902.79803466796875 305.50042724609375 251.4209747314453125 134.366302490234375 169.639678955078125 578.6929931640625 652.693115234375 210.0320281982421875 163.0139007568359375 290.15728759765625 378.20220947265625 290.42877197265625 503.49969482421875 833.47418212890625 1001.273193359375 1281.8583984375 1283.2066650390625 760.3658447265625 283.722747802734375 134.9439239501953125 137.83917236328125 425.30877685546875 662.64337158203125 367.257904052734375 187.1775970458984375 268.326751708984375 390.96148681640625 622.4423828125 1334.4102783203125 1793.44482421875 1765.7921142578125 1492.2403564453125 1069.8475341796875 666.201171875 699.4769287109375 741.77716064453125 440.542816162109375 388.01495361328125 314.05780029296875 206.3019561767578125 183.8744354248046875 331.23175048828125 448.059234619140625 255.9922637939453125 298.645355224609375 503.172454833984375 246.903472900390625 186.3698577880859375 266.210968017578125 137.87445068359375 315.502655029296875 198.76336669921875 169.4157867431640625 150.89324951171875 216.92840576171875 383.48504638671875 246.5309295654296875 121.48432159423828125 385.415374755859375 484.915435791015625 462.27301025390625 1003.36669921875 1611.3148193359375 1666.05224609375 1996.491943359375 1967.0364990234375 1244.1295166015625 942.12646484375 1260.132080078125 1439.071044921875 1087.939208984375 947.60589599609375 1122.7882080078125 1139.133544921875 1065.29736328125 656.1240234375 174.372467041015625 99.73773956298828125 332.87054443359375 523.12725830078125 165.10113525390625 127.6853179931640625 93.94647979736328125 209.9246826171875 287.280364990234375 103.79950714111328125 87.56735992431640625 118.4286041259765625 427.928924560546875 954.127685546875 1077.775390625 1070.8365478515625 576.75701904296875 111.10718536376953125 71.18175506591796875 61.265079498291015625 66.5345611572265625 179.8446807861328125 667.2913818359375 1077.6326904296875 856.22174072265625 709.47735595703125 1218.0977783203125 2051.246337890625 nan 
nan 191.191680908203125 407.637451171875 376.5697021484375 338.6168212890625 357.422698974609375 309.1522216796875 427.686553955078125 249.1711578369140625 209.4897308349609375 276.104583740234375 342.695465087890625 260.45703125 243.741851806640625 389.6795654296875 468.79803466796875 699.2535400390625 665.60504150390625 993.92950439453125 1100.391845703125 341.85955810546875 149.1263275146484375 187.5456085205078125 481.56536865234375 301.61676025390625 213.0513763427734375 274.44390869140625 255.660736083984375 250.5659942626953125 303.1612548828125 247.0642242431640625 223.9510345458984375 159.987396240234375 158.9122772216796875 194.74383544921875 279.208648681640625 127.15709686279296875 136.7823638916015625 161.115386962890625 187.1772308349609375 160.3105621337890625 223.4765167236328125 115.311676025390625 206.7788848876953125 383.60040283203125 222.1609039306640625 168.1742401123046875 315.6785888671875 239.9559478759765625 286.777099609375 188.4681243896484375 267.450958251953125 346.481170654296875 216.16632080078125 850.5189208984375 1158.2420654296875 747.235107421875 493.385467529296875 977.566162109375 1812.810546875 2756.62353515625 3502.1396484375 2989.533447265625 2067.69482421875 1266.9771728515625 706.3165283203125 265.577301025390625 155.71759033203125 115.49373626708984375 218.649505615234375 412.13916015625 385.84210205078125 444.76519775390625 720.45684814453125 413.660858154296875 172.62921142578125 244.4229736328125 357.975067138671875 930.85211181640625 870.839111328125 883.0975341796875 1148.676513671875 598.90118408203125 269.986907958984375 155.9529876708984375 412.179534912109375 906.3221435546875 635.75933837890625 215.8271942138671875 195.4935302734375 436.362579345703125 721.36883544921875 783.8272705078125 1072.43603515625 939.3914794921875 839.57794189453125 544.19464111328125 766.72308349609375 453.9493408203125 228.068450927734375 308.9410400390625 330.81646728515625 211.2043609619140625 110.58209991455078125 169.723175048828125 182.380462646484375 214.8523101806640625 153.11737060546875 248.0735626220703125 555.432861328125 536.56756591796875 394.041961669921875 454.54449462890625 148.8746490478515625 233.89190673828125 353.457427978515625 419.159393310546875 259.39398193359375 428.679931640625 172.2094268798828125 167.65301513671875 82.53792572021484375 105.0883941650390625 298.0238037109375 834.4447021484375 1323.220703125 1081.417724609375 864.45849609375 1434.6585693359375 1620.924072265625 816.24365234375 360.874053955078125 976.78253173828125 1500.0528564453125 832.58331298828125 511.881927490234375 1249.48583984375 1796.99072265625 1705.7205810546875 1084.5946044921875 352.106048583984375 75.03104400634765625 245.3539886474609375 646.23583984375 257.12451171875 81.37862396240234375 95.18303680419921875 373.376434326171875 381.2740478515625 139.5364532470703125 172.10931396484375 151.3853302001953125 419.674652099609375 885.27691650390625 485.470184326171875 552.686279296875 673.3221435546875 284.7008056640625 101.7698974609375 77.66860198974609375 51.638706207275390625 71.239898681640625 182.9602508544921875 611.4661865234375 276.61236572265625 228.6755828857421875 972.0380859375 1910.2713623046875 nan 
nan 230.049774169921875 389.47967529296875 296.893157958984375 323.812469482421875 525.75286865234375 275.590576171875 264.8450927734375 391.6854248046875 424.35919189453125 263.92242431640625 338.775115966796875 339.5447998046875 294.812225341796875 247.0524749755859375 453.6658935546875 1046.1302490234375 1080.10888671875 848.76312255859375 957.61846923828125 504.7593994140625 242.267486572265625 247.05181884765625 323.41217041015625 308.125823974609375 249.391632080078125 255.1723175048828125 276.807281494140625 266.578765869140625 258.326568603515625 400.811126708984375 192.3746795654296875 185.03564453125 179.1029205322265625 230.907135009765625 328.267578125 139.2044525146484375 143.4628753662109375 170.3482818603515625 136.773895263671875 189.366546630859375 290.27825927734375 112.23043060302734375 276.20672607421875 294.47125244140625 452.629425048828125 351.379608154296875 357.85443115234375 275.050537109375 381.57666015625 232.8804473876953125 268.36883544921875 228.176055908203125 231.7718658447265625 659.6846923828125 613.58770751953125 836.1988525390625 1221.409912109375 1640.8641357421875 2280.903076171875 3084.871337890625 3786.703125 3360.46044921875 2574.306396484375 1893.2958984375 1180.6298828125 643.93377685546875 246.443603515625 68.32785797119140625 61.584774017333984375 246.2127685546875 345.552276611328125 218.3672027587890625 459.071929931640625 427.016357421875 344.37091064453125 204.224090576171875 318.298004150390625 861.23870849609375 613.15753173828125 596.0545654296875 1303.8721923828125 1057.623779296875 526.49609375 228.4330902099609375 218.6766510009765625 566.301025390625 473.48858642578125 627.49102783203125 363.220245361328125 177.9341888427734375 358.447479248046875 393.718902587890625 506.149505615234375 354.54888916015625 404.58221435546875 392.613189697265625 556.51470947265625 185.26116943359375 246.405517578125 387.349517822265625 373.8800048828125 390.6124267578125 515.4989013671875 719.4747314453125 647.7733154296875 311.677947998046875 135.73992919921875 271.87176513671875 825.99749755859375 829.7548828125 406.89447021484375 559.4464111328125 248.245880126953125 203.4506072998046875 307.369720458984375 324.355377197265625 608.61224365234375 596.73797607421875 179.5998687744140625 141.6384429931640625 84.36989593505859375 88.5425567626953125 175.566253662109375 725.26116943359375 1240.2725830078125 690.20855712890625 379.430206298828125 1133.1051025390625 1390.340087890625 592.74505615234375 246.13818359375 786.63653564453125 1140.78369140625 984.60174560546875 873.13873291015625 1387.6253662109375 1520.1209716796875 1367.20654296875 971.0369873046875 470.187347412109375 164.69683837890625 534.22760009765625 773.9385986328125 207.510101318359375 82.58740997314453125 188.6721038818359375 720.406005859375 624.39117431640625 187.3236541748046875 80.95233917236328125 75.02744293212890625 188.163421630859375 367.13385009765625 134.9765472412109375 117.3018951416015625 336.43994140625 261.24554443359375 101.70221710205078125 94.97434234619140625 66.72259521484375 70.2500152587890625 229.807464599609375 648.82342529296875 228.8889007568359375 376.3909912109375 1066.8387451171875 1683.8399658203125 nan 
nan 345.339111328125 196.75982666015625 342.91754150390625 260.2230224609375 263.46142578125 256.22271728515625 204.427093505859375 411.03619384765625 421.5618896484375 281.595367431640625 493.580352783203125 269.679840087890625 260.884246826171875 257.746185302734375 397.5107421875 858.4822998046875 822.7744140625 351.4073486328125 485.246673583984375 424.768463134765625 284.030364990234375 269.423370361328125 278.64520263671875 314.63519287109375 256.154052734375 378.22930908203125 310.26995849609375 253.2604522705078125 200.648712158203125 256.1400146484375 230.0440521240234375 240.8890380859375 309.514434814453125 199.9687347412109375 215.307373046875 137.3148345947265625 166.91534423828125 139.503326416015625 121.651336669921875 308.209197998046875 225.721038818359375 124.1278839111328125 241.0018310546875 260.43890380859375 264.67755126953125 224.1260833740234375 174.4154510498046875 298.39874267578125 241.0756988525390625 388.011627197265625 287.485870361328125 201.246612548828125 163.6013031005859375 208.4317169189453125 175.3019256591796875 737.8128662109375 1656.548095703125 2348.662841796875 2912.3193359375 3584.4677734375 4194.01416015625 3888.196533203125 3205.033447265625 2487.30078125 1808.435302734375 1074.459716796875 355.889190673828125 144.4724578857421875 117.9283905029296875 232.6857147216796875 176.0987396240234375 129.968597412109375 160.0330657958984375 189.3195343017578125 382.783233642578125 254.3865509033203125 186.4720306396484375 713.1905517578125 697.40234375 486.257171630859375 1231.9520263671875 1289.2987060546875 527.7158203125 340.260406494140625 463.097137451171875 396.554229736328125 463.126678466796875 419.82672119140625 193.9532623291015625 213.5922698974609375 126.84679412841796875 160.097076416015625 313.164031982421875 310.60394287109375 223.689544677734375 461.847320556640625 559.58819580078125 358.76123046875 634.44580078125 867.96697998046875 660.12066650390625 749.25274658203125 1131.6304931640625 1255.0701904296875 882.2418212890625 294.41302490234375 279.696746826171875 321.510101318359375 678.86474609375 551.8719482421875 183.0931854248046875 387.982818603515625 386.823333740234375 226.039337158203125 168.413848876953125 158.8427581787109375 431.45233154296875 248.6677398681640625 148.5690460205078125 200.1485443115234375 230.499755859375 189.5356597900390625 124.3341827392578125 364.35736083984375 1060.001708984375 1043.401123046875 824.299072265625 1358.0689697265625 1610.21337890625 882.8353271484375 377.294464111328125 662.41156005859375 464.530517578125 768.751220703125 1248.0145263671875 1205.86474609375 825.79156494140625 617.05950927734375 379.84295654296875 306.615997314453125 526.3343505859375 896.98846435546875 825.91436767578125 212.6978759765625 89.609527587890625 389.827606201171875 993.32952880859375 553.98968505859375 222.0020904541015625 51.26174163818359375 95.8944549560546875 115.8946533203125 297.189666748046875 349.42919921875 196.4835968017578125 100.18280029296875 76.64127349853515625 120.95490264892578125 84.73813629150390625 94.02850341796875 95.760009765625 389.654144287109375 848.2281494140625 447.27960205078125 668.40130615234375 776.57330322265625 1022.364990234375 nan 
nan 616.7666015625 331.335418701171875 463.154449462890625 278.988189697265625 304.404327392578125 414.65869140625 202.8310699462890625 266.422119140625 237.06097412109375 449.225128173828125 484.483001708984375 270.01239013671875 211.4993438720703125 280.61566162109375 336.164306640625 445.386444091796875 641.98895263671875 314.166656494140625 149.554656982421875 183.3922271728515625 259.19384765625 492.187744140625 410.298797607421875 191.37335205078125 193.787445068359375 291.337188720703125 270.379669189453125 237.3227691650390625 264.0963134765625 151.877044677734375 176.575927734375 184.814971923828125 241.5356292724609375 225.045684814453125 253.23968505859375 323.72613525390625 295.075531005859375 146.8419189453125 156.2948150634765625 303.1907958984375 292.396881103515625 179.0404205322265625 554.87884521484375 386.50537109375 164.5324554443359375 246.393524169921875 274.425079345703125 380.486663818359375 318.932769775390625 258.072357177734375 172.948089599609375 223.36175537109375 159.3325347900390625 111.02497100830078125 320.89031982421875 923.87371826171875 1742.305908203125 2414.14990234375 2937.3935546875 3590.9306640625 3975.519287109375 4038.52392578125 3755.221435546875 3078.433349609375 2260.3095703125 1404.707275390625 647.6917724609375 231.5236663818359375 251.9931793212890625 284.804443359375 172.7613677978515625 215.107421875 141.537017822265625 159.88720703125 141.3922882080078125 230.6434783935546875 233.1945037841796875 347.6368408203125 560.1005859375 366.4705810546875 1094.619384765625 1585.2210693359375 1042.0777587890625 805.8531494140625 828.4898681640625 500.036346435546875 894.22247314453125 573.7518310546875 169.5944366455078125 245.1311492919921875 126.740447998046875 129.8710479736328125 202.80804443359375 273.584320068359375 150.2820892333984375 293.393951416015625 226.6324462890625 229.3303680419921875 270.796142578125 547.52056884765625 250.5672149658203125 367.566253662109375 839.46832275390625 768.0906982421875 731.30999755859375 300.188690185546875 231.0295867919921875 142.661956787109375 178.92529296875 249.358856201171875 137.490814208984375 105.9742889404296875 275.9847412109375 340.9918212890625 203.0042877197265625 163.7971954345703125 140.0946044921875 217.4998321533203125 335.51177978515625 212.0792236328125 124.3558349609375 103.91214752197265625 246.7978515625 670.599609375 1364.6968994140625 1742.7188720703125 1639.6597900390625 1878.7359619140625 1993.6712646484375 1337.2513427734375 899.22100830078125 747.40179443359375 185.1462554931640625 396.187652587890625 1025.3270263671875 597.351318359375 319.67633056640625 438.491668701171875 186.5262908935546875 214.123504638671875 485.766845703125 485.763427734375 325.242523193359375 124.37709808349609375 96.20444488525390625 583.9151611328125 1219.03857421875 720.558349609375 204.7600860595703125 93.01197052001953125 106.58080291748046875 89.99007415771484375 222.15240478515625 532.94830322265625 273.859375 72.1937103271484375 78.07558441162109375 84.1776123046875 121.0642547607421875 186.82830810546875 148.392974853515625 552.57843017578125 704.17352294921875 191.46142578125 387.82196044921875 213.3017120361328125 576.2779541015625 nan 
nan 262.720458984375 224.9858551025390625 315.943084716796875 490.330108642578125 296.75201416015625 349.9619140625 283.14892578125 364.88226318359375 385.826080322265625 230.72833251953125 250.82672119140625 347.30902099609375 314.49713134765625 310.02362060546875 421.796630859375 416.2442626953125 360.73291015625 199.4173431396484375 141.186309814453125 185.6147003173828125 315.512969970703125 359.87017822265625 449.242401123046875 210.9397430419921875 264.236785888671875 409.64013671875 290.475616455078125 302.38983154296875 227.9837188720703125 159.785308837890625 121.4056854248046875 196.13848876953125 339.88165283203125 238.748748779296875 331.89288330078125 240.4116668701171875 312.183319091796875 248.025238037109375 226.0936431884765625 268.466888427734375 308.752838134765625 204.4922943115234375 479.537139892578125 330.00653076171875 357.884735107421875 348.319488525390625 270.43914794921875 214.3316192626953125 262.56292724609375 376.82623291015625 505.843231201171875 509.289459228515625 352.430633544921875 307.748046875 519.62933349609375 737.10186767578125 1300.1485595703125 1707.128662109375 2323.895751953125 2981.3984375 3134.33349609375 3356.34326171875 3730.568115234375 3507.250244140625 2711.609130859375 1893.341552734375 1136.287353515625 547.17108154296875 193.060699462890625 255.41827392578125 173.87921142578125 186.623077392578125 287.98236083984375 299.827362060546875 159.724639892578125 174.345977783203125 419.83831787109375 390.828216552734375 309.293914794921875 361.28826904296875 1044.1778564453125 1722.1256103515625 1723.6424560546875 1411.45166015625 777.71612548828125 409.26629638671875 1030.736083984375 989.10943603515625 316.302032470703125 292.07037353515625 337.379608154296875 230.5312042236328125 156.86468505859375 199.9630584716796875 199.6387481689453125 237.7163848876953125 192.6521453857421875 209.509918212890625 184.0404510498046875 497.884735107421875 328.788726806640625 320.73974609375 412.8931884765625 321.52972412109375 666.13525390625 845.6343994140625 562.98382568359375 131.728790283203125 55.4233245849609375 212.6678619384765625 278.171356201171875 291.6629638671875 320.722930908203125 349.39471435546875 244.8831939697265625 325.872406005859375 136.273040771484375 149.3437042236328125 216.091278076171875 120.12187957763671875 101.69426727294921875 313.090576171875 830.9320068359375 1348.2742919921875 1967.2381591796875 2271.470703125 1842.119384765625 1579.5191650390625 1778.00537109375 1657.6837158203125 1049.6732177734375 670.89697265625 322.898529052734375 450.2664794921875 927.5377197265625 411.459197998046875 149.9015045166015625 533.3306884765625 235.3145751953125 428.277618408203125 399.1370849609375 91.2595672607421875 63.139942169189453125 79.644805908203125 82.96295166015625 398.893096923828125 1108.44287109375 788.394287109375 174.3009796142578125 98.8251800537109375 101.33868408203125 96.0655670166015625 130.5233001708984375 125.9659881591796875 118.3707427978515625 66.72699737548828125 68.59467315673828125 244.282196044921875 183.5074005126953125 116.3968505859375 103.22859954833984375 617.7421875 592.5711669921875 109.9234771728515625 139.1074371337890625 162.9853363037109375 606.61468505859375 nan 
nan 80.464019775390625 74.55106353759765625 197.7407379150390625 219.706298828125 183.1047210693359375 190.047637939453125 309.8956298828125 331.3675537109375 453.912384033203125 259.541107177734375 242.002838134765625 194.829498291015625 228.1634368896484375 185.9231414794921875 189.7064208984375 332.5416259765625 155.5356597900390625 205.665771484375 185.995086669921875 219.0576934814453125 539.63836669921875 708.2974853515625 394.45556640625 264.4139404296875 167.8366546630859375 225.2955169677734375 266.807708740234375 338.662933349609375 270.240264892578125 201.0606231689453125 156.08331298828125 184.1687469482421875 274.837158203125 152.0343475341796875 279.836029052734375 324.2623291015625 256.45416259765625 217.99822998046875 208.1648712158203125 177.7144622802734375 317.805877685546875 205.673492431640625 344.963623046875 383.3935546875 632.61138916015625 502.292694091796875 582.95001220703125 380.495941162109375 210.9958648681640625 201.291473388671875 319.276153564453125 279.91937255859375 317.5618896484375 210.4820556640625 228.44976806640625 416.056884765625 688.74725341796875 1032.2188720703125 1863.1927490234375 2298.073486328125 2259.086181640625 2557.01416015625 3155.53564453125 3657.438720703125 3207.4951171875 2450.201171875 1761.4332275390625 1023.362548828125 421.96630859375 162.817230224609375 137.6242828369140625 143.5265350341796875 168.089935302734375 268.9610595703125 243.6468658447265625 226.5224609375 332.0201416015625 229.14105224609375 182.238250732421875 370.99664306640625 644.080810546875 1327.0648193359375 1947.0224609375 1673.6685791015625 834.7943115234375 515.43963623046875 1034.691650390625 997.8536376953125 286.3470458984375 242.9532012939453125 324.555023193359375 247.411895751953125 173.906158447265625 187.05499267578125 164.41168212890625 126.05078887939453125 245.2419891357421875 424.5736083984375 197.0756072998046875 641.157958984375 864.898193359375 909.06671142578125 505.730804443359375 151.743927001953125 395.925689697265625 1138.243896484375 1047.8157958984375 384.558258056640625 215.498321533203125 230.1274566650390625 167.84674072265625 237.1627655029296875 164.4398193359375 307.25970458984375 395.332977294921875 282.073822021484375 212.1338958740234375 499.440521240234375 287.269622802734375 124.627655029296875 376.02459716796875 880.04705810546875 1476.6531982421875 1994.64208984375 2439.02294921875 2172.8681640625 1308.474853515625 778.30889892578125 1169.4383544921875 1431.1907958984375 660.70159912109375 182.3488311767578125 326.0770263671875 461.161285400390625 568.83001708984375 547.85626220703125 429.442779541015625 643.204833984375 412.487152099609375 761.25006103515625 447.417755126953125 62.328914642333984375 69.75557708740234375 95.1270904541015625 62.355411529541015625 160.440887451171875 694.5286865234375 478.439178466796875 105.19101715087890625 93.820587158203125 104.5532379150390625 102.7750091552734375 146.1582183837890625 136.3903045654296875 116.371063232421875 118.0663604736328125 106.1631927490234375 163.282867431640625 79.18874359130859375 88.5344390869140625 132.47528076171875 495.8955078125 697.4263916015625 352.575927734375 490.52008056640625 718.69573974609375 1169.6416015625 nan 
nan 81.88092803955078125 43.16039276123046875 148.93023681640625 200.1357879638671875 231.2860870361328125 246.70037841796875 348.614288330078125 268.233489990234375 222.9736480712890625 262.97442626953125 250.9730224609375 197.5335845947265625 218.6622161865234375 214.718658447265625 223.7265472412109375 239.5363616943359375 165.520233154296875 184.9010162353515625 204.90966796875 254.856719970703125 562.94390869140625 577.48138427734375 218.6482696533203125 386.103240966796875 245.3051300048828125 227.5164794921875 232.8675384521484375 326.93341064453125 297.396881103515625 169.10968017578125 170.4435272216796875 437.600921630859375 355.016876220703125 224.459075927734375 222.031463623046875 344.900604248046875 261.9349365234375 147.7512359619140625 133.1540374755859375 174.608184814453125 250.0700531005859375 195.9184722900390625 147.24102783203125 156.2583770751953125 369.519805908203125 401.41943359375 485.250335693359375 419.524688720703125 215.0821075439453125 170.9160919189453125 245.2048187255859375 264.21319580078125 203.81988525390625 53.263050079345703125 160.1214141845703125 582.31268310546875 535.94671630859375 875.01995849609375 1657.0262451171875 1569.976806640625 1401.068359375 1840.59912109375 2611.44091796875 3467.920166015625 3682.50732421875 3072.936767578125 2328.760009765625 1629.3114013671875 987.11114501953125 493.57879638671875 283.82891845703125 159.389892578125 228.673370361328125 261.17999267578125 191.0955963134765625 223.3444671630859375 121.668731689453125 178.6106414794921875 235.742919921875 199.0032196044921875 257.136627197265625 790.6834716796875 1493.9122314453125 1835.1619873046875 1462.651611328125 1185.9898681640625 881.1824951171875 683.3992919921875 285.43487548828125 221.1133880615234375 144.0926971435546875 176.0266265869140625 280.77203369140625 268.1710205078125 289.368896484375 221.006683349609375 148.8620758056640625 243.38897705078125 292.39532470703125 463.726715087890625 690.58856201171875 930.70098876953125 443.519500732421875 92.0765838623046875 291.2880859375 932.07965087890625 933.849853515625 539.74481201171875 304.5423583984375 260.99639892578125 264.71466064453125 237.135162353515625 167.0975189208984375 474.1551513671875 713.33416748046875 532.53924560546875 455.8629150390625 486.87261962890625 219.9400787353515625 176.6331787109375 546.5435791015625 1065.5760498046875 1439.362548828125 1710.7720947265625 2059.0048828125 1851.58935546875 1107.9129638671875 408.11456298828125 675.69793701171875 1140.304931640625 578.4034423828125 147.7774658203125 381.069793701171875 844.5074462890625 753.79229736328125 930.14691162109375 1155.544677734375 1252.3843994140625 1140.813232421875 971.08160400390625 340.07086181640625 89.02454376220703125 69.66345977783203125 107.42916107177734375 69.2595367431640625 62.6697845458984375 368.00927734375 265.06939697265625 128.411285400390625 105.600250244140625 126.4528045654296875 184.5087127685546875 193.899139404296875 193.5939483642578125 154.2611846923828125 113.94744873046875 135.480224609375 114.37253570556640625 98.49208831787109375 103.06096649169921875 75.778106689453125 139.817474365234375 447.433563232421875 444.8990478515625 764.33428955078125 1271.6737060546875 1698.9588623046875 nan 
nan 230.5617828369140625 142.518707275390625 245.5990142822265625 153.8000640869140625 151.1159820556640625 278.7470703125 240.182647705078125 263.11236572265625 296.03814697265625 242.229156494140625 239.5089874267578125 227.38323974609375 148.2529296875 328.481903076171875 291.91680908203125 236.20806884765625 214.4780426025390625 178.7989654541015625 222.655853271484375 213.56109619140625 244.360198974609375 318.072479248046875 333.527679443359375 301.225128173828125 246.701416015625 268.338897705078125 247.0887603759765625 217.554656982421875 242.184326171875 187.77532958984375 150.3511199951171875 368.602783203125 205.3852996826171875 165.4743804931640625 210.1801605224609375 219.4319305419921875 197.6240997314453125 234.0321807861328125 207.201416015625 338.9390869140625 213.4808807373046875 135.508056640625 124.16599273681640625 206.8985443115234375 200.7747039794921875 273.640106201171875 294.317657470703125 345.190399169921875 234.6022186279296875 195.302734375 243.8409576416015625 365.4644775390625 390.247344970703125 124.42620086669921875 92.1053924560546875 463.5374755859375 1008.395263671875 1406.9150390625 1646.5234375 959.2999267578125 659.03045654296875 1348.8653564453125 2292.10888671875 3205.3486328125 3619.510009765625 3480.677978515625 2944.46533203125 2281.0771484375 1668.916015625 1190.323486328125 683.887451171875 220.633148193359375 149.93621826171875 280.75030517578125 171.840576171875 282.284332275390625 272.35791015625 373.32623291015625 410.7591552734375 382.434844970703125 172.0204620361328125 394.879058837890625 955.656005859375 1427.780029296875 1842.2132568359375 1552.5926513671875 725.5198974609375 578.37640380859375 547.572265625 442.926361083984375 199.6176605224609375 219.3532257080078125 312.79205322265625 253.8839569091796875 231.0530242919921875 170.9081573486328125 247.9650726318359375 220.6030120849609375 269.55743408203125 137.6454925537109375 358.496307373046875 583.15838623046875 216.971923828125 244.9528656005859375 368.344512939453125 554.05596923828125 380.971893310546875 294.104339599609375 328.444183349609375 298.505767822265625 221.644866943359375 215.9761962890625 172.723236083984375 285.792816162109375 421.151580810546875 262.43902587890625 481.20001220703125 474.324859619140625 224.4748077392578125 186.877288818359375 242.08050537109375 479.5386962890625 688.457763671875 930.66290283203125 1305.974853515625 1143.714111328125 803.14849853515625 458.31256103515625 538.47308349609375 739.2938232421875 233.3338165283203125 141.029205322265625 183.9900970458984375 782.0521240234375 1259.666015625 1594.36279296875 1933.6734619140625 2066.760009765625 1947.062744140625 1461.0130615234375 783.103759765625 219.80645751953125 71.0966339111328125 112.397613525390625 83.99825286865234375 65.5057373046875 97.08637237548828125 254.632843017578125 520.4305419921875 344.147735595703125 190.066680908203125 118.6876678466796875 125.68218231201171875 179.3604888916015625 187.4635162353515625 120.8174896240234375 129.793121337890625 92.643798828125 264.996124267578125 445.294830322265625 248.039825439453125 288.748779296875 167.7151641845703125 85.42986297607421875 353.55316162109375 1094.701416015625 1272.65087890625 nan 
nan 327.901824951171875 164.7850189208984375 202.6318206787109375 263.109832763671875 244.794647216796875 319.42510986328125 154.4497222900390625 340.874908447265625 233.8666229248046875 292.14013671875 164.3960113525390625 276.625946044921875 172.544158935546875 258.350006103515625 376.864715576171875 307.797210693359375 171.3102874755859375 168.5726776123046875 214.08636474609375 160.71527099609375 299.68206787109375 195.7285308837890625 267.239013671875 312.5191650390625 317.513214111328125 304.977630615234375 227.506591796875 270.500091552734375 258.816680908203125 256.828582763671875 161.2776031494140625 148.2503662109375 155.16021728515625 198.4946746826171875 171.406219482421875 176.12725830078125 422.895904541015625 636.13140869140625 686.09765625 587.6844482421875 158.8072967529296875 131.47735595703125 147.5943603515625 189.681671142578125 135.9167022705078125 190.951416015625 218.196685791015625 163.8539886474609375 203.907440185546875 141.92047119140625 170.7195587158203125 145.5563812255859375 251.985443115234375 100.183837890625 144.485076904296875 528.03424072265625 1286.2366943359375 2016.964599609375 1807.672607421875 951.04376220703125 659.37872314453125 1352.747314453125 2264.007568359375 2763.9189453125 2828.917236328125 3105.012939453125 3325.326904296875 2963.96826171875 2396.787109375 1879.25830078125 1253.4097900390625 815.59918212890625 392.64764404296875 243.6696929931640625 190.576446533203125 233.0475311279296875 273.193939208984375 285.631072998046875 218.2010498046875 197.1723785400390625 265.980377197265625 267.392822265625 349.03094482421875 767.07196044921875 1447.373779296875 1681.4366455078125 1291.0943603515625 1208.9429931640625 1173.84228515625 567.6175537109375 201.6162567138671875 275.946136474609375 180.830963134765625 216.8670654296875 129.8509368896484375 296.618927001953125 296.146240234375 346.6195068359375 351.691070556640625 129.8791046142578125 288.6790771484375 441.17083740234375 300.3984375 436.005401611328125 315.80413818359375 216.3692169189453125 279.424835205078125 416.981048583984375 622.3289794921875 248.5405426025390625 211.4210205078125 174.2992706298828125 193.09478759765625 249.473480224609375 191.1784515380859375 358.625518798828125 479.079559326171875 331.4693603515625 186.879852294921875 102.58722686767578125 145.15478515625 189.46063232421875 163.0140838623046875 400.046295166015625 553.66949462890625 397.43389892578125 300.942230224609375 226.4215240478515625 329.5328369140625 351.537628173828125 92.33890533447265625 93.25308990478515625 104.43271636962890625 385.589752197265625 989.86175537109375 1497.0113525390625 1941.1160888671875 2353.708251953125 2482.065673828125 2062.657958984375 1349.695556640625 620.45123291015625 162.3037261962890625 74.0528717041015625 103.67073822021484375 93.98084259033203125 85.32503509521484375 124.35417938232421875 423.400421142578125 335.93408203125 277.793792724609375 309.318756103515625 315.7325439453125 281.644500732421875 114.11907196044921875 166.6800079345703125 71.3826904296875 130.013702392578125 167.47796630859375 552.2001953125 754.0538330078125 405.21221923828125 132.7103729248046875 62.721202850341796875 284.00213623046875 718.15155029296875 530.03009033203125 nan 
nan 329.147552490234375 169.0402069091796875 223.563262939453125 194.694488525390625 242.123992919921875 512.7479248046875 215.8526763916015625 237.7718048095703125 223.0048065185546875 220.5384063720703125 153.422027587890625 174.9288482666015625 239.2165985107421875 283.1326904296875 254.078094482421875 185.447235107421875 138.2819976806640625 172.67657470703125 318.24884033203125 171.8457489013671875 228.3746490478515625 219.6285552978515625 314.629638671875 192.313262939453125 203.74407958984375 239.283905029296875 257.479034423828125 236.466796875 208.656829833984375 213.768280029296875 129.959075927734375 126.77364349365234375 225.3510284423828125 228.522491455078125 227.7535247802734375 224.54541015625 627.07940673828125 1096.2135009765625 1034.4658203125 484.86370849609375 137.8095855712890625 179.7615966796875 181.189208984375 211.549957275390625 134.60211181640625 255.1413726806640625 492.827972412109375 171.0640106201171875 223.5012664794921875 175.969573974609375 173.14752197265625 130.7315216064453125 127.1533203125 102.81159210205078125 367.700286865234375 1049.146484375 1720.2708740234375 2396.30859375 2209.311279296875 1567.2611083984375 1389.000244140625 1726.5499267578125 2131.357177734375 2013.3768310546875 1963.929443359375 2363.341796875 3025.410888671875 3412.23779296875 3119.431640625 2525.45751953125 2005.15185546875 1469.8665771484375 707.66766357421875 278.76123046875 292.188446044921875 423.189727783203125 381.29620361328125 370.800811767578125 462.390655517578125 375.874786376953125 467.74444580078125 166.9441986083984375 84.50344085693359375 286.363189697265625 757.65704345703125 1328.5018310546875 1557.2486572265625 1358.528076171875 1372.6251220703125 1032.0694580078125 401.845611572265625 301.0059814453125 314.7529296875 142.174560546875 233.5048065185546875 211.853118896484375 188.620086669921875 168.3329315185546875 216.7935333251953125 195.4501953125 263.868194580078125 168.6455841064453125 275.07159423828125 333.98712158203125 190.3723602294921875 171.91168212890625 264.08685302734375 466.888397216796875 332.729766845703125 246.5104522705078125 188.234130859375 343.61199951171875 408.34820556640625 539.785400390625 263.320526123046875 394.084991455078125 257.45281982421875 255.8178558349609375 392.590423583984375 246.1622467041015625 154.3646240234375 149.380767822265625 94.35497283935546875 145.9367523193359375 166.315643310546875 315.628631591796875 579.23681640625 439.46826171875 251.32391357421875 121.95650482177734375 62.723003387451171875 89.63945770263671875 103.02555084228515625 183.1277618408203125 410.17138671875 754.74774169921875 1291.465087890625 1650.0574951171875 2076.20458984375 2012.3289794921875 1612.5150146484375 1138.025146484375 473.88653564453125 132.0404510498046875 92.91890716552734375 84.9816741943359375 55.570049285888671875 98.5819549560546875 94.2222747802734375 88.54288482666015625 229.2347869873046875 128.10211181640625 172.4803314208984375 235.247589111328125 215.840179443359375 99.1763916015625 33.240589141845703125 60.545558929443359375 144.962738037109375 421.334991455078125 705.7147216796875 175.68499755859375 86.0760498046875 56.80204010009765625 128.0631561279296875 179.4625396728515625 97.905609130859375 nan 
nan 368.957305908203125 118.7205810546875 245.26947021484375 318.99664306640625 216.01580810546875 341.906951904296875 315.217010498046875 239.9893798828125 281.0574951171875 206.14459228515625 168.7982025146484375 206.719940185546875 168.066131591796875 134.6750335693359375 143.130615234375 147.345489501953125 170.3751678466796875 145.7526702880859375 218.8914794921875 143.45782470703125 223.6770477294921875 230.6881866455078125 230.166961669921875 209.354644775390625 221.746673583984375 180.3785400390625 246.2888031005859375 163.871551513671875 203.0746002197265625 195.1105804443359375 138.2354583740234375 158.05645751953125 218.7639923095703125 243.27093505859375 229.7189178466796875 340.5081787109375 343.9783935546875 555.07623291015625 615.4061279296875 205.9054107666015625 140.5692901611328125 158.9700927734375 184.7219696044921875 217.8850250244140625 126.17334747314453125 247.9152374267578125 364.5693359375 166.013458251953125 236.9137420654296875 218.0122222900390625 154.1027679443359375 111.15456390380859375 71.14264678955078125 97.37090301513671875 610.98907470703125 1223.6639404296875 1611.804443359375 2261.321533203125 2520.380615234375 2022.12158203125 1692.9454345703125 1397.8701171875 1432.6072998046875 1214.6905517578125 1137.4854736328125 1715.18505859375 2442.57568359375 3061.049560546875 3201.626953125 2634.201416015625 2202.758544921875 1799.9456787109375 1212.0679931640625 760.1766357421875 305.416473388671875 210.68682861328125 206.721160888671875 261.543487548828125 375.105804443359375 295.91387939453125 390.85357666015625 336.1376953125 211.868896484375 131.4026336669921875 253.1364898681640625 716.6700439453125 917.2420654296875 631.318359375 896.31396484375 1290.5450439453125 775.72808837890625 746.6134033203125 554.78875732421875 249.38311767578125 486.059295654296875 211.19793701171875 184.48553466796875 153.8454437255859375 209.336334228515625 184.924468994140625 295.383544921875 247.582122802734375 267.492156982421875 240.0197906494140625 186.5350341796875 244.36346435546875 761.49365234375 900.8150634765625 408.356170654296875 312.62548828125 480.075592041015625 567.798095703125 411.22833251953125 478.6162109375 211.387420654296875 322.565673828125 136.007568359375 135.1507110595703125 198.2592620849609375 213.8577117919921875 129.0612335205078125 224.331329345703125 231.818267822265625 239.96014404296875 311.51025390625 308.161590576171875 980.66424560546875 961.3714599609375 418.654632568359375 78.90229034423828125 69.2606048583984375 112.57444000244140625 128.63958740234375 188.2388916015625 169.11871337890625 270.858917236328125 654.8741455078125 860.20550537109375 1429.2099609375 1304.0408935546875 996.47650146484375 1256.4151611328125 956.783447265625 339.2471923828125 133.6690216064453125 64.610198974609375 37.61751556396484375 72.39847564697265625 115.07340240478515625 165.319793701171875 154.19952392578125 109.79876708984375 122.697174072265625 229.6592864990234375 368.4375 339.021453857421875 276.980316162109375 157.2895660400390625 448.5467529296875 872.40570068359375 771.37701416015625 188.012969970703125 100.37348175048828125 81.08119964599609375 76.4642486572265625 86.98789215087890625 110.8682861328125 nan 
nan 301.492156982421875 200.5872650146484375 219.8725128173828125 263.786224365234375 283.293487548828125 262.1075439453125 252.151641845703125 239.591522216796875 329.68084716796875 195.6916656494140625 237.3178558349609375 308.182159423828125 277.999603271484375 122.62116241455078125 76.22759246826171875 57.684734344482421875 117.65093231201171875 128.6429290771484375 173.369384765625 142.4483184814453125 181.715789794921875 167.55389404296875 172.265167236328125 245.9341888427734375 236.2957763671875 151.125213623046875 142.8161468505859375 150.026885986328125 193.89422607421875 87.571868896484375 42.115818023681640625 91.668548583984375 180.2858734130859375 211.651275634765625 181.1158599853515625 227.67352294921875 206.1895751953125 288.845458984375 327.022552490234375 142.3226318359375 197.910919189453125 180.1739349365234375 195.970977783203125 240.562957763671875 314.0130615234375 269.677459716796875 366.2408447265625 290.752197265625 311.851043701171875 287.746856689453125 235.66522216796875 186.4137725830078125 94.5634002685546875 127.81711578369140625 643.94390869140625 680.12939453125 996.130615234375 1863.3353271484375 2205.237548828125 1524.67138671875 1030.7310791015625 632.42498779296875 682.7408447265625 546.45062255859375 498.9405517578125 1130.1468505859375 1775.3502197265625 2360.025634765625 2633.764404296875 2021.5430908203125 1470.6563720703125 1356.9140625 946.794189453125 644.8499755859375 386.317108154296875 231.653778076171875 198.216949462890625 193.679901123046875 246.148773193359375 249.0238189697265625 165.42041015625 248.861419677734375 347.352386474609375 333.22998046875 264.970794677734375 258.170379638671875 398.217132568359375 335.839599609375 755.78564453125 1356.72900390625 951.5087890625 869.18304443359375 502.964447021484375 256.186614990234375 260.488189697265625 165.4670562744140625 138.517333984375 117.74445343017578125 166.5146636962890625 207.8048858642578125 203.16632080078125 161.6141357421875 150.5004730224609375 137.3403778076171875 236.4654998779296875 239.590911865234375 732.66864013671875 833.8704833984375 410.03570556640625 299.65313720703125 315.819610595703125 306.42425537109375 185.6682586669921875 222.8444366455078125 161.0651092529296875 374.609039306640625 281.8140869140625 164.7027740478515625 242.0803070068359375 251.4193572998046875 243.377044677734375 119.77672576904296875 215.838775634765625 335.809173583984375 270.400604248046875 382.412811279296875 1137.0711669921875 860.5506591796875 315.202239990234375 119.1212310791015625 71.99250030517578125 144.7801971435546875 134.1167449951171875 225.586212158203125 231.121429443359375 109.26385498046875 173.600433349609375 342.290924072265625 863.71893310546875 710.722900390625 409.3670654296875 1066.8138427734375 1418.28759765625 881.3682861328125 373.4736328125 130.6456451416015625 60.307003021240234375 86.215484619140625 87.54773712158203125 254.8425750732421875 245.7249755859375 134.037933349609375 117.5888214111328125 234.184173583984375 595.94793701171875 808.5404052734375 585.9017333984375 194.5265960693359375 738.60272216796875 1403.306396484375 1093.390869140625 335.81414794921875 131.0522003173828125 97.643524169921875 98.24544525146484375 134.422393798828125 146.4368438720703125 nan 
nan 502.01727294921875 250.2094268798828125 179.8778533935546875 284.378662109375 196.538177490234375 437.9312744140625 297.498870849609375 130.8691558837890625 330.570159912109375 356.1385498046875 199.6328125 234.109527587890625 239.55487060546875 165.05462646484375 150.7292938232421875 162.6985626220703125 205.2824859619140625 173.6709136962890625 192.3299713134765625 159.4806060791015625 222.2835540771484375 292.290069580078125 160.7828521728515625 219.8917388916015625 243.7009735107421875 162.1154632568359375 163.648468017578125 305.37127685546875 201.995880126953125 282.328399658203125 109.0075531005859375 94.42482757568359375 124.420684814453125 189.30047607421875 160.094268798828125 126.39041900634765625 226.0665130615234375 265.08929443359375 139.9886016845703125 121.782196044921875 178.7247314453125 230.5078887939453125 223.61016845703125 270.880126953125 248.13116455078125 167.82763671875 166.1598663330078125 272.796356201171875 348.555999755859375 474.9696044921875 224.797210693359375 226.389801025390625 188.38629150390625 387.34295654296875 848.15411376953125 544.1641845703125 892.248046875 1794.600341796875 1974.4710693359375 1106.3067626953125 390.438323974609375 167.734771728515625 185.584136962890625 164.1844940185546875 167.141876220703125 535.26629638671875 1071.3961181640625 1665.31689453125 1975.509521484375 1550.4190673828125 765.3118896484375 700.0782470703125 485.84039306640625 208.5376129150390625 175.134002685546875 404.8372802734375 250.03533935546875 229.473052978515625 250.907470703125 212.5566253662109375 208.910308837890625 137.4948577880859375 266.897552490234375 279.5738525390625 204.2363128662109375 222.22125244140625 251.76837158203125 208.493255615234375 788.75439453125 1281.3084716796875 624.95416259765625 652.517578125 882.3787841796875 702.3798828125 386.4326171875 207.364166259765625 198.298492431640625 140.21234130859375 116.65036773681640625 167.919189453125 295.167144775390625 222.2507476806640625 281.484588623046875 124.4029998779296875 60.3164520263671875 102.19583892822265625 274.105865478515625 303.252838134765625 154.7274627685546875 208.4770965576171875 176.042510986328125 186.8835601806640625 225.26763916015625 192.6382904052734375 316.889251708984375 623.3907470703125 418.3123779296875 184.5924072265625 274.017578125 200.9490814208984375 190.2457733154296875 141.8385009765625 203.1939849853515625 433.440216064453125 594.7957763671875 664.110107421875 1231.5936279296875 726.52862548828125 279.592498779296875 330.857513427734375 188.8982391357421875 91.58383941650390625 102.60799407958984375 97.69245147705078125 182.6385955810546875 109.1104278564453125 90.05710601806640625 162.2752532958984375 427.504791259765625 462.133392333984375 754.72021484375 1354.634765625 1932.6480712890625 1560.6827392578125 1060.52197265625 512.98114013671875 101.30564117431640625 112.89776611328125 109.421234130859375 122.91629791259765625 108.02301025390625 98.5771942138671875 74.4600982666015625 202.3050689697265625 327.451416015625 390.2716064453125 234.397003173828125 94.850555419921875 546.60540771484375 1062.843505859375 945.24017333984375 435.37579345703125 105.644683837890625 154.890594482421875 78.9265289306640625 76.65248870849609375 90.41568756103515625 nan 
nan 473.04364013671875 189.6001739501953125 198.0155792236328125 313.44561767578125 212.0440216064453125 213.646575927734375 285.69036865234375 241.182403564453125 313.028533935546875 233.40423583984375 221.063140869140625 235.2596893310546875 183.150787353515625 248.448486328125 190.840057373046875 302.1754150390625 222.9578857421875 194.799072265625 315.029205322265625 152.5449981689453125 249.980804443359375 221.5935211181640625 214.3686370849609375 269.491668701171875 184.3285980224609375 207.0250091552734375 192.887908935546875 309.339691162109375 237.147796630859375 265.9471435546875 182.8436431884765625 151.705902099609375 196.0108642578125 232.8701629638671875 244.4443511962890625 165.40057373046875 165.970062255859375 193.7328643798828125 110.56995391845703125 120.61951446533203125 200.2537384033203125 247.21710205078125 246.350006103515625 323.94561767578125 334.875762939453125 262.115936279296875 106.47489166259765625 371.775634765625 688.922607421875 446.31298828125 138.1024932861328125 127.71659088134765625 177.4338226318359375 382.585723876953125 1082.3961181640625 1202.1446533203125 1439.7515869140625 2057.966552734375 1824.4130859375 912.3204345703125 218.6549224853515625 131.5578765869140625 126.1977996826171875 123.93968963623046875 129.6346893310546875 169.6997528076171875 440.842376708984375 961.4501953125 1209.4105224609375 1301.9615478515625 611.8984375 589.30108642578125 836.47552490234375 617.27532958984375 223.4068450927734375 212.235107421875 262.18157958984375 175.0862274169921875 222.1317596435546875 178.2823486328125 233.7272491455078125 257.490234375 186.46435546875 185.907440185546875 273.80389404296875 259.96990966796875 257.337921142578125 393.017181396484375 995.36920166015625 1486.89697265625 1089.3973388671875 837.41650390625 616.1728515625 531.77593994140625 693.7266845703125 524.401123046875 232.638885498046875 254.5205230712890625 216.7521820068359375 417.97808837890625 271.056182861328125 448.81463623046875 354.85809326171875 130.3759307861328125 98.71764373779296875 127.05352020263671875 160.8088226318359375 151.032867431640625 351.023223876953125 580.69891357421875 484.633392333984375 240.1248321533203125 338.356658935546875 216.689453125 572.82952880859375 467.643310546875 211.11651611328125 228.62725830078125 284.213287353515625 303.368621826171875 290.216217041015625 276.204986572265625 205.704498291015625 261.97088623046875 725.7333984375 1279.658935546875 1518.2220458984375 760.8154296875 226.7600860595703125 387.697540283203125 299.936004638671875 217.501678466796875 78.6761932373046875 125.50824737548828125 236.6165618896484375 172.4417877197265625 90.9421539306640625 228.2398529052734375 710.14697265625 931.970458984375 1441.6822509765625 1995.7958984375 2523.32958984375 2308.382568359375 1729.2838134765625 908.45501708984375 214.345703125 132.7447357177734375 113.93106842041015625 121.98702239990234375 83.07244873046875 64.6558837890625 64.923675537109375 117.88602447509765625 121.5262908935546875 137.11968994140625 132.1688995361328125 69.15663909912109375 349.927490234375 452.172943115234375 274.264129638671875 219.8448028564453125 190.03741455078125 331.260955810546875 92.860015869140625 67.5043792724609375 80.3784027099609375 nan 
nan 193.01312255859375 214.652191162109375 264.430389404296875 231.87493896484375 250.2560882568359375 182.5128173828125 360.170806884765625 256.364654541015625 295.493133544921875 253.03839111328125 269.76727294921875 276.7958984375 309.902862548828125 240.9632720947265625 224.655548095703125 314.621917724609375 226.183258056640625 195.29443359375 307.305023193359375 179.6241607666015625 336.902435302734375 261.927032470703125 211.199493408203125 281.0465087890625 237.7263336181640625 217.8379669189453125 265.0699462890625 164.9525299072265625 170.9752655029296875 261.912872314453125 184.429290771484375 170.4812774658203125 174.0942230224609375 164.2481536865234375 141.2819061279296875 172.00408935546875 185.5295562744140625 216.0551300048828125 127.62563323974609375 148.1506805419921875 211.3285675048828125 175.2037811279296875 216.966339111328125 225.688568115234375 242.30072021484375 146.811920166015625 131.30059814453125 404.0048828125 435.774871826171875 280.816162109375 134.2031402587890625 105.3680267333984375 176.392913818359375 309.1058349609375 1003.7220458984375 1787.686279296875 2205.35498046875 2481.37353515625 1836.5987548828125 940.1904296875 412.65631103515625 190.362152099609375 220.329925537109375 192.5718231201171875 191.5765228271484375 136.715118408203125 139.748291015625 335.162353515625 523.5625 1161.65283203125 1169.426025390625 1180.1082763671875 1528.609375 1188.7493896484375 440.501678466796875 181.1782073974609375 195.527069091796875 238.683074951171875 296.254425048828125 315.09039306640625 228.83502197265625 278.89013671875 534.8033447265625 236.3490447998046875 136.6813201904296875 167.4083099365234375 138.1085968017578125 422.817535400390625 899.3782958984375 1369.1751708984375 1511.997802734375 961.44775390625 488.38958740234375 606.0037841796875 759.6968994140625 713.041748046875 588.42901611328125 474.48114013671875 444.877960205078125 390.936065673828125 371.10333251953125 460.8223876953125 255.0710296630859375 130.099578857421875 125.5823211669921875 184.1634521484375 318.125946044921875 269.54150390625 203.7904510498046875 309.91339111328125 431.357452392578125 367.6611328125 371.047088623046875 227.194366455078125 509.540313720703125 250.3974609375 308.622100830078125 574.197509765625 568.65283203125 428.66229248046875 288.015167236328125 288.65631103515625 301.83026123046875 162.476531982421875 541.82305908203125 1431.384765625 1710.0887451171875 870.633544921875 209.3513031005859375 294.56292724609375 100.75476837158203125 176.0494232177734375 115.0709991455078125 115.7547454833984375 211.6534423828125 447.875274658203125 340.47808837890625 533.174072265625 1143.6527099609375 1684.1021728515625 2037.9154052734375 2467.329833984375 2946.26416015625 2929 2156.100341796875 1288.8052978515625 581.611572265625 242.340301513671875 151.0909271240234375 207.6684112548828125 97.61483001708984375 44.65906524658203125 55.05431365966796875 175.0722808837890625 266.80584716796875 126.02231597900390625 136.9289703369140625 121.82170867919921875 146.571136474609375 116.8043060302734375 167.0643463134765625 192.9495391845703125 373.378204345703125 278.29718017578125 117.53769683837890625 103.57453155517578125 146.8736572265625 nan 
nan 308.704742431640625 251.1062164306640625 302.177215576171875 231.7752532958984375 359.420440673828125 499.622650146484375 355.188751220703125 285.448150634765625 190.84527587890625 195.8111724853515625 363.591033935546875 229.0487060546875 311.832000732421875 353.530914306640625 245.32745361328125 509.536895751953125 441.98028564453125 295.834625244140625 402.5279541015625 243.625701904296875 332.738677978515625 276.37725830078125 357.221832275390625 282.996002197265625 273.161163330078125 179.8839569091796875 238.5741424560546875 176.9807891845703125 201.4530029296875 170.3763580322265625 178.7930450439453125 257.99468994140625 210.1054534912109375 178.3490447998046875 151.814727783203125 193.183990478515625 353.521881103515625 203.7040863037109375 136.0194244384765625 171.335540771484375 236.43646240234375 216.09637451171875 285.713836669921875 394.825042724609375 184.7430419921875 107.5975494384765625 60.636020660400390625 191.4289398193359375 336.5966796875 387.756103515625 135.629150390625 148.3836212158203125 175.44134521484375 323.5980224609375 1104.27197265625 2044.727294921875 2655.79541015625 2774.583251953125 2094.4775390625 1345.0234375 632.76531982421875 217.0330810546875 195.270538330078125 218.361358642578125 249.8230438232421875 158.2113037109375 123.7073516845703125 120.25022125244140625 243.8273773193359375 910.4681396484375 1562.6363525390625 1669.8154296875 1551.1522216796875 1415.45556640625 791.95159912109375 304.1474609375 194.84576416015625 170.158660888671875 223.422271728515625 171.6152801513671875 283.521728515625 479.74822998046875 405.6956787109375 173.359039306640625 195.5597076416015625 179.106201171875 211.8042449951171875 133.2190093994140625 282.346771240234375 731.50616455078125 1002.4595947265625 668.14886474609375 683.38720703125 635.80517578125 538.137939453125 507.357757568359375 1097.5606689453125 1173.2320556640625 807.6470947265625 298.52392578125 439.104461669921875 305.997772216796875 324.57745361328125 461.645172119140625 194.3253326416015625 175.202178955078125 388.261505126953125 441.4002685546875 209.0349578857421875 163.8076019287109375 206.6511383056640625 267.842926025390625 313.3992919921875 417.73388671875 369.577362060546875 308.4219970703125 241.4235992431640625 341.542510986328125 201.09661865234375 199.821502685546875 203.0970611572265625 172.25750732421875 410.81707763671875 297.797698974609375 446.637786865234375 1279.7763671875 1822.3409423828125 1132.5030517578125 344.102447509765625 171.3341522216796875 190.1894378662109375 116.26441192626953125 171.0824737548828125 253.5882568359375 457.174652099609375 931.52288818359375 877.94049072265625 1123.66943359375 1734.7913818359375 1951.4375 1757.175048828125 1922.4185791015625 2486.4208984375 2830.84130859375 2411.384765625 1829.1116943359375 1209.226318359375 701.2567138671875 236.4849090576171875 311.000396728515625 100.83905029296875 22.4240264892578125 59.33684539794921875 251.19879150390625 219.25567626953125 185.736328125 212.53314208984375 83.69403839111328125 134.6337432861328125 369.67144775390625 409.474212646484375 130.20489501953125 188.50616455078125 167.3043365478515625 240.372314453125 308.485198974609375 188.476959228515625 nan 
nan 552.93548583984375 238.574615478515625 197.4119720458984375 162.9927215576171875 169.5956268310546875 255.4584503173828125 332.918731689453125 254.6044464111328125 175.1054840087890625 284.602996826171875 344.932281494140625 344.0869140625 199.2900238037109375 278.46624755859375 127.54386138916015625 314.266998291015625 503.850921630859375 350.319854736328125 252.9676666259765625 232.30255126953125 278.44842529296875 314.870697021484375 322.34991455078125 449.251617431640625 229.7723846435546875 208.704742431640625 263.18377685546875 200.86334228515625 199.0029296875 173.3585205078125 213.5534210205078125 270.346923828125 155.6641845703125 217.4576263427734375 170.9040069580078125 223.5621185302734375 267.954681396484375 104.24585723876953125 223.46624755859375 227.5802001953125 170.568115234375 154.7268218994140625 221.36798095703125 254.024810791015625 332.685821533203125 142.1557159423828125 76.66901397705078125 180.1151123046875 247.58984375 380.059783935546875 162.894775390625 171.8836517333984375 523.5308837890625 752.31048583984375 1345.2235107421875 1891.5863037109375 2062.386474609375 2359.859375 1905.3243408203125 1061.3675537109375 440.855560302734375 169.3956146240234375 303.689300537109375 228.478912353515625 172.56915283203125 221.2894287109375 158.7924957275390625 111.551849365234375 125.0445404052734375 492.82843017578125 1293.056884765625 1254.688720703125 784.4544677734375 928.31927490234375 959.46356201171875 664.41448974609375 354.473297119140625 295.949493408203125 208.0222625732421875 202.571075439453125 260.933349609375 320.71539306640625 167.248687744140625 154.501251220703125 201.07501220703125 191.2899322509765625 286.518218994140625 143.89398193359375 222.1948394775390625 317.067474365234375 473.7371826171875 310.963775634765625 633.1441650390625 531.1251220703125 671.5247802734375 1034.297607421875 1322.42138671875 1294.84423828125 869.19305419921875 269.47711181640625 305.172760009765625 290.949676513671875 328.431640625 482.3619384765625 345.793975830078125 286.844146728515625 244.774810791015625 595.30462646484375 378.898406982421875 194.325897216796875 244.128570556640625 181.230010986328125 160.4472808837890625 232.89715576171875 297.88824462890625 199.012298583984375 363.8536376953125 195.0668182373046875 115.95442962646484375 146.0372161865234375 375.02435302734375 405.932098388671875 589.56024169921875 215.0682525634765625 398.76458740234375 1187.3065185546875 1932.4493408203125 1457.57861328125 594.94195556640625 217.9343414306640625 399.235870361328125 103.810882568359375 184.723602294921875 696.90631103515625 1037.6822509765625 862.43963623046875 665.8428955078125 1357.6219482421875 1986.034423828125 1504.87451171875 944.38714599609375 1195.106201171875 1841.8128662109375 2102.59619140625 1887.403564453125 1904.76708984375 1748.90380859375 970.3841552734375 214.154083251953125 208.8592681884765625 149.9475555419921875 32.711406707763671875 75.54941558837890625 367.680206298828125 306.245941162109375 155.7054901123046875 167.795440673828125 128.55474853515625 103.46920013427734375 202.2926788330078125 309.94964599609375 189.8038482666015625 106.0108184814453125 157.03515625 146.3870391845703125 187.7256011962890625 118.73552703857421875 nan 
nan 495.804351806640625 196.8896026611328125 177.7759857177734375 197.4720001220703125 206.838623046875 166.7208404541015625 315.364532470703125 217.16326904296875 300.577178955078125 306.1480712890625 342.216705322265625 412.33575439453125 330.6219482421875 170.5341339111328125 189.614776611328125 173.5809783935546875 246.868072509765625 152.2160491943359375 224.8841400146484375 200.00048828125 341.566436767578125 331.256683349609375 377.64605712890625 314.51104736328125 209.52923583984375 178.642486572265625 210.331573486328125 266.15130615234375 184.4599609375 173.3580780029296875 240.5335693359375 347.678436279296875 171.27276611328125 133.322540283203125 118.616119384765625 232.9336090087890625 190.688446044921875 108.3885345458984375 235.07598876953125 176.6934661865234375 158.1399993896484375 144.3426971435546875 271.227447509765625 362.47833251953125 264.932098388671875 238.948028564453125 225.315093994140625 373.47821044921875 205.35797119140625 193.897735595703125 232.7779998779296875 217.78936767578125 781.66607666015625 1336.0416259765625 1531.930419921875 1254.8438720703125 1244.2330322265625 1816.1109619140625 1732.8331298828125 803.84002685546875 254.6491241455078125 353.652984619140625 339.602081298828125 207.5299072265625 97.8852081298828125 375.34478759765625 161.3560028076171875 110.8131103515625 134.42193603515625 364.473968505859375 975.85601806640625 713.998046875 259.37884521484375 304.100311279296875 405.334686279296875 397.709930419921875 274.483306884765625 209.6588134765625 149.1984405517578125 211.62677001953125 403.814971923828125 629.67791748046875 535.23687744140625 376.501739501953125 226.778594970703125 144.0680694580078125 200.6680908203125 239.89202880859375 188.8264923095703125 202.329071044921875 153.7118072509765625 482.412200927734375 939.73626708984375 958.17132568359375 1156.408203125 1540.655029296875 1052.4378662109375 629.34661865234375 748.611572265625 301.896392822265625 302.6065673828125 330.212310791015625 286.6236572265625 194.045623779296875 136.7428741455078125 181.737823486328125 243.873016357421875 571.89825439453125 215.0327911376953125 231.0063934326171875 219.4944915771484375 224.1699981689453125 187.9201202392578125 159.39111328125 207.254302978515625 247.6158447265625 298.84503173828125 230.7842254638671875 193.263641357421875 140.5953826904296875 259.531646728515625 233.459564208984375 444.230072021484375 361.917633056640625 369.7200927734375 1085.06689453125 1789.3367919921875 1658.7777099609375 946.70635986328125 423.781463623046875 353.7828369140625 189.081573486328125 355.631317138671875 979.005126953125 1513.60498046875 937.29852294921875 697.00927734375 1397.2835693359375 1783.2864990234375 1080.7120361328125 416.924560546875 656.4935302734375 1119.9808349609375 1379.4117431640625 1050.2261962890625 1240.332763671875 1710.4844970703125 1212.322265625 418.263519287109375 133.8684539794921875 107.1210479736328125 131.936004638671875 182.5817413330078125 198.194854736328125 264.56805419921875 216.8117523193359375 157.0774688720703125 156.2540283203125 96.1485595703125 56.204776763916015625 93.10573577880859375 138.0082855224609375 82.81470489501953125 87.9658203125 82.81723785400390625 102.5825653076171875 326.3851318359375 nan 
nan 232.3862152099609375 168.0946197509765625 220.203369140625 293.5206298828125 171.5713958740234375 312.330078125 258.60186767578125 311.363189697265625 344.780853271484375 260.612335205078125 286.10009765625 216.4545135498046875 224.6503448486328125 149.74578857421875 153.04156494140625 178.845367431640625 147.857635498046875 213.6011962890625 244.09417724609375 180.24163818359375 255.6219635009765625 257.103729248046875 397.133148193359375 285.786712646484375 209.0739898681640625 266.87017822265625 216.8051605224609375 228.3156890869140625 181.2535858154296875 185.7993316650390625 229.2359466552734375 332.18292236328125 191.4521331787109375 183.301055908203125 143.103546142578125 185.5136871337890625 449.93951416015625 282.039093017578125 183.9626312255859375 133.593414306640625 164.9613189697265625 118.1892852783203125 154.8267059326171875 274.48150634765625 204.8017120361328125 290.3172607421875 201.5638427734375 439.9547119140625 536.15936279296875 567.9122314453125 401.8909912109375 212.84820556640625 596.8436279296875 1033.9129638671875 961.8037109375 601.50115966796875 638.51226806640625 1460.9827880859375 1570.1182861328125 872.164306640625 392.965911865234375 317.22216796875 181.9156494140625 169.8275299072265625 226.12396240234375 311.44952392578125 189.9568328857421875 158.7322998046875 181.7648162841796875 370.555877685546875 817.82177734375 466.281951904296875 360.21905517578125 185.1310272216796875 204.2124176025390625 183.9578094482421875 213.707763671875 206.13165283203125 218.5854644775390625 300.8572998046875 253.8248291015625 434.513946533203125 405.932281494140625 377.99053955078125 320.75823974609375 211.5251312255859375 159.1195068359375 214.1925048828125 184.7610015869140625 179.450439453125 223.5603179931640625 311.39129638671875 579.08758544921875 519.9755859375 851.8289794921875 1216.378173828125 951.39117431640625 397.917022705078125 709.44091796875 499.477874755859375 333.232574462890625 313.48486328125 178.184478759765625 191.5800628662109375 105.73834228515625 160.401519775390625 303.571685791015625 456.591217041015625 220.8192138671875 165.22979736328125 228.8989410400390625 287.76605224609375 249.0508880615234375 150.109161376953125 238.6446990966796875 206.9163818359375 224.172271728515625 239.194366455078125 171.5963287353515625 210.7829742431640625 183.840972900390625 145.6848602294921875 516.16741943359375 695.56207275390625 441.87554931640625 704.7967529296875 1190.2811279296875 1398.1695556640625 657.80865478515625 359.918548583984375 159.54400634765625 136.6118011474609375 435.71466064453125 1160.039306640625 1534.188232421875 1132.36474609375 1153.08740234375 1401.3668212890625 1491.6961669921875 801.28857421875 246.3520660400390625 236.17523193359375 475.465057373046875 903.7470703125 491.032958984375 700.28350830078125 1331.0113525390625 1283.8768310546875 589.3961181640625 323.049652099609375 221.3574676513671875 357.85040283203125 284.38116455078125 201.38568115234375 366.24755859375 307.324249267578125 153.665283203125 107.1769866943359375 148.2572021484375 105.925323486328125 54.028141021728515625 62.268199920654296875 74.105743408203125 93.09470367431640625 87.16550445556640625 73.96161651611328125 341.033355712890625 nan 
nan 527.15106201171875 402.57037353515625 260.191162109375 166.9681549072265625 242.705230712890625 281.02044677734375 234.366485595703125 276.18353271484375 264.45916748046875 207.9853668212890625 199.7736968994140625 192.146453857421875 244.0924224853515625 191.6758270263671875 182.2165985107421875 208.669891357421875 188.255157470703125 226.9262237548828125 199.50360107421875 251.829864501953125 175.501800537109375 335.33892822265625 319.403961181640625 225.3689117431640625 206.36968994140625 197.0928497314453125 417.527740478515625 265.470306396484375 140.77325439453125 168.98828125 230.6898040771484375 333.742919921875 199.8727874755859375 149.682647705078125 151.050537109375 140.1547393798828125 386.56011962890625 532.0858154296875 221.876373291015625 134.2313690185546875 128.889739990234375 174.0701446533203125 143.3852996826171875 180.4144744873046875 262.001495361328125 286.89727783203125 193.257049560546875 347.68707275390625 954.18511962890625 1354.3751220703125 1120.578857421875 828.95965576171875 648.53076171875 383.443695068359375 317.58447265625 255.8067779541015625 542.39837646484375 1141.0528564453125 971.06060791015625 463.381927490234375 211.613372802734375 278.882965087890625 218.2891387939453125 218.1981658935546875 148.2808990478515625 175.269256591796875 166.922760009765625 180.3123779296875 148.09979248046875 336.980682373046875 954.16363525390625 834.76861572265625 643.85009765625 334.576385498046875 139.7825164794921875 238.0474395751953125 430.550537109375 196.170867919921875 130.2801361083984375 138.60943603515625 134.5805206298828125 206.19354248046875 175.43145751953125 257.12213134765625 223.7203216552734375 292.986358642578125 195.3285064697265625 126.547637939453125 170.044677734375 260.545257568359375 219.5785980224609375 220.177520751953125 409.638946533203125 440.765899658203125 578.54412841796875 529.631591796875 946.688232421875 666.55706787109375 663.74261474609375 382.27197265625 484.016082763671875 446.9471435546875 507.440399169921875 371.978607177734375 206.84466552734375 157.94659423828125 245.3170928955078125 207.4735870361328125 175.381439208984375 231.198822021484375 230.433013916015625 340.262847900390625 216.2629852294921875 219.4833831787109375 316.7486572265625 217.18572998046875 176.26239013671875 147.4450225830078125 211.842437744140625 223.970001220703125 287.609649658203125 258.140716552734375 426.918670654296875 540.88214111328125 202.9269866943359375 191.5644683837890625 671.57147216796875 1214.287109375 687.28509521484375 366.645782470703125 257.891265869140625 180.170745849609375 830.56298828125 1494.6986083984375 1146.3546142578125 518.677978515625 733.26568603515625 724.8067626953125 1054.9512939453125 962.82049560546875 559.50933837890625 168.5933837890625 188.051361083984375 746.076416015625 843.52520751953125 595.0948486328125 688.3563232421875 756.66229248046875 507.04705810546875 270.782073974609375 161.6520538330078125 258.4442138671875 276.979522705078125 255.2555389404296875 298.661773681640625 233.92291259765625 174.6424713134765625 197.4031982421875 295.22210693359375 225.7985687255859375 159.331329345703125 151.650054931640625 91.3779754638671875 124.067596435546875 188.131866455078125 214.2735748291015625 145.70892333984375 nan 
nan 464.09686279296875 662.98687744140625 368.014129638671875 160.01544189453125 156.1429595947265625 314.7069091796875 215.377685546875 211.898895263671875 264.202850341796875 220.3107757568359375 173.2842559814453125 215.555206298828125 273.01708984375 172.6060028076171875 154.437713623046875 185.173583984375 343.326934814453125 416.73431396484375 244.79290771484375 236.3423919677734375 261.90606689453125 290.894744873046875 219.3259124755859375 184.4936981201171875 178.4501495361328125 266.690399169921875 531.84344482421875 378.917816162109375 210.30047607421875 191.8158721923828125 198.8471221923828125 275.572662353515625 186.1959075927734375 153.0699615478515625 161.18402099609375 164.3603515625 173.63861083984375 409.23846435546875 364.85699462890625 189.8281707763671875 118.87725830078125 137.006011962890625 133.7113189697265625 184.9549560546875 221.1158599853515625 262.50469970703125 213.6197509765625 531.96893310546875 1257.075439453125 1979.596923828125 1889.234619140625 1299.0205078125 481.95648193359375 152.295867919921875 187.0241241455078125 278.51824951171875 412.429229736328125 585.34442138671875 307.240631103515625 162.1178741455078125 93.420684814453125 176.1200714111328125 245.7708740234375 333.668426513671875 135.6425933837890625 145.24273681640625 150.5747528076171875 122.70352935791015625 132.840484619140625 250.93829345703125 708.67547607421875 460.738861083984375 259.839019775390625 143.3303070068359375 133.4373931884765625 161.0754547119140625 218.7799072265625 230.3490142822265625 208.508941650390625 139.3686065673828125 129.34521484375 162.62884521484375 276.435546875 212.024200439453125 203.57354736328125 398.249908447265625 502.027191162109375 397.924285888671875 203.9813079833984375 250.04412841796875 365.36785888671875 166.2078704833984375 274.6815185546875 221.287689208984375 341.8289794921875 331.522186279296875 762.30426025390625 592.41461181640625 568.8853759765625 490.783599853515625 339.270233154296875 279.23211669921875 459.412139892578125 409.221282958984375 231.082244873046875 243.981842041015625 304.340789794921875 189.0397491455078125 180.0343170166015625 206.8022308349609375 300.458343505859375 506.999969482421875 235.2545013427734375 295.563140869140625 530.3829345703125 243.0313262939453125 227.375274658203125 122.996795654296875 250.371734619140625 165.4304656982421875 224.3073272705078125 254.498199462890625 270.408599853515625 312.35809326171875 131.676422119140625 124.60829925537109375 326.90283203125 943.41546630859375 1036.671630859375 723.90374755859375 372.6600341796875 342.406463623046875 1087.6202392578125 1715.8621826171875 1123.9578857421875 466.4742431640625 646.5596923828125 411.568756103515625 495.076080322265625 688.9132080078125 794.0848388671875 328.61444091796875 199.845062255859375 745.01434326171875 1256.8963623046875 714.79058837890625 590.958740234375 398.77490234375 110.76071929931640625 114.2829742431640625 117.83978271484375 120.18389129638671875 184.8617706298828125 294.990997314453125 379.69482421875 378.230712890625 163.5508880615234375 223.277984619140625 269.484405517578125 128.5926513671875 225.131927490234375 217.0602264404296875 187.719635009765625 93.11414337158203125 210.7018585205078125 196.8212890625 126.929779052734375 nan 
nan 243.008697509765625 606.10845947265625 358.740875244140625 338.742218017578125 365.875518798828125 201.059814453125 201.3409271240234375 220.03472900390625 155.2132720947265625 135.778045654296875 186.4462738037109375 218.62750244140625 213.7538299560546875 160.5239410400390625 182.8091583251953125 257.41168212890625 323.592376708984375 246.178466796875 225.1685028076171875 226.101837158203125 247.4652252197265625 276.762115478515625 193.385650634765625 235.028472900390625 355.097412109375 331.278900146484375 582.7940673828125 225.7915802001953125 221.4170074462890625 159.1611480712890625 176.927520751953125 274.721923828125 199.360015869140625 207.0062713623046875 218.0367279052734375 176.641693115234375 159.3194427490234375 250.5168304443359375 268.782989501953125 306.28936767578125 127.8091583251953125 104.01641082763671875 125.97320556640625 135.0642852783203125 192.5875701904296875 216.225799560546875 166.436187744140625 634.0325927734375 1470.1414794921875 2225.373779296875 2102.13427734375 1274.3682861328125 420.922210693359375 124.5728759765625 168.804534912109375 208.4691162109375 239.202056884765625 289.897613525390625 163.9988250732421875 153.60638427734375 73.0853271484375 156.445159912109375 198.2379608154296875 166.22906494140625 161.592254638671875 112.87731170654296875 184.180877685546875 155.7992401123046875 315.729766845703125 576.59893798828125 768.63214111328125 326.44720458984375 126.2967681884765625 133.0266571044921875 163.2561492919921875 175.5582275390625 267.240081787109375 207.805999755859375 279.896240234375 209.1544342041015625 175.35845947265625 124.4459381103515625 195.3206634521484375 205.596405029296875 189.66156005859375 232.6126861572265625 749.97088623046875 900.88861083984375 352.70703125 290.020050048828125 266.0693359375 202.383331298828125 216.675445556640625 166.7025299072265625 214.6691741943359375 347.993011474609375 655.65118408203125 657.36590576171875 731.792236328125 928.79205322265625 672.776611328125 454.687896728515625 606.09161376953125 458.15716552734375 324.947021484375 212.175506591796875 215.0885009765625 228.4836883544921875 178.7882232666015625 212.1590423583984375 132.100128173828125 405.5235595703125 279.972015380859375 269.020050048828125 233.4433746337890625 405.85333251953125 527.8416748046875 482.470916748046875 299.179656982421875 236.4887542724609375 422.98712158203125 348.573089599609375 118.721710205078125 187.2657470703125 159.0595245361328125 160.4384765625 235.4979095458984375 438.863616943359375 1034.4097900390625 1059.72705078125 447.9638671875 345.979766845703125 1049.712646484375 1721.2744140625 1405.3858642578125 896.32122802734375 749.312255859375 500.02227783203125 162.6013031005859375 164.4070892333984375 393.231109619140625 409.244354248046875 308.81103515625 797.48345947265625 1438.986083984375 1330.6375732421875 1159.0169677734375 658.91851806640625 226.7277679443359375 98.52007293701171875 155.6967315673828125 156.1537322998046875 174.605224609375 240.2072296142578125 332.6085205078125 570.9136962890625 260.63751220703125 108.75539398193359375 262.045501708984375 320.60150146484375 208.7580413818359375 161.2465972900390625 205.48040771484375 106.05462646484375 93.58415985107421875 103.2697601318359375 129.59735107421875 nan 
nan 262.0015869140625 379.1409912109375 251.0919647216796875 268.081573486328125 208.515533447265625 151.0048370361328125 226.658111572265625 181.4845428466796875 192.17120361328125 164.2287445068359375 158.6996002197265625 276.635162353515625 197.504913330078125 197.8132171630859375 258.739349365234375 174.8061981201171875 196.9585113525390625 147.6613311767578125 244.5178375244140625 309.767822265625 294.977508544921875 405.8131103515625 204.201995849609375 222.111968994140625 358.284912109375 408.221160888671875 553.34442138671875 394.313385009765625 199.2185211181640625 161.99676513671875 190.0857696533203125 164.512939453125 238.980224609375 268.45733642578125 209.41259765625 166.7442626953125 198.6258697509765625 273.102447509765625 216.11669921875 208.8514556884765625 180.23211669921875 99.153717041015625 95.0927581787109375 166.99383544921875 272.2103271484375 316.020233154296875 170.805389404296875 391.655364990234375 1125.5274658203125 1881.9603271484375 1604.95751953125 962.00286865234375 484.7276611328125 151.85394287109375 209.42059326171875 271.2662353515625 231.883392333984375 273.070281982421875 290.38201904296875 140.9952392578125 112.1111297607421875 172.0992279052734375 139.84234619140625 154.6138153076171875 208.2203826904296875 221.02764892578125 237.23455810546875 188.9240264892578125 258.381744384765625 925.20556640625 1294.665283203125 697.1290283203125 168.9291839599609375 135.1605987548828125 187.153717041015625 186.8603973388671875 192.6694183349609375 152.193878173828125 194.5560150146484375 257.6927490234375 236.8959197998046875 184.26715087890625 160.980926513671875 174.232025146484375 218.4619903564453125 217.2118072509765625 541.81036376953125 567.851806640625 218.9859619140625 187.548431396484375 237.751678466796875 208.0528411865234375 182.408447265625 294.051239013671875 164.9069671630859375 274.6702880859375 354.797607421875 251.350372314453125 350.05902099609375 530.17828369140625 929.79608154296875 876.24468994140625 523.00604248046875 369.80426025390625 249.7408294677734375 184.004730224609375 226.0337066650390625 172.48291015625 147.275604248046875 334.28399658203125 399.382843017578125 429.16046142578125 251.305999755859375 208.0792999267578125 240.8953857421875 379.636810302734375 368.5684814453125 603.6221923828125 472.91986083984375 212.3019256591796875 254.84423828125 341.739501953125 152.2669525146484375 314.2305908203125 228.3943023681640625 345.845550537109375 208.1248779296875 245.70654296875 680.3189697265625 1307.4163818359375 1094.4444580078125 794.40338134765625 1170.269287109375 1286.049560546875 891.0115966796875 635.43084716796875 266.1904296875 325.503692626953125 266.05474853515625 395.2042236328125 181.47235107421875 334.64154052734375 467.899444580078125 721.4703369140625 999.09619140625 1268.713623046875 1324.5513916015625 595.72711181640625 372.179046630859375 182.836090087890625 238.3408966064453125 160.8189239501953125 121.97612762451171875 223.9600982666015625 342.05596923828125 585 224.2408447265625 155.111328125 224.91278076171875 352.69732666015625 283.9456787109375 252.365447998046875 121.2811126708984375 65.25933837890625 95.41112518310546875 91.49057769775390625 104.52028656005859375 nan 
nan 325.424285888671875 248.4837493896484375 313.656097412109375 402.393646240234375 393.65277099609375 197.2489166259765625 140.2660369873046875 173.2681427001953125 196.350433349609375 206.014251708984375 147.9419097900390625 201.0383758544921875 287.30438232421875 259.71527099609375 261.649566650390625 215.8028411865234375 191.6201324462890625 144.35198974609375 290.573455810546875 464.744140625 257.0491943359375 259.685455322265625 165.760711669921875 175.516693115234375 361.90374755859375 574.64764404296875 277.512725830078125 539.290283203125 243.3492889404296875 182.9841156005859375 177.12664794921875 151.646087646484375 142.256744384765625 183.676025390625 152.4069976806640625 233.6064910888671875 247.418212890625 195.4878692626953125 222.7506561279296875 321.723419189453125 547.4971923828125 319.23809814453125 193.576080322265625 277.332244873046875 220.8176116943359375 434.517608642578125 341.088043212890625 358.66546630859375 945.3563232421875 1394.0565185546875 1079.5753173828125 412.066009521484375 338.0430908203125 191.705596923828125 218.486541748046875 113.0436859130859375 192.8987274169921875 198.8411865234375 192.9546661376953125 188.3785247802734375 171.690185546875 140.608245849609375 136.2498779296875 219.754150390625 276.974456787109375 564.33160400390625 633.91644287109375 229.5254669189453125 276.27197265625 944.761962890625 1416.526123046875 686.8353271484375 153.741729736328125 140.8510894775390625 202.5431976318359375 226.3931732177734375 202.34259033203125 151.7761077880859375 222.5332489013671875 306.831939697265625 247.8526153564453125 205.3057098388671875 167.977294921875 157.6826324462890625 195.84228515625 204.5502166748046875 185.116790771484375 233.9532928466796875 125.7344818115234375 148.90667724609375 149.7274017333984375 216.9647216796875 190.39447021484375 256.283172607421875 339.550506591796875 212.1961822509765625 216.3619384765625 192.367584228515625 339.665618896484375 216.8528900146484375 704.42559814453125 929.078125 414.688262939453125 266.45965576171875 338.702545166015625 226.56878662109375 128.66558837890625 208.018280029296875 292.122344970703125 353.13720703125 342.9166259765625 344.240692138671875 177.315765380859375 399.39215087890625 544.8670654296875 328.928192138671875 282.34075927734375 339.33349609375 519.79388427734375 190.959075927734375 139.674163818359375 195.9081268310546875 366.42523193359375 565.0850830078125 484.140533447265625 341.457763671875 175.2015838623046875 218.376617431640625 584.57550048828125 1408.51513671875 1773.745849609375 1558.4039306640625 1211.7008056640625 639.60638427734375 260.5748291015625 263.675994873046875 124.02455902099609375 283.89453125 526.4263916015625 369.814178466796875 221.0216827392578125 130.48394775390625 142.051025390625 245.4981231689453125 307.668365478515625 670.099365234375 1229.2684326171875 1032.3232421875 585.57989501953125 226.1061248779296875 273.874176025390625 253.2777252197265625 243.5837860107421875 226.767913818359375 332.50811767578125 257.1644287109375 229.417022705078125 138.3524322509765625 234.031890869140625 242.0484619140625 203.0984039306640625 416.276519775390625 326.82098388671875 98.01995849609375 83.561309814453125 192.6797332763671875 166.527801513671875 nan 
nan 229.3005523681640625 197.189666748046875 301.84442138671875 325.851715087890625 286.5576171875 204.4772186279296875 105.78108978271484375 233.102783203125 207.633575439453125 248.765869140625 236.8517608642578125 225.548248291015625 217.780914306640625 177.596221923828125 195.8670806884765625 156.0812530517578125 207.19091796875 176.60272216796875 442.0224609375 553.7667236328125 279.87152099609375 232.779052734375 358.890838623046875 328.064910888671875 167.196746826171875 350.777984619140625 329.332244873046875 381.58892822265625 237.6435699462890625 155.8057861328125 141.9580230712890625 204.51873779296875 185.7336578369140625 122.8334503173828125 158.473541259765625 241.6107940673828125 147.14141845703125 226.792633056640625 346.728240966796875 285.603790283203125 714.16815185546875 468.15185546875 266.050750732421875 267.946624755859375 361.14215087890625 390.142486572265625 325.41754150390625 276.664794921875 596.50518798828125 654.82208251953125 613.696044921875 297.047821044921875 344.99285888671875 214.359405517578125 247.9098968505859375 193.400482177734375 200.3930511474609375 195.6426849365234375 213.52166748046875 186.4730072021484375 204.7479095458984375 192.6702423095703125 141.9915008544921875 194.4015655517578125 231.4935455322265625 806.73486328125 1131.490966796875 645.4827880859375 527.43609619140625 1135.8365478515625 1306.1600341796875 803.644287109375 272.40594482421875 163.597076416015625 194.9601898193359375 182.12445068359375 237.939208984375 215.5294342041015625 159.8594207763671875 338.1163330078125 436.14031982421875 176.0894927978515625 245.9504241943359375 191.446807861328125 178.8163604736328125 173.0634307861328125 164.2016448974609375 254.1190948486328125 163.9013824462890625 142.7575225830078125 163.28759765625 234.457855224609375 240.268798828125 104.9717864990234375 241.4439544677734375 277.3033447265625 194.3175506591796875 170.2004852294921875 209.52337646484375 172.7014617919921875 310.10076904296875 653.640380859375 694.3917236328125 280.902191162109375 390.44647216796875 324.4593505859375 162.7159881591796875 231.96978759765625 332.9144287109375 514.88140869140625 312.473785400390625 230.44366455078125 238.82476806640625 312.3974609375 249.022491455078125 333.827423095703125 334.065765380859375 368.246795654296875 359.022735595703125 198.3231201171875 275.1988525390625 201.111175537109375 438.7298583984375 467.364959716796875 439.358001708984375 185.260498046875 221.4686431884765625 137.3023681640625 527.46124267578125 1152.4866943359375 1932.62255859375 1865.68994140625 974.79534912109375 328.25018310546875 387.721832275390625 150.2228240966796875 77.689605712890625 178.4087677001953125 417.334228515625 206.3504486083984375 283.94439697265625 123.56847381591796875 170.6123504638671875 127.42707061767578125 110.13097381591796875 467.268707275390625 744.92193603515625 920.27203369140625 706.09124755859375 258.27276611328125 246.35357666015625 289.706512451171875 527.8057861328125 285.291534423828125 486.634857177734375 184.964996337890625 210.7337493896484375 158.1598358154296875 163.3482666015625 178.740997314453125 132.47705078125 393.339569091796875 748.7271728515625 345.2418212890625 142.40997314453125 230.201324462890625 107.5128173828125 nan 
nan 255.97039794921875 230.3951873779296875 287.834930419921875 304.011993408203125 232.8698577880859375 231.779693603515625 166.9491729736328125 229.1003265380859375 268.088592529296875 192.4174041748046875 204.4649810791015625 204.0843353271484375 188.9622039794921875 169.8646087646484375 259.6676025390625 171.7163848876953125 141.2851715087890625 172.6573486328125 306.382537841796875 299.46429443359375 478.8406982421875 297.416107177734375 391.21875 486.697509765625 181.30853271484375 195.572052001953125 244.3898773193359375 222.3661041259765625 218.2973785400390625 121.979705810546875 130.93017578125 163.9645538330078125 162.1540679931640625 186.3494720458984375 140.0377960205078125 148.8204193115234375 154.60626220703125 248.87677001953125 167.9718017578125 192.421417236328125 542.54058837890625 406.391845703125 255.815887451171875 177.68890380859375 186.86865234375 163.579071044921875 205.92919921875 367.391571044921875 337.6783447265625 254.1392974853515625 272.2471923828125 325.15380859375 384.285675048828125 169.167633056640625 189.44891357421875 379.766387939453125 350.673858642578125 194.859405517578125 210.4122314453125 218.412841796875 206.684906005859375 216.429412841796875 142.969818115234375 136.7145233154296875 227.9514923095703125 776.12286376953125 1451.2344970703125 1345.893310546875 1174.56982421875 1070.3021240234375 689.72216796875 745.01324462890625 246.6614227294921875 168.9770660400390625 219.7498779296875 171.08642578125 232.26123046875 198.0796661376953125 154.173492431640625 230.222198486328125 415.42327880859375 184.9798431396484375 211.2328643798828125 267.0267333984375 197.39459228515625 143.929901123046875 153.4716033935546875 219.82281494140625 298.496124267578125 136.48895263671875 243.67230224609375 197.234222412109375 188.894744873046875 231.205535888671875 202.0606231689453125 204.7915496826171875 241.001190185546875 278.357666015625 238.804046630859375 340.192169189453125 176.7657012939453125 425.04998779296875 839.96075439453125 674.77716064453125 619.81085205078125 705.9549560546875 429.223785400390625 620.47064208984375 441.1258544921875 865.6881103515625 850.27081298828125 295.21124267578125 215.601409912109375 172.75238037109375 358.16827392578125 444.4046630859375 511.382659912109375 415.13653564453125 352.805511474609375 402.414825439453125 303.100250244140625 232.216094970703125 193.9898681640625 219.186737060546875 233.9755859375 139.1097259521484375 327.510040283203125 186.0330810546875 309.400726318359375 935.53826904296875 1865.155517578125 1975.376708984375 1164.9794921875 756.8450927734375 711.67626953125 271.208221435546875 110.64105224609375 129.6872100830078125 269.81365966796875 217.6130523681640625 273.210174560546875 239.1101837158203125 171.778900146484375 107.98726654052734375 111.9187774658203125 197.42962646484375 204.9575042724609375 612.9464111328125 598.28387451171875 167.6580352783203125 113.19942474365234375 128.78155517578125 254.8001861572265625 183.9801483154296875 333.319366455078125 233.8688201904296875 132.853240966796875 130.5538482666015625 175.500640869140625 337.749786376953125 141.5382232666015625 509.725067138671875 895.40045166015625 524.182373046875 479.91607666015625 159.1921539306640625 68.1661224365234375 nan 
nan 219.5887908935546875 165.5617218017578125 253.40423583984375 220.56939697265625 301.362213134765625 417.226654052734375 86.28395843505859375 103.5064544677734375 204.2111663818359375 158.5205841064453125 169.113037109375 142.399078369140625 171.1399383544921875 221.4567108154296875 226.75531005859375 172.5455780029296875 132.87493896484375 172.642364501953125 372.78607177734375 433.2125244140625 714.6417236328125 286.05926513671875 164.6637725830078125 175.3091278076171875 133.6404876708984375 153.4405975341796875 402.055999755859375 353.019927978515625 290.460540771484375 146.208709716796875 218.5647430419921875 214.733551025390625 123.47381591796875 124.539581298828125 152.5492401123046875 252.044921875 302.526641845703125 351.16162109375 193.4786224365234375 209.100555419921875 404.583740234375 301.442230224609375 318.39190673828125 320.16656494140625 231.0383148193359375 238.4374237060546875 211.6220550537109375 347.208892822265625 206.177032470703125 332.4520263671875 389.450408935546875 487.41839599609375 356.337646484375 239.9391326904296875 249.0555267333984375 415.913604736328125 311.8731689453125 237.718109130859375 188.1697540283203125 183.8728485107421875 190.97296142578125 304.63250732421875 297.92303466796875 233.7971649169921875 200.078399658203125 505.38702392578125 1251.5443115234375 1645.1507568359375 1661.1593017578125 1051.4578857421875 369.027557373046875 647.8118896484375 469.781280517578125 247.7035980224609375 239.8304443359375 235.2890777587890625 256.336669921875 97.6389923095703125 145.552398681640625 295.694091796875 257.1279296875 163.5799560546875 143.920013427734375 306.44366455078125 271.309356689453125 156.66278076171875 185.9483795166015625 272.4410400390625 234.3707733154296875 218.3377532958984375 345.037933349609375 214.3444671630859375 189.01153564453125 349.985626220703125 234.4658966064453125 197.665069580078125 325.671478271484375 171.86578369140625 209.5873565673828125 365.643798828125 237.426605224609375 210.194488525390625 564.50201416015625 753.66180419921875 837.46856689453125 1038.6461181640625 857.86181640625 1170.3214111328125 1128.1622314453125 1451.9049072265625 1446.106201171875 830.65106201171875 573.46148681640625 230.0701751708984375 245.6415557861328125 260.833282470703125 234.42333984375 278.02838134765625 293.723419189453125 459.18914794921875 249.0789337158203125 365.50689697265625 229.0726165771484375 168.12054443359375 215.6983184814453125 171.8405303955078125 239.2004852294921875 172.1510467529296875 541.83001708984375 1268.22509765625 1951.5360107421875 2163.746337890625 1764.0174560546875 1472.5126953125 910.77984619140625 565.4345703125 320.694183349609375 146.641326904296875 218.5663604736328125 291.609527587890625 365.277923583984375 144.1488494873046875 117.461090087890625 141.1503753662109375 86.5675506591796875 108.43785858154296875 108.92601776123046875 548.1112060546875 467.4737548828125 389.732208251953125 337.368927001953125 127.66402435302734375 131.4477386474609375 114.515472412109375 345.2154541015625 387.712982177734375 171.371734619140625 103.7653961181640625 270.712188720703125 271.335235595703125 95.40816497802734375 210.2743377685546875 759.0697021484375 1024.1173095703125 662.7847900390625 226.9149169921875 82.70496368408203125 nan 
nan 187.808837890625 181.0975494384765625 214.346832275390625 243.13128662109375 429.4449462890625 241.5250701904296875 76.23571014404296875 124.11864471435546875 163.48162841796875 346.7293701171875 266.520751953125 192.125396728515625 215.0139923095703125 226.573028564453125 268.976959228515625 208.2566070556640625 150.186279296875 312.147613525390625 549.97039794921875 285.98828125 348.740386962890625 227.5849456787109375 244.12762451171875 251.54278564453125 168.062652587890625 185.8619842529296875 519.5108642578125 294.40899658203125 257.6343994140625 142.4625244140625 221.15936279296875 369.6025390625 185.0230560302734375 81.71856689453125 200.376129150390625 268.599761962890625 219.09173583984375 362.10064697265625 235.1690826416015625 306.3577880859375 178.69195556640625 149.07135009765625 270.925537109375 222.403656005859375 208.5802764892578125 155.7587738037109375 116.88474273681640625 248.1952056884765625 260.17840576171875 341.94140625 293.74371337890625 334.060333251953125 263.95867919921875 222.151763916015625 209.2336578369140625 217.175048828125 236.6789398193359375 192.497283935546875 183.8692474365234375 197.087860107421875 190.667877197265625 230.9055328369140625 263.613616943359375 277.985260009765625 117.98345947265625 272.469451904296875 849.7291259765625 980.02130126953125 1239.7506103515625 1077.0743408203125 592.23394775390625 686.8731689453125 629.15496826171875 387.65234375 176.656402587890625 173.4704742431640625 159.9035797119140625 221.4007110595703125 194.2382659912109375 287.551544189453125 189.6726531982421875 282.085418701171875 252.5430755615234375 254.7698516845703125 187.657073974609375 175.8578033447265625 232.948516845703125 295.0008544921875 220.7126617431640625 259.463165283203125 157.75323486328125 186.40057373046875 202.392059326171875 206.57379150390625 144.49517822265625 233.6536407470703125 533.1007080078125 239.0571441650390625 107.1597137451171875 202.450958251953125 202.806976318359375 252.089324951171875 271.835693359375 242.316192626953125 499.41131591796875 697.10711669921875 501.17242431640625 988.803955078125 1489.3394775390625 2026.840087890625 2046.925048828125 1604.124755859375 1172.5872802734375 516.221923828125 249.470123291015625 420.902984619140625 276.13189697265625 290.10491943359375 349.878631591796875 618.4603271484375 493.832000732421875 435.106903076171875 240.6976470947265625 165.477874755859375 441.925262451171875 331.5972900390625 206.1956634521484375 165.8147125244140625 648.2100830078125 1175.293701171875 1417.5953369140625 1584.924072265625 1707.6727294921875 1811.4935302734375 1504.1915283203125 1030.2891845703125 354.8450927734375 126.53243255615234375 139.0269775390625 183.6172943115234375 381.77484130859375 183.0459136962890625 160.4617156982421875 251.1505584716796875 113.85107421875 102.610687255859375 156.79034423828125 739.534912109375 767.11798095703125 457.045989990234375 665.47454833984375 233.6277618408203125 153.1328125 124.919097900390625 138.109039306640625 294.80572509765625 262.757110595703125 122.7694091796875 153.821075439453125 129.5568695068359375 202.8893585205078125 221.391143798828125 881.1815185546875 1243.38232421875 541.15948486328125 115.2896881103515625 70.10465240478515625 nan 
nan 276.12481689453125 409.778076171875 267.075714111328125 395.186126708984375 652.530517578125 201.034515380859375 158.4309539794921875 284.08831787109375 225.6165618896484375 453.706512451171875 258.528778076171875 314.527069091796875 234.74755859375 272.24981689453125 291.4222412109375 208.85662841796875 171.107452392578125 358.85614013671875 361.930267333984375 173.917144775390625 155.435638427734375 134.9962921142578125 162.518798828125 167.89459228515625 178.46923828125 243.9877777099609375 354.547515869140625 293.01416015625 241.8275299072265625 152.3517608642578125 252.12603759765625 205.4044036865234375 115.76898956298828125 121.9956207275390625 221.644622802734375 271.6678466796875 380.348480224609375 272.455657958984375 187.0532684326171875 324.697967529296875 140.9931640625 150.6024322509765625 188.3557281494140625 175.9054107666015625 190.0848236083984375 146.7368011474609375 168.8154449462890625 227.2103424072265625 242.9497528076171875 448.836151123046875 798.31640625 746.691650390625 375.83355712890625 221.7396240234375 222.383636474609375 366.9107666015625 340.1741943359375 344.60540771484375 155.41461181640625 248.1982269287109375 195.7118988037109375 164.860076904296875 241.7382965087890625 207.7721405029296875 81.4380340576171875 105.35564422607421875 273.124725341796875 287.774261474609375 498.05078125 517.60931396484375 458.774658203125 333.4019775390625 237.451904296875 238.9740753173828125 221.285797119140625 286.831756591796875 170.1810302734375 305.23138427734375 283.398712158203125 192.3094329833984375 256.747528076171875 205.0288543701171875 312.41656494140625 240.7740325927734375 202.8667449951171875 168.7508392333984375 151.259674072265625 193.2444000244140625 192.2399444580078125 188.9793243408203125 141.36871337890625 188.573638916015625 166.680694580078125 158.3031768798828125 192.691009521484375 206.816436767578125 282.941314697265625 148.144866943359375 151.3150787353515625 157.7511749267578125 113.37326812744140625 186.545654296875 219.9394989013671875 192.5984039306640625 260.530426025390625 210.770477294921875 227.439422607421875 456.503509521484375 1107.9276123046875 1743.572998046875 2141.873046875 1994.170166015625 1411.883544921875 896.63592529296875 529.593505859375 251.902374267578125 209.815185546875 186.712738037109375 207.7220458984375 369.0941162109375 538.73272705078125 265.566314697265625 194.2153778076171875 211.983917236328125 339.81744384765625 229.6627960205078125 276.269989013671875 428.569183349609375 890.24560546875 591.0076904296875 662.21630859375 780.853759765625 983.41253662109375 1221.129638671875 1630.1097412109375 1487.9246826171875 840.156494140625 331.52655029296875 245.175811767578125 158.008209228515625 376.2083740234375 157.672149658203125 103.20208740234375 96.8136444091796875 58.67902374267578125 60.16513824462890625 305.74346923828125 942.88580322265625 939.03582763671875 499.90362548828125 846.1834716796875 413.524139404296875 167.466339111328125 157.8990936279296875 150.371337890625 335.12420654296875 446.464599609375 165.6879730224609375 148.4367828369140625 523.8026123046875 695.86773681640625 445.453887939453125 987.34539794921875 1455.2503662109375 822.75311279296875 154.3026885986328125 82.98828887939453125 nan 
nan 401.6563720703125 362.8912353515625 189.5168304443359375 517.764404296875 349.268310546875 145.0797271728515625 135.6687469482421875 263.894561767578125 256.37823486328125 229.47332763671875 286.52490234375 309.447845458984375 308.429412841796875 287.374053955078125 253.2021331787109375 394.279388427734375 207.6271514892578125 222.537933349609375 340.58551025390625 264.77008056640625 262.596435546875 280.693603515625 207.2709503173828125 186.3569488525390625 178.8170013427734375 255.9841461181640625 195.481048583984375 239.1004486083984375 148.422119140625 129.8388824462890625 124.4837799072265625 146.1335906982421875 168.60162353515625 182.9770660400390625 289.567779541015625 214.23095703125 212.593902587890625 248.7981109619140625 146.66876220703125 326.78265380859375 418.041259765625 235.6615753173828125 143.5491943359375 187.203643798828125 211.4505462646484375 168.9066314697265625 164.47503662109375 241.7586669921875 159.1505279541015625 231.2628631591796875 688.90557861328125 966.01251220703125 427.196685791015625 258.780731201171875 360.228515625 240.750885009765625 273.615692138671875 377.8131103515625 174.06072998046875 216.153839111328125 243.089599609375 247.4753265380859375 268.018341064453125 206.2687530517578125 51.055164337158203125 13.576702117919921875 20.409999847412109375 42.326450347900390625 132.4400482177734375 179.738525390625 192.8509979248046875 202.92974853515625 364.412689208984375 466.71600341796875 387.519989013671875 424.022735595703125 197.8810577392578125 331.258514404296875 352.396453857421875 145.4306488037109375 224.552825927734375 211.908355712890625 142.3955230712890625 148.1358795166015625 220.042266845703125 277.979766845703125 247.265625 176.2636260986328125 259.00396728515625 239.4476165771484375 174.236328125 281.197662353515625 189.8043212890625 205.768890380859375 239.8617095947265625 258.336883544921875 373.382781982421875 238.9864501953125 282.3946533203125 199.233489990234375 130.973907470703125 188.896575927734375 368.600616455078125 346.2574462890625 205.099884033203125 243.586181640625 243.2342071533203125 222.8388519287109375 637.533935546875 1005.8624267578125 1481.057373046875 1379.0484619140625 889.3233642578125 510.35186767578125 798.65325927734375 610.8770751953125 374.988433837890625 282.77093505859375 315.1268310546875 176.350555419921875 232.1912994384765625 183.5453643798828125 158.107940673828125 313.834808349609375 290.100311279296875 150.81121826171875 176.9935455322265625 380.283538818359375 824.73651123046875 405.3211669921875 260.9276123046875 454.676605224609375 568.199951171875 584.7398681640625 1351.3616943359375 1931.3924560546875 1446.6873779296875 827.0760498046875 298.284149169921875 242.2995147705078125 540.578369140625 267.9879150390625 90.72759246826171875 85.13977813720703125 54.991573333740234375 117.72589111328125 277.174652099609375 600.30535888671875 1174.3604736328125 1048.3548583984375 921.29217529296875 881.398193359375 597.2005615234375 335.065826416015625 310.480682373046875 134.6882476806640625 204.1854400634765625 265.939788818359375 290.636199951171875 465.972442626953125 1018.78271484375 1144.3094482421875 1371.9254150390625 1185.0975341796875 780.9580078125 227.392303466796875 104.75630950927734375 nan 
nan 282.271636962890625 230.6958465576171875 304.958099365234375 484.82427978515625 168.251129150390625 198.1080322265625 236.2370758056640625 279.507476806640625 280.42236328125 243.553741455078125 255.499420166015625 362.599884033203125 299.70416259765625 426.96624755859375 313.941192626953125 434.735809326171875 383.377838134765625 248.9456329345703125 267.85833740234375 288.1956787109375 202.1982421875 340.877777099609375 253.6229095458984375 234.5320281982421875 328.558868408203125 282.8175048828125 190.9941864013671875 189.625274658203125 67.38108062744140625 33.932842254638671875 72.52468109130859375 158.1226348876953125 175.441650390625 366.71173095703125 328.833709716796875 217.518707275390625 245.387451171875 156.28228759765625 147.600250244140625 234.7030181884765625 396.86285400390625 325.9114990234375 270.385162353515625 173.089599609375 191.3849334716796875 218.694305419921875 173.1336517333984375 261.106781005859375 181.2695465087890625 269.748809814453125 543.78704833984375 903.7547607421875 346.069488525390625 215.871917724609375 225.3847503662109375 225.094696044921875 306.811187744140625 452.360992431640625 196.381256103515625 192.1325225830078125 216.530364990234375 189.3853302001953125 167.8287353515625 147.4896392822265625 59.518436431884765625 22.4860687255859375 9.6040601730346679688 34.885288238525390625 155.3223114013671875 192.3572235107421875 169.9989013671875 131.22650146484375 206.307464599609375 408.3734130859375 507.17547607421875 287.0924072265625 334.00518798828125 396.136199951171875 425.1500244140625 212.4185791015625 171.9174346923828125 148.11224365234375 169.4828948974609375 183.024444580078125 246.274688720703125 297.669891357421875 378.652801513671875 289.48516845703125 243.0102996826171875 298.837738037109375 178.4176025390625 141.25531005859375 252.5208740234375 266.396209716796875 178.645751953125 257.698028564453125 386.0960693359375 353.399169921875 171.0930328369140625 157.75286865234375 220.7814178466796875 195.348388671875 403.76806640625 256.499725341796875 185.31475830078125 396.37872314453125 256.262298583984375 177.269287109375 230.2406768798828125 411.942901611328125 802.2071533203125 622.1873779296875 454.298492431640625 513.84735107421875 504.00677490234375 426.1142578125 329.61407470703125 599.37554931640625 452.57183837890625 216.315338134765625 221.620574951171875 278.172210693359375 109.0797271728515625 219.2411346435546875 462.766357421875 244.1711883544921875 243.2498016357421875 699.15185546875 619.19537353515625 360.95672607421875 295.0948486328125 497.33172607421875 845.8248291015625 822.60260009765625 1485.570556640625 2233.464111328125 1834.48779296875 924.2625732421875 322.506561279296875 680.447998046875 644.4967041015625 281.7384033203125 151.3169708251953125 111.73558807373046875 113.020751953125 132.9625091552734375 187.516571044921875 631.08837890625 1325.7598876953125 1041.575927734375 445.25909423828125 826.21929931640625 545.1463623046875 226.2455596923828125 186.225738525390625 266.392120361328125 195.9643096923828125 417.60430908203125 424.063446044921875 292.083648681640625 689.28411865234375 1178.052001953125 1294.304443359375 681.70501708984375 553.87298583984375 594.77471923828125 244.371734619140625 nan 
nan 577.31463623046875 289.422576904296875 268.540985107421875 415.878509521484375 279.564178466796875 305.04412841796875 180.71502685546875 236.131011962890625 245.91534423828125 246.564544677734375 235.4281158447265625 211.0705718994140625 257.237335205078125 312.03759765625 213.5864105224609375 252.3218994140625 326.3367919921875 250.8306427001953125 441.383056640625 473.767059326171875 350.549285888671875 410.010528564453125 223.0749053955078125 418.22802734375 262.4990234375 153.992584228515625 244.6652984619140625 226.7737274169921875 52.18906402587890625 43.687442779541015625 112.908294677734375 137.7703857421875 125.68285369873046875 285.687408447265625 231.4378662109375 228.04364013671875 303.9481201171875 152.4130859375 181.5907745361328125 144.9295501708984375 209.7490997314453125 527.62713623046875 304.3350830078125 142.77142333984375 151.4976806640625 140.2999114990234375 121.9909820556640625 160.069671630859375 209.011474609375 574.57049560546875 1046.381591796875 991.7901611328125 467.182769775390625 269.572174072265625 183.1452178955078125 289.01837158203125 383.913787841796875 218.896881103515625 278.28375244140625 218.5592498779296875 241.28936767578125 277.6268310546875 235.4006805419921875 233.265960693359375 149.3580322265625 201.0427398681640625 160.0252227783203125 230.967987060546875 339.32806396484375 207.7193603515625 140.8785400390625 107.63547515869140625 179.2057342529296875 187.084625244140625 246.34185791015625 262.400299072265625 251.968231201171875 286.597259521484375 366.91046142578125 317.71929931640625 161.4748992919921875 178.6424560546875 185.654876708984375 211.2993927001953125 218.83978271484375 247.743255615234375 229.0129547119140625 193.3744049072265625 182.0758209228515625 252.885467529296875 295.223541259765625 277.670196533203125 226.7640838623046875 287.46112060546875 204.27618408203125 262.9490966796875 206.1304931640625 322.42681884765625 159.340606689453125 259.61846923828125 366.394561767578125 378.1483154296875 445.4349365234375 153.630462646484375 150.6338043212890625 241.6073455810546875 302.6854248046875 215.1275177001953125 187.6256103515625 309.297454833984375 270.060150146484375 291.60260009765625 639.83270263671875 640.24688720703125 231.6644439697265625 271.81451416015625 458.060699462890625 494.71826171875 174.2760009765625 206.7790679931640625 285.078369140625 512.44696044921875 356.3719482421875 265.127685546875 329.6890869140625 305.036529541015625 621.98944091796875 984.50537109375 811.056396484375 518.0692138671875 497.617919921875 390.315948486328125 1045.7691650390625 1469.799560546875 1935.5340576171875 2518.725341796875 2122.234619140625 1361.3240966796875 933.4630126953125 967.68157958984375 679.0106201171875 419.370330810546875 221.74176025390625 98.07334136962890625 112.13906097412109375 113.82941436767578125 164.105224609375 471.276092529296875 1260.9388427734375 1202.6961669921875 719.90570068359375 834.0352783203125 291.563720703125 216.0536041259765625 300.597259521484375 477.85247802734375 213.92352294921875 403.81304931640625 370.0791015625 318.917816162109375 474.710479736328125 554.47576904296875 929.109619140625 937.2806396484375 889.57196044921875 1082.8721923828125 868.54736328125 nan 
nan 360.948272705078125 191.293182373046875 142.077545166015625 232.194610595703125 489.649261474609375 267.7642822265625 174.6192779541015625 179.1533203125 303.011962890625 389.22509765625 189.760498046875 167.7994232177734375 241.389190673828125 194.1006622314453125 218.319183349609375 230.6748504638671875 199.9739837646484375 389.983734130859375 356.488861083984375 366.673248291015625 520.50372314453125 656.82794189453125 314.575469970703125 239.1748809814453125 286.68621826171875 156.3167266845703125 107.09127044677734375 122.108367919921875 197.1797332763671875 184.3977203369140625 126.30481719970703125 152.282440185546875 255.79852294921875 286.64044189453125 193.188079833984375 226.326629638671875 251.40252685546875 194.489349365234375 231.32623291015625 211.319610595703125 263.994110107421875 370.933319091796875 204.8218841552734375 190.5474395751953125 179.7433013916015625 171.402191162109375 166.4740753173828125 174.459014892578125 201.6827545166015625 504.39398193359375 1060.4503173828125 851.70623779296875 429.6256103515625 289.057037353515625 181.5454559326171875 295.92156982421875 365.01593017578125 206.9337921142578125 229.0352783203125 175.4207611083984375 298.0838623046875 431.7454833984375 361.352508544921875 379.00531005859375 193.631256103515625 275.313232421875 266.429290771484375 415.133697509765625 290.536285400390625 131.248687744140625 160.9086761474609375 393.637054443359375 268.064727783203125 224.8386383056640625 182.047271728515625 260.882598876953125 209.4895477294921875 270.597259521484375 336.819549560546875 358.100433349609375 430.360198974609375 251.6685028076171875 177.8895721435546875 251.0267333984375 202.3865509033203125 264.633697509765625 201.70721435546875 218.9120635986328125 124.17742919921875 183.081939697265625 142.1446380615234375 161.512939453125 141.81329345703125 322.048858642578125 413.40625 389.522003173828125 313.15594482421875 191.8495025634765625 210.0846405029296875 298.21197509765625 244.0511016845703125 362.00421142578125 330.546630859375 175.0208282470703125 212.5831146240234375 238.5469512939453125 256.5406494140625 296.529815673828125 142.115753173828125 154.668212890625 190.3017730712890625 287.089263916015625 425.77545166015625 299.172332763671875 205.407806396484375 795.57867431640625 1169.6055908203125 883.47174072265625 318.652740478515625 176.3319244384765625 189.370025634765625 440.928497314453125 347.79925537109375 256.739532470703125 290.368316650390625 393.963409423828125 982.4873046875 718.88714599609375 467.920623779296875 221.5494842529296875 478.15179443359375 517.71923828125 679.24322509765625 1185.87939453125 1672.656494140625 2212.843017578125 2231.5458984375 1668.0931396484375 1060.0418701171875 577.43145751953125 218.2818603515625 240.7232818603515625 254.2492523193359375 214.6031951904296875 188.0376129150390625 191.4378509521484375 217.4160919189453125 570.31036376953125 1183.64697265625 1375.2969970703125 1325.5023193359375 1211.3580322265625 530.2156982421875 250.67901611328125 334.84503173828125 220.011932373046875 110.44168853759765625 358.1878662109375 318.42626953125 328.86614990234375 563.73779296875 320.152496337890625 731.86663818359375 1062.760986328125 1108.0687255859375 1268.515380859375 1448.26708984375 nan 
nan 286.304290771484375 277.37933349609375 215.086700439453125 248.9319610595703125 290.212158203125 340.5250244140625 412.943389892578125 204.1489715576171875 266.82794189453125 396.952484130859375 232.311981201171875 161.3931884765625 247.455596923828125 217.0280914306640625 146.836181640625 249.8090057373046875 198.4758453369140625 209.9952850341796875 338.4520263671875 624.54302978515625 423.841064453125 366.1409912109375 382.195037841796875 196.6067657470703125 153.6379852294921875 150.384124755859375 162.98779296875 184.7810211181640625 192.8918609619140625 198.9088134765625 189.093170166015625 228.37939453125 370.39166259765625 272.804290771484375 192.1035308837890625 347.447479248046875 220.2630615234375 264.319091796875 286.27288818359375 279.2186279296875 175.2871856689453125 230.3028106689453125 271.624755859375 318.19317626953125 476.40753173828125 314.69769287109375 149.1152496337890625 260.8179931640625 251.3743133544921875 234.6184234619140625 489.746124267578125 781.6165771484375 524.2220458984375 317.356597900390625 191.833160400390625 239.618621826171875 217.7136993408203125 158.1184844970703125 185.1172027587890625 249.6765899658203125 185.2449493408203125 377.3267822265625 293.69818115234375 359.32220458984375 206.6964111328125 256.70159912109375 220.0751190185546875 344.808349609375 225.022430419921875 217.5344696044921875 289.8704833984375 397.528350830078125 154.705596923828125 199.850799560546875 172.924041748046875 197.900665283203125 190.4195098876953125 333.86785888671875 219.7833099365234375 274.88482666015625 434.432891845703125 256.08001708984375 209.9848175048828125 184.4901885986328125 180.790313720703125 279.826324462890625 232.01239013671875 230.6892852783203125 142.9418487548828125 205.1034698486328125 251.6224212646484375 395.5777587890625 217.3697509765625 197.1865692138671875 266.399627685546875 252.8487548828125 368.539337158203125 229.12640380859375 169.01983642578125 188.686798095703125 278.548187255859375 192.868865966796875 209.1996307373046875 341.762054443359375 181.199676513671875 271.746002197265625 199.689727783203125 308.890716552734375 287.1959228515625 184.0491790771484375 215.02642822265625 355.795440673828125 191.35296630859375 132.6351318359375 293.42999267578125 1106.5030517578125 1774.7288818359375 1363.4451904296875 604.83233642578125 177.4108734130859375 160.6854248046875 215.6931610107421875 328.45086669921875 426.435943603515625 171.7649078369140625 440.127288818359375 825.33074951171875 452.778900146484375 207.1083221435546875 151.3101959228515625 468.659454345703125 450.769012451171875 220.1026611328125 500.651641845703125 1093.974609375 1440.489990234375 1704.1732177734375 1148.5814208984375 527.7916259765625 150.656280517578125 90.08187103271484375 231.884735107421875 418.88629150390625 319.76702880859375 206.3372039794921875 319.57568359375 649.1431884765625 657.15142822265625 598.705078125 694.29718017578125 884.4378662109375 1122.9083251953125 638.73931884765625 117.542144775390625 207.4116363525390625 235.162109375 197.0363922119140625 219.98223876953125 350.5009765625 181.151763916015625 197.7797698974609375 238.2173614501953125 285.502716064453125 375.122772216796875 424.9990234375 749.94268798828125 1008.025146484375 nan 
nan 315.79876708984375 271.43804931640625 425.1529541015625 342.743865966796875 217.2610626220703125 276.92108154296875 458.201446533203125 185.7688751220703125 341.143402099609375 304.389190673828125 255.1065826416015625 166.9440460205078125 378.5008544921875 240.0805816650390625 251.75030517578125 312.75341796875 319.267608642578125 293.926727294921875 426.135345458984375 469.095062255859375 283.89691162109375 208.8768157958984375 275.812713623046875 217.809844970703125 141.7369232177734375 255.0218048095703125 286.19818115234375 227.7642974853515625 189.6290130615234375 281.34539794921875 237.5296630859375 208.9405364990234375 266.608489990234375 238.5423583984375 254.7180023193359375 351.9404296875 311.165283203125 287.3988037109375 325.204864501953125 310.735809326171875 263.559539794921875 199.56475830078125 352.1983642578125 362.634918212890625 564.36846923828125 481.91937255859375 171.84942626953125 227.2668609619140625 275.01531982421875 153.3694305419921875 146.580596923828125 362.96563720703125 478.901214599609375 305.38922119140625 451.121337890625 243.551971435546875 178.6551513671875 196.2217559814453125 203.893341064453125 350.867828369140625 218.9132537841796875 397.141510009765625 332.560516357421875 306.422332763671875 186.080108642578125 218.229339599609375 159.144287109375 279.998565673828125 207.073699951171875 318.694427490234375 256.10791015625 190.0194854736328125 159.1468658447265625 121.81927490234375 167.334686279296875 198.703857421875 163.4910430908203125 237.20379638671875 212.6275482177734375 288.0975341796875 333.853790283203125 281.623931884765625 168.462249755859375 197.1889495849609375 201.080322265625 165.104766845703125 206.9928131103515625 232.663330078125 184.865814208984375 171.9777984619140625 324.662933349609375 643.537353515625 525.87713623046875 179.461334228515625 125.63933563232421875 284.00396728515625 386.6107177734375 191.25103759765625 146.51470947265625 187.595458984375 205.1986846923828125 224.514404296875 217.674346923828125 215.88873291015625 174.212646484375 159.884033203125 173.6148834228515625 284.730224609375 211.2151031494140625 190.0380096435546875 177.7860565185546875 193.12548828125 249.01531982421875 240.63604736328125 439.332305908203125 1107.8477783203125 1764.159423828125 1245.4593505859375 422.575042724609375 215.00238037109375 292.61370849609375 330.3621826171875 767.47430419921875 538.45452880859375 172.8283843994140625 387.729888916015625 364.527008056640625 425.86688232421875 193.9394989013671875 284.299346923828125 798.212890625 582.8626708984375 181.9272613525390625 400.074859619140625 617.78179931640625 731.465087890625 1334.8795166015625 890.741943359375 237.6355133056640625 127.16666412353515625 126.511566162109375 146.2422943115234375 204.5187835693359375 136.3341827392578125 78.23724365234375 231.300445556640625 547.81280517578125 466.12615966796875 146.628173828125 171.0213470458984375 245.767822265625 631.242919921875 803.37445068359375 213.010498046875 70.85788726806640625 69.32376861572265625 266.790985107421875 357.296905517578125 429.418670654296875 393.093414306640625 201.8767852783203125 333.173675537109375 206.76922607421875 155.3190765380859375 288.86907958984375 709.9456787109375 676.26531982421875 nan 
nan 275.324127197265625 234.055999755859375 291.819000244140625 334.597503662109375 390.127655029296875 302.989044189453125 236.3957672119140625 208.660125732421875 229.188629150390625 309.169189453125 217.55902099609375 185.525970458984375 292.652435302734375 279.53448486328125 291.20849609375 322.766998291015625 355.9378662109375 211.981597900390625 409.91339111328125 235.091583251953125 423.339630126953125 281.2593994140625 202.69708251953125 197.9287872314453125 168.036041259765625 307.05352783203125 405.092926025390625 475.7666015625 236.9685516357421875 208.8895721435546875 147.9850616455078125 200.7473602294921875 194.4678497314453125 193.1682281494140625 231.259552001953125 250.6922607421875 423.77264404296875 362.581634521484375 205.9805145263671875 227.697509765625 214.1064453125 288.370208740234375 157.4730072021484375 176.877685546875 341.49969482421875 597.42205810546875 235.6214447021484375 184.1621246337890625 181.3004913330078125 206.3793487548828125 127.706268310546875 122.5813140869140625 190.0762481689453125 223.9598236083984375 539.24127197265625 347.30621337890625 306.583526611328125 267.372161865234375 195.046478271484375 251.7455596923828125 284.8089599609375 189.9987945556640625 287.7109375 548.87744140625 499.04888916015625 339.290130615234375 311.50494384765625 294.08837890625 226.93365478515625 250.0582275390625 260.4427490234375 287.159423828125 280.62896728515625 163.2153472900390625 180.721527099609375 178.3319549560546875 161.9040679931640625 230.7918853759765625 324.635986328125 281.5731201171875 147.1787109375 362.29888916015625 213.5466156005859375 182.164215087890625 187.7017059326171875 237.08538818359375 174.0363922119140625 188.3445587158203125 197.1066436767578125 175.1327972412109375 169.43133544921875 326.845123291015625 344.898223876953125 169.4793853759765625 105.20836639404296875 232.7944793701171875 318.84808349609375 208.6101226806640625 190.63751220703125 171.50006103515625 168.5311279296875 217.3072509765625 380.2679443359375 349.1746826171875 267.2449951171875 136.010650634765625 156.931640625 141.6851959228515625 185.8989715576171875 286.288970947265625 407.13934326171875 203.578765869140625 310.6131591796875 516.53759765625 335.04437255859375 813.13555908203125 1506.89013671875 949.37158203125 226.7896881103515625 261.678558349609375 263.021881103515625 203.494964599609375 597.21527099609375 555.232421875 364.4144287109375 232.662109375 232.1311798095703125 348.365234375 519.3037109375 539.42254638671875 491.710052490234375 338.146331787109375 178.1527862548828125 324.66204833984375 251.7039337158203125 533.94549560546875 1339.5347900390625 1189.890869140625 394.00726318359375 112.7815399169921875 134.759521484375 177.728302001953125 254.7050628662109375 141.919036865234375 113.69838714599609375 229.1168060302734375 445.426971435546875 505.971893310546875 308.092926025390625 201.1483306884765625 143.5463409423828125 422.0726318359375 859.44476318359375 362.251373291015625 220.5669097900390625 32.609821319580078125 85.25655364990234375 168.8228759765625 268.543487548828125 297.235687255859375 174.1511077880859375 360.49383544921875 451.202667236328125 207.615966796875 254.421295166015625 497.1905517578125 507.4266357421875 nan 
nan 246.957061767578125 240.6367340087890625 240.7662811279296875 245.27679443359375 231.831085205078125 204.7469024658203125 260.920166015625 367.35308837890625 257.349853515625 350.40692138671875 174.618499755859375 186.698333740234375 212.2885894775390625 185.53466796875 231.595672607421875 277.809600830078125 507.695098876953125 247.6044769287109375 306.20501708984375 385.740570068359375 358.956695556640625 314.527191162109375 194.947296142578125 235.00860595703125 225.260833740234375 248.0081787109375 322.427001953125 273.86309814453125 313.957122802734375 160.88885498046875 144.3725128173828125 181.9020538330078125 181.93951416015625 249.9839935302734375 234.367645263671875 271.234100341796875 371.002777099609375 189.183990478515625 202.9784698486328125 254.9456024169921875 203.9609527587890625 256.660186767578125 191.1563262939453125 145.3136138916015625 212.061614990234375 216.503143310546875 174.721466064453125 142.813568115234375 196.8338165283203125 185.71478271484375 132.0441741943359375 126.42974090576171875 179.216583251953125 424.9229736328125 753.72894287109375 435.503173828125 201.820526123046875 169.4073028564453125 164.0886383056640625 151.792938232421875 247.0397491455078125 218.2726593017578125 141.6904144287109375 341.20684814453125 377.098052978515625 240.1860504150390625 302.634246826171875 208.252044677734375 262.597442626953125 262.79913330078125 281.91729736328125 226.143341064453125 173.3938751220703125 186.753875732421875 172.6827239990234375 171.652252197265625 155.4771575927734375 306.126495361328125 390.295074462890625 191.939727783203125 193.169708251953125 222.8453216552734375 205.1672821044921875 216.15234375 163.983856201171875 187.39984130859375 197.28912353515625 276.95550537109375 255.34918212890625 265.911651611328125 174.2329559326171875 221.7142333984375 198.26416015625 96.3237457275390625 110.5266876220703125 147.37823486328125 151.1468505859375 240.647430419921875 157.4814605712890625 223.4596099853515625 141.0474700927734375 107.07962799072265625 291.385040283203125 611.11053466796875 281.197174072265625 207.119964599609375 158.5367431640625 178.5848846435546875 152.5253143310546875 298.72601318359375 452.28521728515625 190.9498748779296875 224.492156982421875 434.18475341796875 380.068328857421875 866.02667236328125 1461.0838623046875 825.6910400390625 239.467742919921875 178.0643157958984375 200.0250244140625 248.3820343017578125 244.4851837158203125 205.4526214599609375 531.962158203125 324.639801025390625 454.029388427734375 771.6270751953125 802.68170166015625 474.247802734375 266.9317626953125 258.639862060546875 162.85113525390625 412.684967041015625 329.8338623046875 445.04962158203125 1096.0330810546875 1353.142578125 746.18292236328125 242.2427825927734375 111.13364410400390625 278.481201171875 400.89801025390625 229.523101806640625 167.4508819580078125 264.882720947265625 331.570526123046875 241.284912109375 319.290435791015625 242.545379638671875 105.1875457763671875 286.984649658203125 768.26666259765625 369.49053955078125 182.6992950439453125 68.82439422607421875 82.16455078125 149.4743499755859375 106.81453704833984375 213.927886962890625 192.7003173828125 305.704376220703125 273.06494140625 274.736846923828125 163.5384063720703125 168.3415679931640625 222.89776611328125 nan 
nan 258.10272216796875 237.4975738525390625 302.534637451171875 315.66949462890625 220.9937896728515625 210.589630126953125 232.097137451171875 233.7225799560546875 233.6598052978515625 303.429931640625 229.1160430908203125 174.457275390625 198.8531951904296875 205.515045166015625 278.39080810546875 192.7586517333984375 331.0150146484375 348.32501220703125 259.545806884765625 305.057037353515625 286.733062744140625 201.4455413818359375 276.869873046875 261.08087158203125 333.1363525390625 383.497314453125 223.8531494140625 231.57183837890625 267.04132080078125 179.60552978515625 157.55999755859375 158.5313568115234375 169.5291900634765625 401.654205322265625 380.04193115234375 242.8327484130859375 276.339508056640625 257.554351806640625 272.76934814453125 225.1822052001953125 257.9302978515625 254.7018890380859375 402.626556396484375 186.9158477783203125 204.3452911376953125 97.094024658203125 129.8492431640625 146.0114288330078125 154.7442169189453125 202.1887359619140625 133.4784698486328125 91.19891357421875 195.5995941162109375 335.476287841796875 719.11871337890625 365.3455810546875 200.213714599609375 166.4060211181640625 219.1528167724609375 208.8155975341796875 222.991363525390625 209.5042877197265625 126.15866851806640625 306.669219970703125 231.003509521484375 235.5794830322265625 313.34295654296875 402.194305419921875 311.795166015625 266.885772705078125 270.95745849609375 306.393463134765625 207.5460968017578125 190.3083343505859375 245.23486328125 179.1865692138671875 191.4454498291015625 298.857574462890625 166.8717041015625 196.983245849609375 287.8094482421875 174.7114410400390625 201.9864501953125 208.5023345947265625 249.167724609375 214.558197021484375 220.6405487060546875 182.0646514892578125 233.122314453125 392.704742431640625 347.8994140625 193.7559967041015625 176.62408447265625 155.0006256103515625 147.3427734375 107.1370086669921875 159.150970458984375 183.7736053466796875 169.0014495849609375 286.508453369140625 180.9919586181640625 128.929290771484375 167.7168426513671875 271.490081787109375 299.309051513671875 257.495697021484375 200.693756103515625 213.9124755859375 217.8310394287109375 270.561248779296875 282.868133544921875 173.49285888671875 198.28070068359375 193.788787841796875 222.2156829833984375 839.71875 1570.97314453125 1148.298095703125 387.795135498046875 104.1143035888671875 212.7056732177734375 252.9694061279296875 215.1161041259765625 280.867889404296875 524.9013671875 229.3538970947265625 237.7134857177734375 425.643096923828125 483.075927734375 357.240692138671875 314.860595703125 279.37457275390625 414.871795654296875 511.46661376953125 578.13946533203125 377.52734375 662.04119873046875 1378.2716064453125 1097.3790283203125 510.352508544921875 244.2836151123046875 280.261749267578125 519.2081298828125 259.73602294921875 217.43328857421875 346.347137451171875 271.314453125 116.14456939697265625 109.48319244384765625 156.536041259765625 126.41739654541015625 478.94647216796875 911.30084228515625 531.54534912109375 185.562835693359375 212.8631744384765625 446.432952880859375 309.039947509765625 224.5162353515625 428.030548095703125 517.78802490234375 518.716552734375 144.2003936767578125 124.5816802978515625 111.100982666015625 106.93024444580078125 163.4099578857421875 nan 
nan 464.34954833984375 463.692840576171875 209.695526123046875 300.131256103515625 202.495208740234375 153.0482330322265625 156.957763671875 187.39959716796875 217.018463134765625 362.73516845703125 282.62005615234375 149.5438690185546875 227.639984130859375 194.8587799072265625 340.6322021484375 199.9139862060546875 334.415283203125 309.410186767578125 286.33111572265625 334.596527099609375 286.25775146484375 447.18341064453125 320.461090087890625 333.605224609375 473.674072265625 273.569091796875 245.5638275146484375 207.609100341796875 161.0964202880859375 169.8633270263671875 150.528594970703125 233.089569091796875 167.8397979736328125 238.07330322265625 242.9113616943359375 286.117523193359375 186.78387451171875 246.923309326171875 286.30133056640625 209.6243743896484375 203.6077880859375 193.77142333984375 211.2515411376953125 183.363250732421875 360.413330078125 157.4037628173828125 91.00403594970703125 149.50823974609375 181.193817138671875 108.08525848388671875 166.88104248046875 171.5565032958984375 246.9771728515625 180.497314453125 376.325836181640625 237.9767303466796875 210.9902191162109375 145.0396575927734375 166.1502532958984375 207.522064208984375 154.9313201904296875 254.196563720703125 148.4687347412109375 290.60870361328125 269.06231689453125 271.5654296875 186.5780029296875 456.758087158203125 430.630035400390625 339.75860595703125 237.1022491455078125 274.36126708984375 155.7572784423828125 170.361480712890625 190.3810882568359375 246.1622772216796875 206.1913299560546875 205.574371337890625 219.4266357421875 264.359222412109375 173.2293853759765625 192.0494232177734375 166.082275390625 216.076385498046875 303.859649658203125 275.59381103515625 246.8713836669921875 252.8202667236328125 297.05218505859375 294.959716796875 332.95086669921875 233.68426513671875 268.9151611328125 240.8188934326171875 198.79913330078125 135.980133056640625 208.8536834716796875 217.0220794677734375 226.41326904296875 219.3819122314453125 128.607421875 148.085418701171875 120.88042449951171875 277.487213134765625 533.01739501953125 295.984954833984375 277.900726318359375 274.21136474609375 384.88946533203125 384.505523681640625 463.34722900390625 305.377166748046875 244.2910308837890625 300.957122802734375 516.27618408203125 1190.812255859375 1898.2415771484375 1537.81884765625 665.519775390625 174.22772216796875 153.7525787353515625 219.545928955078125 328.2880859375 370.2960205078125 702.772216796875 359.071746826171875 53.985805511474609375 71.51220703125 283.83526611328125 424.81134033203125 427.549835205078125 347.608795166015625 546.62017822265625 410.88519287109375 339.465240478515625 459.52496337890625 883.72747802734375 1377.5126953125 825.97021484375 273.124481201171875 169.1970672607421875 210.224456787109375 238.9993438720703125 256.169891357421875 269.071014404296875 391.69085693359375 166.1767425537109375 194.884033203125 149.325469970703125 155.155303955078125 285.271148681640625 911.61578369140625 1443.1810302734375 1071.2012939453125 512.07879638671875 597.5467529296875 977.32965087890625 519.86474609375 257.508056640625 200.498687744140625 363.903533935546875 644.13409423828125 290.0972900390625 157.904876708984375 127.87767791748046875 174.267333984375 149.47052001953125 nan 
nan 433.679901123046875 691.8175048828125 554.56561279296875 589.10906982421875 280.31640625 252.53741455078125 155.525115966796875 198.500579833984375 118.35108184814453125 408.468505859375 304.784088134765625 158.5598602294921875 317.8829345703125 293.402862548828125 322.998291015625 284.767852783203125 273.607635498046875 309.97186279296875 302.438385009765625 352.896331787109375 293.530670166015625 393.749908447265625 318.6549072265625 349.810272216796875 239.5066070556640625 256.36724853515625 350.6243896484375 411.58929443359375 205.3135223388671875 156.3338775634765625 160.523681640625 200.3075408935546875 199.89886474609375 203.2785491943359375 285.565521240234375 215.808502197265625 171.3663330078125 217.871368408203125 257.288604736328125 298.618255615234375 258.667877197265625 144.879425048828125 161.4552001953125 236.8178253173828125 264.670074462890625 206.0881500244140625 91.650543212890625 115.5587921142578125 182.876556396484375 138.9754791259765625 148.2160797119140625 175.81890869140625 174.2149810791015625 124.4537811279296875 193.9152679443359375 242.5283966064453125 361.29583740234375 247.39508056640625 150.4029541015625 207.4666595458984375 174.1829376220703125 174.6332550048828125 107.71724700927734375 191.506072998046875 271.475982666015625 289.884613037109375 210.8338775634765625 193.85552978515625 439.70220947265625 346.759521484375 322.71966552734375 344.56640625 167.422515869140625 223.4641571044921875 226.745391845703125 174.4961700439453125 225.2547454833984375 235.33319091796875 205.122894287109375 213.4432373046875 271.42352294921875 295.14813232421875 120.96521759033203125 144.3195343017578125 282.452301025390625 241.4253997802734375 333.04083251953125 208.0507354736328125 192.7743682861328125 164.7242279052734375 235.9618072509765625 168.4277801513671875 234.366607666015625 289.94512939453125 302.77557373046875 207.853973388671875 170.3051910400390625 135.68206787109375 270.68017578125 324.363067626953125 196.131011962890625 112.2238006591796875 158.6351318359375 197.5855560302734375 286.6763916015625 207.6697998046875 284.841064453125 319.36956787109375 306.935699462890625 130.96435546875 409.031707763671875 702.0433349609375 612.4466552734375 205.08880615234375 489.177001953125 1248.66064453125 2033.100341796875 1748.79345703125 834.62744140625 206.763031005859375 190.736297607421875 207.950469970703125 274.412628173828125 204.392791748046875 571.6492919921875 594.18316650390625 172.7890777587890625 174.6542205810546875 345.305206298828125 426.5882568359375 647.783203125 503.773834228515625 226.8981781005859375 209.0372161865234375 171.753570556640625 253.095977783203125 661.25714111328125 993.72393798828125 679.0142822265625 290.31805419921875 198.94464111328125 197.6799774169921875 283.76580810546875 210.1714630126953125 163.3291778564453125 190.4392547607421875 161.4833831787109375 310.461822509765625 254.7313232421875 130.19500732421875 195.145233154296875 654.0406494140625 1301.39794921875 1036.9912109375 466.12335205078125 894.2926025390625 891.2119140625 361.42333984375 143.030487060546875 93.95159912109375 146.8553009033203125 352.302734375 361.573577880859375 209.269500732421875 154.143585205078125 263.11138916015625 179.0613250732421875 nan 
nan 541.6884765625 386.699462890625 275.86553955078125 586.4541015625 268.22259521484375 336.796905517578125 258.013275146484375 222.2021026611328125 134.6787567138671875 333.923370361328125 413.75616455078125 177.0298614501953125 259.732879638671875 281.165679931640625 201.919769287109375 251.1211700439453125 192.9921112060546875 235.448883056640625 112.0807037353515625 149.6573333740234375 241.1605072021484375 311.330230712890625 315.61126708984375 247.9623870849609375 370.65936279296875 468.219757080078125 325.594207763671875 518.07781982421875 300.507415771484375 183.0650634765625 176.73883056640625 195.4829559326171875 193.9117279052734375 151.8454437255859375 243.4401092529296875 275.57098388671875 188.8233795166015625 174.978729248046875 332.16094970703125 418.3411865234375 212.3402557373046875 298.13458251953125 262.2764892578125 262.988616943359375 289.790771484375 168.0848541259765625 94.70809173583984375 137.021728515625 201.0318145751953125 142.7974700927734375 187.1472015380859375 195.75927734375 169.6221771240234375 123.17450714111328125 145.8089599609375 177.189208984375 288.735321044921875 392.094696044921875 188.1461639404296875 195.2407379150390625 166.8570404052734375 179.338897705078125 157.090545654296875 324.032073974609375 486.432891845703125 292.596527099609375 189.059051513671875 159.9659423828125 217.8443450927734375 250.253021240234375 295.522552490234375 303.929718017578125 271.834014892578125 196.0110321044921875 228.8534393310546875 183.749725341796875 294.278076171875 237.4341888427734375 251.7883758544921875 171.7500457763671875 249.6168212890625 414.854278564453125 268.3182373046875 126.2942657470703125 125.54300689697265625 275.86932373046875 251.41607666015625 322.0296630859375 184.875823974609375 113.41909027099609375 155.2404937744140625 244.069305419921875 282.789581298828125 295.562255859375 360.149627685546875 254.726715087890625 69.47754669189453125 63.950977325439453125 242.555450439453125 345.33197021484375 204.6835174560546875 126.2577056884765625 163.8216552734375 149.670501708984375 118.4990692138671875 231.1471405029296875 318.33251953125 266.577545166015625 238.282073974609375 176.035430908203125 268.83001708984375 442.170074462890625 624.05596923828125 225.274932861328125 477.466644287109375 1047.040771484375 1636.6094970703125 1739.6983642578125 964.89794921875 389.833709716796875 288.443878173828125 136.9746551513671875 224.229095458984375 243.7620849609375 300.816162109375 365.0362548828125 446.092987060546875 321.8782958984375 427.28216552734375 451.74017333984375 778.52886962890625 450.6065673828125 222.468048095703125 369.16802978515625 298.52752685546875 154.152557373046875 349.707611083984375 481.77227783203125 264.286163330078125 631.552734375 744.67437744140625 521.827392578125 539.3780517578125 305.830963134765625 232.51409912109375 176.0391693115234375 148.063079833984375 173.7536163330078125 163.772552490234375 141.139923095703125 96.44023895263671875 237.1135406494140625 715.5460205078125 1038.8145751953125 855.72418212890625 861.7159423828125 403.6134033203125 161.1262969970703125 176.1833343505859375 97.08153533935546875 183.2066497802734375 198.49969482421875 210.7661590576171875 122.9308319091796875 146.76611328125 159.19189453125 138.6427764892578125 nan 
nan 259.63519287109375 411.276947021484375 402.321258544921875 664.58685302734375 570.8817138671875 325.42596435546875 376.590179443359375 440.501434326171875 178.5680999755859375 196.7272186279296875 253.8446502685546875 206.3330841064453125 222.2841644287109375 281.8155517578125 294.77423095703125 192.272796630859375 119.52344512939453125 124.6219329833984375 170.95574951171875 212.6624755859375 256.953765869140625 229.2426605224609375 254.1649932861328125 215.8389434814453125 308.208099365234375 229.721832275390625 323.350799560546875 360.077545166015625 210.789093017578125 205.62237548828125 174.104736328125 195.6365203857421875 205.0361480712890625 173.732421875 159.5410003662109375 221.232696533203125 266.903656005859375 250.589996337890625 194.5910186767578125 189.824554443359375 221.806671142578125 263.543182373046875 205.1486968994140625 324.133880615234375 330.609893798828125 172.53875732421875 137.6035003662109375 121.62158203125 176.6231689453125 161.3508453369140625 158.161163330078125 233.77557373046875 160.0655059814453125 198.9511260986328125 198.9771728515625 255.0438232421875 240.54095458984375 527.17822265625 458.5498046875 232.2184295654296875 143.8359375 138.112579345703125 193.322357177734375 347.41143798828125 477.998046875 365.514404296875 245.90850830078125 332.65020751953125 281.122528076171875 155.516265869140625 196.310394287109375 331.759979248046875 396.20111083984375 219.2751617431640625 277.64141845703125 181.24444580078125 306.92816162109375 245.4034271240234375 251.4697418212890625 229.1064300537109375 275.318634033203125 332.161285400390625 205.282745361328125 227.048248291015625 178.455352783203125 294.93902587890625 232.1824188232421875 203.0428924560546875 195.2785491943359375 186.7343902587890625 187.118865966796875 252.09295654296875 199.5067901611328125 200.817596435546875 208.8973388671875 260.537506103515625 107.28955841064453125 100.89380645751953125 145.482818603515625 154.2749481201171875 144.600189208984375 176.2686309814453125 171.602325439453125 158.2050018310546875 153.736358642578125 256.61669921875 207.04425048828125 337.168792724609375 365.434051513671875 204.37896728515625 432.80133056640625 378.08978271484375 383.5885009765625 178.051177978515625 449.850677490234375 516.69183349609375 1028.1561279296875 1603.35546875 1005.23748779296875 289.647430419921875 311.849151611328125 212.019500732421875 227.361480712890625 311.383758544921875 365.6282958984375 415.395843505859375 388.302093505859375 195.03216552734375 211.4863433837890625 421.406219482421875 705.430419921875 287.205841064453125 279.1021728515625 183.159637451171875 214.50836181640625 122.81801605224609375 299.263458251953125 378.70556640625 466.823516845703125 1036.2435302734375 1491.4078369140625 1177.2593994140625 524.54168701171875 214.59075927734375 153.05181884765625 175.4605865478515625 228.331207275390625 233.4883880615234375 235.05694580078125 171.84747314453125 135.1625213623046875 134.096923828125 346.182037353515625 1149.4720458984375 1421.6470947265625 913.06597900390625 232.5930328369140625 159.6145172119140625 126.03353118896484375 142.542572021484375 187.7864990234375 197.68511962890625 91.63741302490234375 114.13227081298828125 106.3707733154296875 113.93550872802734375 189.4694061279296875 nan 
nan 316.359405517578125 280.771087646484375 201.03607177734375 530.9061279296875 929.57073974609375 483.720306396484375 170.4856719970703125 443.21246337890625 201.6937408447265625 156.4235687255859375 264.90118408203125 262.4163818359375 305.245880126953125 391.176300048828125 300.21343994140625 186.38629150390625 212.3390960693359375 278.4320068359375 223.8847808837890625 284.425140380859375 143.8356781005859375 123.696197509765625 178.0313873291015625 172.4770355224609375 302.8212890625 324.16668701171875 273.622528076171875 313.023468017578125 258.593170166015625 235.8076934814453125 226.9293365478515625 209.0725860595703125 197.097686767578125 196.3653564453125 195.826690673828125 205.813995361328125 272.15667724609375 363.9686279296875 135.9409332275390625 172.9943084716796875 158.5880279541015625 342.401397705078125 239.796539306640625 194.84490966796875 201.8502044677734375 179.84100341796875 160.9670867919921875 115.0138397216796875 143.49737548828125 161.772705078125 220.654022216796875 284.400054931640625 215.8521728515625 238.1539764404296875 202.6728668212890625 181.125885009765625 279.926422119140625 492.77410888671875 487.34149169921875 242.918182373046875 133.67999267578125 146.9292449951171875 164.1715240478515625 276.3809814453125 250.042755126953125 226.7621307373046875 264.13494873046875 280.60943603515625 270.60162353515625 339.64801025390625 256.826446533203125 247.2228851318359375 188.11810302734375 239.6412811279296875 177.3797454833984375 133.3119964599609375 200.5745391845703125 188.3018035888671875 197.806549072265625 187.026519775390625 224.7635040283203125 235.1063995361328125 145.8143768310546875 185.60504150390625 200.7590484619140625 345.596893310546875 173.1530609130859375 163.6732025146484375 188.472686767578125 194.06280517578125 170.8004913330078125 181.12109375 171.3797607421875 93.76511383056640625 53.219570159912109375 52.07940673828125 48.170795440673828125 195.080596923828125 175.0647125244140625 152.4739227294921875 221.58612060546875 232.66351318359375 175.2032928466796875 159.8576812744140625 232.399810791015625 229.31365966796875 356.633270263671875 312.68115234375 274.47967529296875 215.48956298828125 188.0399932861328125 294.4605712890625 391.22137451171875 256.990692138671875 304.45391845703125 197.7015533447265625 785.69879150390625 1467.5938720703125 1059.90673828125 450.00592041015625 328.84033203125 272.78546142578125 215.160736083984375 660.0029296875 933.521240234375 682.8118896484375 461.830352783203125 208.555206298828125 253.9549560546875 464.49542236328125 561.62054443359375 507.179901123046875 401.171844482421875 204.21649169921875 294.7152099609375 228.3830108642578125 157.593597412109375 498.538238525390625 1035.8070068359375 1631.177001953125 2098.259033203125 1555.564697265625 646.6708984375 178.1350250244140625 287.97882080078125 208.39678955078125 153.5488128662109375 323.74713134765625 192.0988006591796875 229.1027374267578125 223.439453125 238.962158203125 506.060546875 1111.3038330078125 1096.2286376953125 596.33831787109375 237.223236083984375 195.732757568359375 117.98677825927734375 160.34356689453125 177.9380035400390625 211.403656005859375 150.1257476806640625 135.3121185302734375 103.3703460693359375 124.95125579833984375 386.44744873046875 nan 
nan 218.73748779296875 246.3206939697265625 197.709930419921875 270.586639404296875 506.609283447265625 668.45379638671875 271.484954833984375 333.260467529296875 228.79022216796875 187.5207977294921875 263.14630126953125 193.89764404296875 439.369049072265625 256.757965087890625 171.95452880859375 207.3698272705078125 185.6257476806640625 370.82977294921875 255.804840087890625 321.516357421875 222.1641998291015625 193.9924774169921875 220.54791259765625 302.516845703125 260.443695068359375 222.8416595458984375 304.06121826171875 283.942779541015625 369.029144287109375 198.6125946044921875 216.722259521484375 210.364349365234375 232.9875335693359375 161.3272705078125 227.368988037109375 198.3348846435546875 214.708984375 368.17657470703125 194.9827423095703125 121.58879852294921875 33.164836883544921875 136.9040374755859375 142.5413818359375 100.46219635009765625 268.086395263671875 335.34954833984375 147.3599395751953125 126.435546875 103.09963226318359375 140.853240966796875 231.5500946044921875 308.9326171875 191.8993988037109375 233.4165496826171875 198.8850555419921875 79.300445556640625 199.9938812255859375 313.08978271484375 282.949005126953125 100.87586212158203125 126.84148406982421875 167.359130859375 193.144439697265625 147.3488311767578125 182.28692626953125 268.404327392578125 281.70880126953125 174.1923370361328125 98.13597869873046875 207.7646942138671875 240.584442138671875 153.7818450927734375 217.9840240478515625 190.3240966796875 204.8649444580078125 159.80853271484375 139.79852294921875 168.1323699951171875 192.689666748046875 141.747589111328125 188.8078155517578125 205.3619842529296875 249.808990478515625 250.105621337890625 262.628662109375 305.952545166015625 239.0699920654296875 197.857391357421875 180.1757965087890625 253.2807769775390625 184.5653076171875 199.8451690673828125 114.6126861572265625 60.48763275146484375 36.72054290771484375 12.11255645751953125 9.848041534423828125 39.045154571533203125 198.6869659423828125 313.915771484375 171.7330474853515625 208.1707611083984375 252.6520538330078125 196.5711517333984375 354.3193359375 202.4226531982421875 205.7107391357421875 262.5877685546875 182.680999755859375 160.6634368896484375 235.43280029296875 266.9830322265625 367.036956787109375 326.443206787109375 228.904083251953125 235.068267822265625 752.210693359375 1008.135498046875 1163.0596923828125 611.4571533203125 351.45245361328125 413.655609130859375 199.3363494873046875 421.054595947265625 584.35333251953125 349.330108642578125 304.17950439453125 259.652740478515625 146.2992706298828125 230.637359619140625 231.9334564208984375 307.237274169921875 434.061553955078125 293.265350341796875 123.34627532958984375 244.466796875 150.6268768310546875 296.12420654296875 954.65252685546875 1801.037109375 2341.169921875 1679.2442626953125 742.5418701171875 175.322296142578125 281.756561279296875 319.229095458984375 188.705047607421875 378.696258544921875 222.810943603515625 243.8755340576171875 151.833587646484375 310.0194091796875 478.88067626953125 563.06878662109375 675.17755126953125 311.243927001953125 260.168548583984375 162.5836029052734375 147.3908843994140625 286.1990966796875 288.05731201171875 162.17681884765625 206.46038818359375 143.929534912109375 141.6905975341796875 273.785919189453125 420.695220947265625 nan 
nan 250.933135986328125 205.7259521484375 191.03643798828125 192.81378173828125 310.297607421875 667.4716796875 336.203033447265625 365.865753173828125 216.0696868896484375 231.0045166015625 325.486175537109375 245.0755462646484375 246.5248870849609375 137.6462860107421875 139.642913818359375 250.7133331298828125 239.922332763671875 467.404266357421875 491.111968994140625 199.5229949951171875 445.9512939453125 252.8704986572265625 168.35833740234375 213.4982452392578125 234.617919921875 221.82574462890625 244.01629638671875 264.35247802734375 346.392791748046875 175.7052001953125 199.8893890380859375 211.558197021484375 325.465728759765625 301.961395263671875 229.40887451171875 163.7230987548828125 148.523773193359375 226.7994537353515625 102.84593963623046875 67.3546600341796875 41.36624908447265625 63.272064208984375 153.850677490234375 227.8392486572265625 300.384979248046875 430.79638671875 328.130035400390625 260.3955078125 143.051971435546875 166.061614990234375 234.87811279296875 150.04779052734375 108.21863555908203125 151.242706298828125 146.3077392578125 119.8179168701171875 145.953369140625 138.8140869140625 266.74005126953125 346.034332275390625 457.512908935546875 371.25360107421875 203.8183746337890625 116.42182159423828125 244.685699462890625 212.5474090576171875 234.011932373046875 190.1719512939453125 154.0364990234375 268.89996337890625 147.1692962646484375 145.483917236328125 194.1469879150390625 213.6709747314453125 251.5829925537109375 215.2372894287109375 167.2396087646484375 252.29803466796875 235.18499755859375 228.8482818603515625 286.6346435546875 153.99627685546875 209.61224365234375 271.64556884765625 285.78863525390625 241.1798095703125 296.1439208984375 201.5044097900390625 329.983367919921875 356.205596923828125 252.2814788818359375 213.762451171875 211.3643035888671875 69.36652374267578125 16.397823333740234375 8.8589305877685546875 6.2998666763305664063 12.010614395141601563 96.44594573974609375 326.001556396484375 476.767669677734375 286.34039306640625 191.1950836181640625 261.68841552734375 199.910430908203125 273.84002685546875 293.4554443359375 238.63623046875 249.11944580078125 420.489044189453125 238.13525390625 152.4590301513671875 198.071441650390625 217.72235107421875 242.1123046875 580.0635986328125 657.77923583984375 485.626617431640625 1036.0103759765625 771.80029296875 325.701934814453125 188.216583251953125 182.32373046875 149.2047271728515625 284.12310791015625 278.308502197265625 233.4971160888671875 439.124725341796875 252.316864013671875 212.571685791015625 335.983978271484375 321.511077880859375 332.648773193359375 164.6540679931640625 166.9539337158203125 246.499359130859375 213.9833221435546875 177.5724334716796875 616.289794921875 1534.4091796875 2297.20751953125 1801.650634765625 832.86199951171875 247.9875640869140625 507.861968994140625 331.031524658203125 408.676239013671875 483.361053466796875 421.688201904296875 441.217437744140625 317.14581298828125 264.38323974609375 184.7785797119140625 145.53338623046875 429.34515380859375 555.42462158203125 451.870391845703125 255.2502288818359375 140.3149871826171875 417.029144287109375 340.945068359375 126.93418121337890625 183.03265380859375 189.785797119140625 149.3067779541015625 183.71392822265625 155.1288299560546875 nan 
nan 304.848175048828125 256.834686279296875 307.69329833984375 319.515869140625 324.570098876953125 567.12823486328125 592.75372314453125 273.848419189453125 205.3215789794921875 213.070831298828125 210.0667572021484375 231.0710601806640625 182.241607666015625 123.13227081298828125 169.1633453369140625 185.442108154296875 169.78814697265625 337.2822265625 390.302947998046875 356.944122314453125 479.572540283203125 239.93829345703125 217.5438385009765625 280.188232421875 310.9466552734375 497.3699951171875 545.03436279296875 214.1205291748046875 267.733245849609375 225.93194580078125 162.8550872802734375 162.847900390625 168.4544219970703125 246.8306884765625 194.4576568603515625 158.995086669921875 119.21805572509765625 110.95941162109375 152.7206268310546875 191.6174468994140625 281.306671142578125 131.93927001953125 227.1724395751953125 197.9058990478515625 243.2092132568359375 204.3350830078125 258.473175048828125 422.70355224609375 270.662384033203125 184.0029144287109375 486.911865234375 263.132598876953125 262.232177734375 297.456329345703125 257.23907470703125 229.9608612060546875 168.7161102294921875 150.012115478515625 463.70111083984375 738.6005859375 618.731689453125 564.49945068359375 379.766632080078125 181.947998046875 298.18768310546875 219.3174285888671875 262.576080322265625 215.1491546630859375 171.8801422119140625 371.098602294921875 275.869415283203125 165.812957763671875 309.881683349609375 319.60943603515625 255.0666961669921875 253.34686279296875 228.9909210205078125 287.316009521484375 263.1865234375 222.4474639892578125 298.858184814453125 259.313720703125 267.965057373046875 312.79034423828125 328.886749267578125 233.150726318359375 236.8336334228515625 309.19696044921875 215.76318359375 354.140411376953125 301.788177490234375 221.4439849853515625 180.5641326904296875 103.93675994873046875 56.04744720458984375 14.924538612365722656 8.2595376968383789063 12.452356338500976563 37.48789215087890625 270.845062255859375 635.4002685546875 462.242095947265625 167.2067413330078125 171.530181884765625 231.1560516357421875 304.82684326171875 231.1009368896484375 309.151458740234375 275.71514892578125 284.16790771484375 217.4605712890625 221.434478759765625 204.36016845703125 173.6833343505859375 240.9806060791015625 383.5606689453125 437.559326171875 819.58697509765625 1349.9989013671875 1069.5638427734375 339.87091064453125 210.4654693603515625 389.292510986328125 203.2085418701171875 330.730010986328125 400.54779052734375 369.02978515625 389.875091552734375 300.181915283203125 210.5861663818359375 368.90362548828125 351.922760009765625 301.932037353515625 268.419647216796875 249.2736968994140625 352.218017578125 192.416229248046875 117.9535980224609375 563.322021484375 1386.1900634765625 2065.36376953125 1698.4200439453125 765.5189208984375 171.169189453125 257.340972900390625 279.789581298828125 329.0291748046875 200.861541748046875 220.50555419921875 369.6400146484375 526.97869873046875 210.249664306640625 220.824737548828125 129.04217529296875 306.016754150390625 879.952392578125 646.29388427734375 228.3716278076171875 208.2789154052734375 284.692626953125 437.56219482421875 275.970611572265625 293.6551513671875 262.076873779296875 164.7169647216796875 124.9022064208984375 151.79974365234375 nan 
nan 238.988433837890625 144.2356109619140625 139.7478179931640625 219.1636505126953125 236.1613006591796875 540.27032470703125 847.7982177734375 334.086700439453125 129.674896240234375 211.321502685546875 179.2074737548828125 177.25726318359375 104.09285736083984375 143.8228302001953125 169.10528564453125 287.81658935546875 287.379913330078125 215.054046630859375 213.3362579345703125 579.35321044921875 627.8536376953125 290.402740478515625 356.946075439453125 309.81524658203125 194.8902435302734375 372.45404052734375 453.072113037109375 273.379669189453125 210.43463134765625 182.2326507568359375 140.82830810546875 148.2409515380859375 226.6141815185546875 182.883544921875 144.57562255859375 235.6346435546875 179.0412750244140625 243.948974609375 219.875579833984375 144.68182373046875 279.92742919921875 180.0008697509765625 158.701995849609375 289.12640380859375 388.1397705078125 189.0699462890625 194.0235595703125 556.4273681640625 320.249542236328125 138.6648712158203125 305.29766845703125 300.57391357421875 253.24774169921875 286.57733154296875 228.2840423583984375 313.26251220703125 216.6805267333984375 243.5632781982421875 621.29083251953125 490.2889404296875 191.6196441650390625 393.540435791015625 483.51129150390625 150.9195404052734375 316.51007080078125 269.388031005859375 237.47125244140625 184.53765869140625 193.3152313232421875 326.4259033203125 176.0413360595703125 269.791839599609375 219.5061187744140625 291.461517333984375 242.770477294921875 319.956146240234375 151.08953857421875 203.019775390625 337.239501953125 207.30548095703125 309.43243408203125 225.184173583984375 226.4043731689453125 175.1217193603515625 235.16290283203125 287.908355712890625 368.024169921875 222.7052764892578125 196.1920318603515625 353.968902587890625 287.43603515625 137.305419921875 148.802734375 158.1160888671875 156.029449462890625 57.50308990478515625 39.345703125 20.201251983642578125 50.66278839111328125 76.71202850341796875 249.8183135986328125 548.95574951171875 422.900909423828125 252.86767578125 179.7084808349609375 191.685577392578125 323.373687744140625 202.9411468505859375 137.912384033203125 281.367401123046875 228.5900726318359375 183.7246551513671875 265.158447265625 198.3067474365234375 219.3614349365234375 457.010711669921875 663.43548583984375 1262.460693359375 1626.72900390625 1087.260009765625 663.16058349609375 278.527191162109375 319.7607421875 255.04498291015625 482.63494873046875 329.326263427734375 303.328582763671875 230.15167236328125 263.584259033203125 209.96075439453125 185.9129791259765625 220.343536376953125 371.945953369140625 372.948272705078125 302.323577880859375 220.166168212890625 142.5008087158203125 144.27655029296875 351.81005859375 919.23370361328125 1738.8587646484375 1609.4923095703125 712.12957763671875 160.6409149169921875 209.717742919921875 166.91717529296875 355.53253173828125 209.9077606201171875 145.788360595703125 110.48270416259765625 298.439849853515625 221.3762664794921875 175.2593994140625 219.24169921875 463.3046875 717.89984130859375 298.242218017578125 196.80352783203125 241.51409912109375 234.48529052734375 277.526611328125 290.150238037109375 130.7835845947265625 180.7405242919921875 183.383331298828125 166.79638671875 160.0298919677734375 nan 
nan 344.046783447265625 194.9264373779296875 179.5714569091796875 159.7440643310546875 307.49859619140625 410.804840087890625 382.89801025390625 220.454559326171875 157.9810028076171875 128.66839599609375 115.13382720947265625 139.6875152587890625 44.546207427978515625 85.86519622802734375 214.3462677001953125 223.9988250732421875 311.5638427734375 260.805999755859375 346.711669921875 291.2071533203125 367.6890869140625 498.640533447265625 292.80133056640625 206.66229248046875 205.119781494140625 259.677398681640625 211.043212890625 242.5077972412109375 197.1612548828125 261.59075927734375 144.36932373046875 157.41094970703125 314.008514404296875 477.580322265625 268.0067138671875 169.9303436279296875 179.9603118896484375 294.418792724609375 243.8200225830078125 190.686065673828125 203.0213165283203125 225.8369140625 196.013275146484375 225.5021820068359375 395.6029052734375 277.862091064453125 177.965972900390625 402.3782958984375 238.5146026611328125 123.6520233154296875 183.710235595703125 212.9272918701171875 150.999053955078125 181.4921417236328125 219.630645751953125 354.568817138671875 199.73504638671875 248.7581634521484375 403.947540283203125 185.8744964599609375 150.4880523681640625 381.4820556640625 377.051605224609375 178.529052734375 233.8792572021484375 287.546234130859375 397.859832763671875 214.684356689453125 290.19024658203125 210.4334716796875 199.519500732421875 267.765045166015625 382.689849853515625 294.096832275390625 298.086517333984375 348.192474365234375 169.2119140625 119.84735107421875 181.8195648193359375 243.741607666015625 259.898529052734375 233.79888916015625 214.76153564453125 181.381439208984375 272.090240478515625 237.662872314453125 300.808624267578125 260.395477294921875 180.609710693359375 219.9219818115234375 188.792877197265625 222.5323486328125 257.336212158203125 171.2414703369140625 133.3689117431640625 162.727264404296875 238.460784912109375 69.31687164306640625 103.0212554931640625 104.49080657958984375 64.6866302490234375 179.8235626220703125 299.7060546875 346.524993896484375 154.5133056640625 164.701507568359375 282.777374267578125 256.090484619140625 167.3233642578125 275.17718505859375 218.2320098876953125 209.4712982177734375 389.703338623046875 429.935394287109375 293.568328857421875 303.7830810546875 494.530242919921875 1079.1103515625 1416.062255859375 676.38909912109375 403.541259765625 424.957916259765625 186.437469482421875 336.4345703125 368.355255126953125 573.76495361328125 761.528076171875 482.7918701171875 237.8055877685546875 322.978515625 297.01519775390625 186.0208587646484375 277.476654052734375 292.9798583984375 342.14984130859375 162.0626373291015625 132.886749267578125 127.77573394775390625 353.5810546875 871.67303466796875 1741.7138671875 1891.1832275390625 1120.6871337890625 515.6920166015625 210.9133148193359375 144.0579376220703125 371.414031982421875 206.2973175048828125 207.540679931640625 152.911865234375 215.9296875 161.38873291015625 360.446533203125 739.71380615234375 671.09075927734375 338.789520263671875 174.0113372802734375 232.76220703125 302.418060302734375 286.5843505859375 235.851226806640625 383.794158935546875 279.309814453125 199.215240478515625 241.447967529296875 197.6086578369140625 223.976043701171875 nan 
nan 469.436920166015625 315.79803466796875 456.335296630859375 190.8194122314453125 189.03656005859375 390.906280517578125 215.7993011474609375 261.535491943359375 238.0609130859375 201.3531951904296875 67.76958465576171875 81.86434173583984375 46.47607421875 88.0867462158203125 283.69720458984375 404.279052734375 499.324249267578125 401.8878173828125 307.551666259765625 401.99432373046875 254.1514434814453125 288.497314453125 158.489715576171875 108.0066375732421875 159.1358642578125 178.7062835693359375 180.6414947509765625 361.81146240234375 320.343780517578125 295.907012939453125 214.5040740966796875 209.824005126953125 318.623138427734375 462.74383544921875 237.6755218505859375 273.151641845703125 165.3503875732421875 285.26763916015625 425.3746337890625 158.322509765625 210.1810760498046875 215.05828857421875 220.8403472900390625 208.4829559326171875 155.635589599609375 204.204833984375 180.7973175048828125 262.50018310546875 184.0562744140625 132.883758544921875 192.9446563720703125 268.336700439453125 153.7644500732421875 264.3480224609375 184.94012451171875 253.579071044921875 242.2877960205078125 383.020721435546875 766.9085693359375 477.133544921875 238.9060516357421875 336.075714111328125 279.642913818359375 152.1158905029296875 213.0196685791015625 238.9418487548828125 361.388031005859375 177.3218536376953125 264.436737060546875 248.444915771484375 151.5803070068359375 127.80755615234375 177.1617279052734375 225.296234130859375 182.9836883544921875 172.6978607177734375 170.472320556640625 164.7297821044921875 244.9656829833984375 311.86480712890625 268.508392333984375 205.9344635009765625 282.170257568359375 226.637908935546875 259.1563720703125 195.68731689453125 274.310455322265625 159.393524169921875 184.4181060791015625 305.478240966796875 290.709014892578125 239.0603790283203125 313.295379638671875 315.627838134765625 184.617431640625 166.200164794921875 184.6186065673828125 78.930633544921875 119.27645111083984375 159.31549072265625 131.11834716796875 80.3407135009765625 122.56624603271484375 231.257080078125 148.65301513671875 221.0907135009765625 357.0748291015625 165.31634521484375 176.4783782958984375 212.6761474609375 160.84881591796875 305.670135498046875 336.155426025390625 296.1651611328125 422.73968505859375 279.4642333984375 268.745758056640625 831.04974365234375 1347.3199462890625 780.07537841796875 517.6341552734375 665.2318115234375 291.852142333984375 254.4710540771484375 145.914337158203125 381.737945556640625 490.631927490234375 357.103271484375 213.546905517578125 287.941192626953125 179.053863525390625 279.934600830078125 425.43505859375 413.47650146484375 437.1531982421875 241.1633453369140625 201.9111175537109375 237.3084564208984375 342.988922119140625 829.670166015625 1657.349365234375 1938.255126953125 1626.6427001953125 1145.3265380859375 434.557464599609375 154.4613037109375 282.19915771484375 190.3635711669921875 370.916015625 280.857391357421875 164.4179229736328125 233.9932098388671875 521.79229736328125 785.22381591796875 433.388153076171875 156.985076904296875 141.1255645751953125 137.1055145263671875 224.6638946533203125 246.9673309326171875 363.290740966796875 220.9832916259765625 209.896240234375 155.712249755859375 182.550689697265625 147.538330078125 132.593902587890625 nan 
nan 520.032958984375 443.686614990234375 354.536285400390625 171.335052490234375 170.263458251953125 300.9091796875 358.479339599609375 572.24346923828125 287.650054931640625 179.335968017578125 30.0379638671875 19.393524169921875 58.275760650634765625 132.4613800048828125 203.05364990234375 281.9339599609375 312.2020263671875 371.07708740234375 354.538421630859375 342.791595458984375 191.472412109375 153.1627960205078125 174.433258056640625 191.692626953125 235.002197265625 226.2411651611328125 211.0043487548828125 241.8600006103515625 162.742218017578125 247.665313720703125 370.655731201171875 255.310089111328125 212.3296661376953125 234.4814910888671875 265.573974609375 307.832763671875 167.6676483154296875 268.21038818359375 207.39215087890625 182.75970458984375 198.2352752685546875 257.828704833984375 213.112640380859375 190.4623260498046875 126.00321197509765625 168.063323974609375 150.5395660400390625 330.850433349609375 151.7085113525390625 132.134552001953125 191.6412506103515625 204.5233001708984375 164.61004638671875 318.4427490234375 295.082916259765625 217.6919403076171875 363.47357177734375 683.48931884765625 872.5714111328125 506.90521240234375 337.4591064453125 641.3597412109375 414.204376220703125 131.913909912109375 140.635467529296875 201.27655029296875 229.4893951416015625 345.173980712890625 230.93841552734375 221.4823760986328125 221.2445526123046875 162.83929443359375 256.414459228515625 219.09423828125 223.3552093505859375 195.5921783447265625 171.1620941162109375 210.3758697509765625 320.66302490234375 227.2657318115234375 172.9429779052734375 186.2271728515625 319.89996337890625 242.45001220703125 298.821075439453125 138.2174835205078125 226.8950653076171875 188.090545654296875 300.77093505859375 267.72613525390625 315.979217529296875 239.9317779541015625 288.30047607421875 302.9796142578125 131.4722442626953125 186.9749755859375 209.0273590087890625 45.1418304443359375 73.9378662109375 178.27777099609375 136.874755859375 163.584228515625 227.4161376953125 268.17681884765625 320.677001953125 317.997894287109375 293.86785888671875 303.695587158203125 212.9158935546875 198.719451904296875 147.8591766357421875 235.0627593994140625 266.45135498046875 129.8004608154296875 271.003021240234375 354.245086669921875 231.50274658203125 646.5355224609375 949.82861328125 630.1541748046875 418.855987548828125 791.98284912109375 344.4737548828125 261.910858154296875 264.460662841796875 187.5867462158203125 207.7166290283203125 218.6522979736328125 378.41827392578125 453.83697509765625 329.694549560546875 201.340301513671875 286.366668701171875 399.82684326171875 249.9455413818359375 123.303924560546875 163.5002899169921875 152.6021728515625 138.6920623779296875 605.19256591796875 1193.1192626953125 1229.4022216796875 1551.4429931640625 1426.679443359375 642.739990234375 322.834381103515625 224.5279388427734375 271.97314453125 381.82635498046875 139.5726318359375 273.145111083984375 284.519134521484375 273.3734130859375 299.792572021484375 295.296142578125 119.35843658447265625 197.5486297607421875 182.8974456787109375 195.9842376708984375 203.57861328125 291.216217041015625 179.17706298828125 176.3473358154296875 463.972747802734375 273.868194580078125 133.3522491455078125 199.9087066650390625 nan 
nan 793.05670166015625 284.176849365234375 257.92999267578125 271.29364013671875 175.62408447265625 176.608123779296875 322.523834228515625 642.9744873046875 511.383758544921875 89.6374664306640625 6.6599721908569335938 16.437211990356445313 162.243438720703125 197.4695281982421875 135.73724365234375 206.6375732421875 320.7327880859375 255.4619598388671875 388.81060791015625 341.821136474609375 262.217987060546875 269.553863525390625 255.0249176025390625 348.543792724609375 297.7926025390625 181.279052734375 277.998687744140625 202.7247161865234375 279.333648681640625 437.167388916015625 297.6627197265625 351.43499755859375 230.2378082275390625 368.777618408203125 292.3084716796875 270.286590576171875 146.72491455078125 199.9509124755859375 201.6170654296875 258.48095703125 157.9024200439453125 197.8305511474609375 220.5628204345703125 251.1804046630859375 142.6812286376953125 128.4084014892578125 127.26581573486328125 215.077056884765625 194.19451904296875 165.238037109375 156.7726898193359375 204.1934967041015625 184.4865264892578125 281.047088623046875 215.23712158203125 157.6435546875 254.3260955810546875 404.480438232421875 545.64910888671875 239.72894287109375 309.70806884765625 547.54583740234375 378.98681640625 161.414703369140625 133.070159912109375 177.8667755126953125 259.663726806640625 217.2047882080078125 255.1075286865234375 294.02423095703125 218.4084625244140625 202.3322906494140625 174.616302490234375 237.482513427734375 204.0311431884765625 224.7238311767578125 252.826873779296875 226.46087646484375 244.9391326904296875 221.4442596435546875 156.4607391357421875 210.346343994140625 212.2186431884765625 206.73968505859375 188.2892303466796875 259.06353759765625 576.736083984375 255.0260162353515625 252.4382171630859375 237.9801025390625 234.470550537109375 273.75048828125 299.160491943359375 217.3388824462890625 176.333526611328125 261.086273193359375 188.431610107421875 128.6108856201171875 134.052490234375 203.720550537109375 215.98260498046875 216.9731903076171875 170.8312225341796875 126.961181640625 210.4222412109375 160.276336669921875 201.5095977783203125 297.00616455078125 229.282440185546875 202.571746826171875 250.2085418701171875 114.82334136962890625 198.7518768310546875 175.7433013916015625 232.5047607421875 194.5099639892578125 146.28326416015625 396.99090576171875 353.321685791015625 358.167633056640625 571.38787841796875 1099.26220703125 533.25958251953125 232.91546630859375 484.442108154296875 227.4657135009765625 169.1055908203125 186.45343017578125 407.174530029296875 378.762939453125 205.91326904296875 233.8595733642578125 392.88507080078125 305.455108642578125 258.306060791015625 197.9488677978515625 264.5947265625 147.113525390625 120.935333251953125 250.8134613037109375 513.9415283203125 526.78460693359375 1134.0479736328125 1658.924560546875 1277.80908203125 709.2642822265625 244.6293792724609375 344.626739501953125 466.926910400390625 142.125213623046875 198.3972625732421875 295.578521728515625 344.554168701171875 340.6414794921875 183.602691650390625 190.382415771484375 216.7830810546875 231.762725830078125 491.56195068359375 422.300567626953125 230.844757080078125 160.8221588134765625 169.5183258056640625 307.487274169921875 178.47076416015625 180.028564453125 135.7285003662109375 nan 
nan 941.19940185546875 522.7723388671875 237.82098388671875 327.247802734375 183.0150299072265625 244.309326171875 297.514007568359375 265.1322021484375 299.654388427734375 71.2876129150390625 5.4139509201049804688 25.911279678344726563 70.5909881591796875 103.67528533935546875 76.862945556640625 167.387115478515625 397.141998291015625 359.3253173828125 501.5076904296875 444.810028076171875 145.6697540283203125 247.6065521240234375 183.5688934326171875 259.86737060546875 351.187896728515625 142.37457275390625 158.9532012939453125 264.10833740234375 330.2073974609375 430.48406982421875 492.835968017578125 287.86749267578125 201.473907470703125 224.595947265625 234.1739349365234375 228.6356048583984375 161.6730804443359375 260.00543212890625 264.133819580078125 250.2926483154296875 232.6085357666015625 243.578216552734375 322.57159423828125 194.1650390625 158.530670166015625 162.81201171875 183.7908477783203125 274.494873046875 337.77276611328125 181.3472137451171875 239.2354736328125 442.307098388671875 353.30816650390625 138.1047210693359375 183.28704833984375 222.86065673828125 280.144073486328125 205.8926239013671875 284.580108642578125 300.746917724609375 219.8272705078125 355.367706298828125 210.5201568603515625 153.868743896484375 179.3158416748046875 267.4434814453125 410.9168701171875 211.8834075927734375 231.0208282470703125 405.278533935546875 237.263885498046875 288.089080810546875 163.77301025390625 414.067626953125 367.58984375 186.9288787841796875 393.55450439453125 467.998687744140625 348.410919189453125 176.7779083251953125 202.3210601806640625 155.312469482421875 83.57416534423828125 199.8618316650390625 235.1790771484375 237.303558349609375 398.81634521484375 234.8159332275390625 247.4950714111328125 318.73529052734375 175.8762664794921875 160.84271240234375 212.67913818359375 236.873779296875 211.2065887451171875 286.516326904296875 141.6396636962890625 194.1378631591796875 182.9654541015625 153.55084228515625 303.3916015625 206.6818389892578125 244.7027130126953125 190.2233734130859375 184.3403778076171875 158.6321563720703125 231.3425445556640625 348.741729736328125 203.1307220458984375 189.1193389892578125 400.5235595703125 406.765533447265625 127.63741302490234375 146.4095001220703125 178.947479248046875 168.84033203125 157.4632415771484375 364.0474853515625 467.790496826171875 563.293212890625 920.40924072265625 1300.7177734375 644.84765625 166.782928466796875 212.0697479248046875 238.0101318359375 339.798095703125 341.016754150390625 194.977325439453125 143.2963714599609375 179.4893341064453125 247.431488037109375 536.987548828125 344.7493896484375 199.687835693359375 264.166351318359375 366.82684326171875 286.20733642578125 182.7105255126953125 155.049468994140625 342.00274658203125 359.276519775390625 910.23101806640625 1777.4423828125 1842.856689453125 1041.40771484375 291.82220458984375 247.8512725830078125 391.769927978515625 232.2586669921875 175.279998779296875 357.235137939453125 355.961669921875 260.64111328125 279.6959228515625 165.3307342529296875 180.1479949951171875 283.195892333984375 283.287994384765625 253.0892181396484375 261.84490966796875 330.37384033203125 164.0664520263671875 140.6740264892578125 235.630523681640625 199.1529693603515625 117.93402862548828125 nan 
nan 534.95269775390625 289.552093505859375 401.32891845703125 251.762664794921875 199.3561859130859375 162.080169677734375 227.6121673583984375 234.0035400390625 341.517974853515625 170.1200103759765625 7.402126312255859375 36.726531982421875 102.630157470703125 54.693576812744140625 87.60852813720703125 210.0464630126953125 249.02996826171875 242.6642608642578125 227.0010528564453125 315.7371826171875 326.91729736328125 380.959625244140625 218.5514373779296875 230.82220458984375 313.156982421875 235.7175750732421875 151.624237060546875 215.6381072998046875 204.57720947265625 207.6555633544921875 315.442047119140625 432.07122802734375 267.934844970703125 201.3430328369140625 234.6789703369140625 309.033935546875 181.294097900390625 272.529052734375 291.51593017578125 270.890106201171875 218.73345947265625 321.880340576171875 252.648223876953125 174.500701904296875 247.8131256103515625 224.457366943359375 281.036590576171875 300.759857177734375 343.60076904296875 233.7263031005859375 441.810638427734375 719.2818603515625 296.029876708984375 181.7476806640625 252.104644775390625 279.2998046875 205.20574951171875 224.0536041259765625 172.415069580078125 189.4107818603515625 216.488800048828125 401.54815673828125 198.4895172119140625 163.7910919189453125 233.6450653076171875 447.5408935546875 402.470184326171875 276.843597412109375 283.3624267578125 507.141082763671875 288.51318359375 391.039276123046875 183.1082305908203125 292.365509033203125 367.330413818359375 325.2520751953125 236.5552825927734375 232.8940887451171875 225.162445068359375 164.0571746826171875 206.181365966796875 143.3970794677734375 164.4508819580078125 229.5578765869140625 329.059722900390625 219.3625335693359375 205.1099853515625 188.60675048828125 227.0179595947265625 254.607177734375 181.1309051513671875 155.876678466796875 203.61981201171875 169.6788330078125 212.0182342529296875 247.606201171875 142.31817626953125 212.021759033203125 210.898651123046875 177.0664825439453125 169.2686309814453125 181.776641845703125 225.4163665771484375 232.621002197265625 202.4545440673828125 137.8449859619140625 226.903076171875 361.886474609375 288.753082275390625 269.346893310546875 419.837738037109375 542.80059814453125 340.171630859375 212.5242462158203125 266.2796630859375 207.3687744140625 259.45623779296875 643.13494873046875 694.3753662109375 726.27691650390625 1232.167724609375 1164.731689453125 496.322418212890625 215.93218994140625 156.0196380615234375 208.5056915283203125 417.61431884765625 354.366973876953125 191.5469970703125 254.7947540283203125 233.1015625 314.744293212890625 287.784637451171875 351.2135009765625 271.8594970703125 259.42205810546875 299.77227783203125 184.198150634765625 236.782958984375 402.326812744140625 429.046478271484375 334.624176025390625 722.75543212890625 1586.08837890625 1955.0989990234375 1191.5615234375 547.62506103515625 382.433837890625 407.9390869140625 145.697113037109375 248.5562286376953125 294.963714599609375 268.428741455078125 153.516021728515625 156.8355712890625 204.2147369384765625 354.175872802734375 338.518524169921875 186.0694427490234375 214.9615325927734375 140.6312713623046875 181.368072509765625 147.205108642578125 245.265289306640625 211.696136474609375 186.3570098876953125 98.53050994873046875 nan 
nan 536.96331787109375 277.140045166015625 329.8294677734375 418.302642822265625 251.270111083984375 343.013397216796875 220.701141357421875 125.98484039306640625 142.89324951171875 92.3117523193359375 11.422032356262207031 20.604696273803710938 62.817005157470703125 149.0789031982421875 96.19174957275390625 80.9213104248046875 238.0067901611328125 354.67755126953125 172.3043365478515625 192.250335693359375 291.149993896484375 431.036956787109375 380.462554931640625 201.0540924072265625 234.4620361328125 232.2783966064453125 213.0771484375 238.7649688720703125 152.90240478515625 195.3016510009765625 294.468963623046875 325.8587646484375 141.8548126220703125 309.9237060546875 371.237701416015625 310.55987548828125 239.833251953125 211.3745269775390625 278.309722900390625 246.3499298095703125 230.226318359375 352.947784423828125 206.6607208251953125 192.677337646484375 201.6178131103515625 227.4912261962890625 240.5140533447265625 262.86553955078125 348.442779541015625 663.41766357421875 902.03515625 678.44317626953125 235.991180419921875 250.1814117431640625 388.484375 359.7122802734375 318.1260986328125 239.784881591796875 198.8995361328125 202.179107666015625 286.391387939453125 204.0537872314453125 310.29559326171875 233.8969573974609375 274.267059326171875 299.135345458984375 260.8681640625 272.3828125 196.956390380859375 185.9417572021484375 299.247344970703125 339.34185791015625 229.134124755859375 142.462860107421875 173.243865966796875 167.0671234130859375 221.877166748046875 222.4603424072265625 200.98614501953125 170.903594970703125 254.8922119140625 203.6276092529296875 191.7384033203125 158.620880126953125 241.39141845703125 323.133880615234375 173.1422271728515625 270.170989990234375 472.3731689453125 314.96978759765625 193.7095489501953125 192.676971435546875 212.8640899658203125 145.3310394287109375 346.084442138671875 252.750152587890625 251.6259613037109375 197.763580322265625 154.1807098388671875 215.574462890625 239.4419708251953125 226.8641815185546875 280.47515869140625 235.770965576171875 181.523345947265625 173.8182373046875 257.246337890625 318.745819091796875 190.20294189453125 213.7025909423828125 298.3421630859375 265.070220947265625 264.088592529296875 244.51458740234375 225.1105194091796875 130.532318115234375 232.0198211669921875 430.94903564453125 261.855316162109375 449.0535888671875 1146.388427734375 1041.75537109375 344.853790283203125 122.681182861328125 117.5679168701171875 160.70806884765625 180.1851806640625 269.05267333984375 280.8076171875 213.377044677734375 217.5034942626953125 284.511016845703125 375.074798583984375 203.6116943359375 314.48126220703125 170.06500244140625 262.68402099609375 274.29156494140625 222.2158966064453125 372.88702392578125 256.65771484375 146.170166015625 479.174560546875 1410.4940185546875 2047.6988525390625 1446.4237060546875 766.87335205078125 631.7431640625 328.997833251953125 199.0415496826171875 300.02935791015625 591.13958740234375 431.20703125 281.676513671875 254.8670654296875 135.6572723388671875 230.774627685546875 242.8014984130859375 255.506439208984375 176.2694854736328125 131.20654296875 142.9304351806640625 165.2379150390625 199.6162261962890625 127.2872314453125 139.064208984375 84.9482269287109375 nan 
nan 432.990509033203125 387.97430419921875 187.6566925048828125 289.25555419921875 216.97186279296875 337.82025146484375 377.107757568359375 97.15972137451171875 33.078678131103515625 124.83294677734375 144.3868255615234375 42.337459564208984375 33.256526947021484375 66.44086456298828125 38.1753387451171875 38.07633209228515625 87.1761474609375 120.8734130859375 137.09442138671875 225.97601318359375 190.2698516845703125 437.479583740234375 360.5638427734375 247.2294158935546875 319.452911376953125 260.321502685546875 209.5470733642578125 242.8014678955078125 197.716766357421875 210.8280487060546875 187.5940399169921875 277.6907958984375 201.1970977783203125 309.3619384765625 231.154388427734375 286.02239990234375 304.55572509765625 247.144622802734375 227.0892791748046875 195.517120361328125 231.962890625 456.63946533203125 382.838226318359375 204.4809112548828125 208.30963134765625 173.8966217041015625 159.588897705078125 319.505950927734375 479.498321533203125 501.367889404296875 587.65496826171875 521.85699462890625 357.206085205078125 216.9677886962890625 234.675201416015625 168.361602783203125 224.216552734375 318.48724365234375 278.01568603515625 242.19140625 236.614288330078125 193.951507568359375 643.0592041015625 465.898681640625 136.3022003173828125 108.79145050048828125 178.35809326171875 183.493377685546875 172.0737152099609375 167.451507568359375 185.777557373046875 185.9495697021484375 240.2110595703125 161.5610809326171875 170.163177490234375 237.34942626953125 304.6217041015625 269.237030029296875 266.112823486328125 283.5137939453125 489.036163330078125 292.891937255859375 239.5030059814453125 188.4842529296875 180.77728271484375 136.0567169189453125 136.6288604736328125 224.5424652099609375 218.803741455078125 235.6613006591796875 255.3284912109375 328.31512451171875 170.6793670654296875 204.259124755859375 315.363616943359375 195.7322845458984375 254.6308441162109375 228.897674560546875 222.45928955078125 261.49920654296875 473.23779296875 238.15875244140625 242.381072998046875 312.555328369140625 195.1200103759765625 219.2616729736328125 362.7138671875 395.41558837890625 160.1978759765625 257.736236572265625 258.2021484375 258.8179931640625 265.646697998046875 160.281524658203125 260.9052734375 305.30279541015625 344.28662109375 263.552825927734375 489.59954833984375 849.5689697265625 1072.1153564453125 871.5294189453125 493.8486328125 178.3798828125 119.352569580078125 82.55701446533203125 151.689666748046875 204.2716064453125 400.71478271484375 520.7783203125 265.15692138671875 159.4794158935546875 348.5284423828125 297.869842529296875 293.503631591796875 304.314422607421875 228.8182220458984375 262.62103271484375 205.9995269775390625 233.06536865234375 231.2354736328125 188.3878021240234375 606.13623046875 1529.02734375 1979.4681396484375 1228.934814453125 415.454071044921875 504.5408935546875 631.5994873046875 244.809356689453125 438.90911865234375 665.884521484375 399.57611083984375 183.2685394287109375 189.1507415771484375 234.4407958984375 278.777191162109375 128.67218017578125 169.68682861328125 199.4536895751953125 195.918121337890625 203.7082672119140625 143.2719573974609375 277.78094482421875 252.580169677734375 154.29437255859375 82.5557098388671875 nan 
nan 176.728515625 224.4844818115234375 291.9727783203125 318.927581787109375 103.59740447998046875 105.8335418701171875 151.5633087158203125 92.54376220703125 177.387176513671875 241.3943939208984375 317.51263427734375 58.065624237060546875 92.34630584716796875 120.37378692626953125 94.97638702392578125 126.6938018798828125 234.587127685546875 288.35400390625 190.57220458984375 131.917938232421875 276.1861572265625 353.02056884765625 311.94268798828125 191.8152008056640625 190.7419281005859375 178.682342529296875 252.354766845703125 255.778106689453125 175.276947021484375 203.0511016845703125 242.8283843994140625 262.853271484375 259.540008544921875 333.540374755859375 257.4158935546875 323.902008056640625 211.62060546875 254.1753082275390625 200.4763946533203125 258.57086181640625 281.8056640625 394.98321533203125 233.4475555419921875 194.7940673828125 135.246002197265625 242.539337158203125 232.26812744140625 474.70330810546875 473.29510498046875 328.65679931640625 304.37017822265625 226.50555419921875 233.3065338134765625 282.495025634765625 277.081451416015625 298.27630615234375 209.2259063720703125 267.548614501953125 382.617706298828125 316.463958740234375 279.908233642578125 222.9948577880859375 624.16845703125 438.424224853515625 254.01544189453125 204.095855712890625 187.3995513916015625 290.646270751953125 278.50054931640625 319.90618896484375 145.7972869873046875 91.86946868896484375 123.737884521484375 222.41162109375 221.47967529296875 198.98529052734375 258.014251708984375 198.5906982421875 268.8966064453125 237.95709228515625 259.737548828125 175.19415283203125 235.587921142578125 175.3351287841796875 153.8892364501953125 230.7720794677734375 234.4368743896484375 172.14971923828125 224.90399169921875 179.04779052734375 313.7091064453125 284.1025390625 156.76654052734375 116.2834930419921875 155.3108673095703125 235.959503173828125 242.8687896728515625 188.42694091796875 191.7584686279296875 225.76446533203125 472.31170654296875 510.4857177734375 319.390625 409.347991943359375 212.5970458984375 221.38409423828125 281.443878173828125 421.484710693359375 239.3164215087890625 312.518890380859375 253.6981201171875 237.515045166015625 192.6621856689453125 129.2013092041015625 135.5449066162109375 231.12542724609375 142.2985687255859375 131.3254547119140625 400.122711181640625 538.212158203125 502.612060546875 388.22314453125 187.457489013671875 386.546783447265625 222.0501708984375 94.603912353515625 101.7033538818359375 198.92095947265625 219.044342041015625 582.10498046875 555.83856201171875 289.178253173828125 355.522705078125 367.95465087890625 187.4454803466796875 222.295806884765625 220.5759429931640625 206.7916107177734375 220.13848876953125 311.702789306640625 138.7202606201171875 274.11907958984375 912.6107177734375 1759.814208984375 1908.379150390625 1079.307861328125 330.155914306640625 311.2001953125 465.939361572265625 362.387939453125 265.72320556640625 329.003387451171875 196.97088623046875 123.52719879150390625 164.9075775146484375 355.62890625 285.4293212890625 226.1479339599609375 172.570648193359375 212.085052490234375 255.537261962890625 154.611114501953125 141.6094970703125 275.0994873046875 177.849884033203125 178.9393310546875 251.2123870849609375 nan 
nan 341.828094482421875 187.4653167724609375 136.0902557373046875 154.882843017578125 67.7548675537109375 132.4100799560546875 136.560546875 310.804840087890625 295.22625732421875 368.179412841796875 268.15301513671875 40.984966278076171875 63.162548065185546875 122.3006591796875 256.601348876953125 173.6724090576171875 344.338623046875 646.96221923828125 266.205841064453125 144.7606048583984375 128.4170379638671875 143.5392913818359375 186.642364501953125 215.68048095703125 175.4043121337890625 201.5242919921875 326.1055908203125 260.06036376953125 489.9464111328125 287.317840576171875 199.52447509765625 223.528411865234375 258.05914306640625 261.266693115234375 227.5211639404296875 239.5108795166015625 268.0220947265625 211.454864501953125 212.3325653076171875 272.99462890625 220.9694976806640625 336.515533447265625 186.4257659912109375 211.418548583984375 264.1649169921875 592.38348388671875 287.360015869140625 145.38555908203125 385.172882080078125 466.8505859375 405.6644287109375 241.2702484130859375 185.74578857421875 296.260009765625 273.642425537109375 283.684417724609375 484.666595458984375 186.0742645263671875 384.4228515625 268.756561279296875 239.804962158203125 166.728271484375 443.654083251953125 272.12860107421875 300.195587158203125 320.20318603515625 209.5523834228515625 223.4483642578125 259.0325927734375 200.4817047119140625 184.2240447998046875 196.8323211669921875 192.65570068359375 220.474212646484375 284.450286865234375 238.9602813720703125 182.8597412109375 264.486328125 217.36431884765625 249.575225830078125 325.639984130859375 214.0341796875 321.87451171875 220.3365631103515625 147.798126220703125 242.3148193359375 294.8050537109375 176.637542724609375 189.4908905029296875 142.4858856201171875 231.345123291015625 195.451263427734375 97.19898223876953125 81.012451171875 119.2766265869140625 212.66558837890625 241.0672760009765625 393.68310546875 230.984405517578125 104.93304443359375 219.5680694580078125 417.202301025390625 334.649627685546875 247.7588958740234375 223.2646942138671875 221.98583984375 149.6157073974609375 292.703338623046875 217.0688934326171875 264.782257080078125 145.1767730712890625 175.7552642822265625 223.2608642578125 154.4542388916015625 242.3763580322265625 279.091888427734375 186.0641326904296875 162.4732513427734375 201.137939453125 374.5369873046875 407.720977783203125 181.415679931640625 333.77728271484375 495.44775390625 274.702606201171875 168.1422271728515625 170.1002349853515625 174.68341064453125 231.8793182373046875 416.18212890625 553.0360107421875 529.64111328125 362.240997314453125 355.6241455078125 304.846099853515625 264.606689453125 229.2304534912109375 255.07794189453125 200.5124359130859375 288.91851806640625 193.8949432373046875 258.35662841796875 954.98260498046875 1601.58984375 1472.324462890625 1053.748779296875 324.075836181640625 181.769012451171875 389.489288330078125 370.98150634765625 255.26007080078125 182.3596954345703125 131.70489501953125 120.4019927978515625 263.235504150390625 227.2650299072265625 225.312042236328125 150.9963531494140625 138.4171600341796875 219.4539947509765625 279.844696044921875 140.084930419921875 106.17426300048828125 319.42724609375 349.41326904296875 382.0081787109375 296.48699951171875 nan 
nan 410.5394287109375 157.91192626953125 74.766937255859375 74.9566192626953125 109.19097137451171875 158.2676849365234375 191.3909912109375 364.5318603515625 232.3053741455078125 532.8701171875 349.490631103515625 32.459560394287109375 64.56751251220703125 118.82480621337890625 254.2140045166015625 242.455596923828125 462.33380126953125 355.421356201171875 230.4279022216796875 171.1691131591796875 125.25872039794921875 107.71732330322265625 106.84637451171875 140.342498779296875 321.362091064453125 259.63226318359375 289.84210205078125 333.7347412109375 625.564453125 308.8841552734375 250.0850372314453125 361.993743896484375 380.22723388671875 229.61767578125 271.5018310546875 241.4087982177734375 322.89361572265625 361.61053466796875 283.004241943359375 314.0303955078125 213.9693450927734375 221.3520660400390625 304.702972412109375 230.0458984375 527.68231201171875 710.8095703125 397.939422607421875 96.20548248291015625 312.831207275390625 558.510498046875 317.1180419921875 164.1605377197265625 166.6207733154296875 283.247039794921875 218.898193359375 275.74993896484375 406.968963623046875 252.42388916015625 270.8380126953125 290.5291748046875 262.881317138671875 253.7189178466796875 263.701019287109375 218.8328094482421875 237.7356414794921875 388.828887939453125 398.473968505859375 219.3460845947265625 174.4830322265625 187.3536529541015625 212.2450103759765625 453.736480712890625 217.879730224609375 162.8416595458984375 208.831939697265625 263.0252685546875 382.942413330078125 252.503265380859375 275.340423583984375 241.0765533447265625 219.7251739501953125 182.456024169921875 354.684112548828125 192.0707855224609375 264.07012939453125 289.700592041015625 208.42169189453125 200.3530120849609375 278.31378173828125 212.5445098876953125 312.847991943359375 212.8182525634765625 121.91876983642578125 132.630706787109375 153.35675048828125 207.616973876953125 316.751678466796875 501.802581787109375 419.691925048828125 223.7137603759765625 131.68621826171875 183.4981842041015625 252.298919677734375 232.905731201171875 235.162628173828125 229.389495849609375 260.0086669921875 218.21929931640625 243.001220703125 270.1793212890625 174.89471435546875 239.5012664794921875 310.224761962890625 156.92877197265625 341.45550537109375 250.9121246337890625 478.134002685546875 430.521148681640625 223.3812103271484375 688.34649658203125 567.0411376953125 226.967071533203125 249.5152435302734375 189.508392333984375 248.0484466552734375 149.09912109375 206.627685546875 193.97003173828125 223.7239532470703125 201.881317138671875 212.00921630859375 373.79571533203125 212.7228851318359375 230.44244384765625 406.527862548828125 625.68798828125 361.19232177734375 261.350311279296875 186.7122344970703125 398.0072021484375 314.04815673828125 209.889251708984375 639.5196533203125 1138.8216552734375 720.56854248046875 850.492431640625 492.0987548828125 182.9977874755859375 584.2451171875 345.161163330078125 138.406494140625 146.3435821533203125 189.8891448974609375 260.881134033203125 376.71722412109375 235.9014129638671875 182.864959716796875 142.114044189453125 191.669403076171875 218.76824951171875 126.03787994384765625 126.34435272216796875 154.5709075927734375 554.4576416015625 872.2955322265625 392.973419189453125 253.1222686767578125 nan 
nan 243.2265777587890625 397.43414306640625 332.28277587890625 111.82778167724609375 314.742645263671875 288.607818603515625 222.66748046875 313.647308349609375 270.131591796875 404.597381591796875 359.299102783203125 155.466796875 50.46240997314453125 68.78118896484375 251.5084381103515625 256.568389892578125 514.8043212890625 242.5055694580078125 356.323577880859375 256.544189453125 181.790985107421875 174.46429443359375 209.5902862548828125 234.900390625 237.717132568359375 170.84368896484375 193.6783905029296875 317.420379638671875 258.0919189453125 220.0981292724609375 224.03094482421875 316.84930419921875 357.2740478515625 337.76458740234375 273.30059814453125 283.946136474609375 227.1136627197265625 344.889617919921875 232.3310699462890625 271.402130126953125 250.03900146484375 236.66680908203125 502.49359130859375 421.01055908203125 285.589630126953125 250.6037750244140625 491.42474365234375 333.566162109375 510.689056396484375 403.306976318359375 218.3321990966796875 156.9339752197265625 248.2200775146484375 224.5432891845703125 237.60455322265625 277.80145263671875 324.9884033203125 369.40643310546875 304.61419677734375 185.01513671875 126.35492706298828125 275.81927490234375 274.64306640625 222.6025390625 334.87017822265625 185.045806884765625 98.91011810302734375 179.75958251953125 336.560150146484375 404.49871826171875 277.812255859375 307.028350830078125 217.73046875 173.92889404296875 241.998260498046875 233.4196929931640625 411.58935546875 249.12811279296875 316.055877685546875 271.743927001953125 215.714569091796875 286.308135986328125 332.11865234375 268.659698486328125 368.684417724609375 227.8142547607421875 220.76141357421875 234.78179931640625 222.6678466796875 211.84039306640625 288.417510986328125 251.80364990234375 168.0726318359375 192.5879058837890625 197.5121002197265625 264.889434814453125 258.711029052734375 241.727752685546875 510.961456298828125 465.28826904296875 466.808441162109375 248.592315673828125 261.65875244140625 207.1012115478515625 255.0574188232421875 262.21038818359375 370.947601318359375 244.1778717041015625 203.8418731689453125 232.19622802734375 241.078521728515625 235.3507232666015625 293.108734130859375 138.23883056640625 200.960113525390625 214.3286590576171875 502.05908203125 552.53662109375 325.985198974609375 521.86199951171875 476.7412109375 365.711883544921875 206.211517333984375 334.188262939453125 236.8940582275390625 138.535125732421875 213.1397857666015625 300.29193115234375 255.6305084228515625 278.97430419921875 194.44805908203125 318.003204345703125 166.857513427734375 185.3359527587890625 265.27630615234375 346.152862548828125 209.6017303466796875 311.292205810546875 410.2425537109375 370.11785888671875 184.1943817138671875 175.0894775390625 711.929931640625 1091.092529296875 548.61859130859375 705.9072265625 441.899749755859375 137.3765411376953125 447.524444580078125 295.24517822265625 182.2433013916015625 285.95562744140625 298.295989990234375 291.51007080078125 240.6337127685546875 150.3480682373046875 136.9740142822265625 232.46197509765625 292.590362548828125 170.2558746337890625 118.76694488525390625 213.338409423828125 245.2086639404296875 466.0645751953125 1049.0740966796875 736.3555908203125 446.163848876953125 nan 
nan 395.24774169921875 568.7181396484375 312.88665771484375 283.542510986328125 322.9041748046875 324.310028076171875 210.6185455322265625 235.507415771484375 384.83056640625 283.930572509765625 354.013946533203125 424.820068359375 150.75592041015625 156.3851776123046875 416.093994140625 230.93463134765625 351.12200927734375 296.825897216796875 310.5509033203125 363.061859130859375 251.879608154296875 198.107879638671875 286.035308837890625 235.0211639404296875 312.57159423828125 247.7915191650390625 92.096832275390625 162.8477325439453125 228.9520263671875 207.789459228515625 315.209014892578125 492.2664794921875 248.6177520751953125 325.635650634765625 327.930633544921875 211.7319793701171875 272.430267333984375 283.356903076171875 420.010009765625 491.16412353515625 236.5042724609375 214.87493896484375 262.361328125 378.677337646484375 442.467254638671875 343.28948974609375 787.68743896484375 577.12481689453125 333.093841552734375 196.6370086669921875 196.602508544921875 239.415557861328125 195.72198486328125 184.8504486083984375 222.5328216552734375 228.09710693359375 228.682159423828125 270.40478515625 211.500091552734375 240.2030029296875 146.68695068359375 165.83746337890625 194.509735107421875 188.4952239990234375 266.2276611328125 169.3170928955078125 131.80560302734375 287.169921875 232.445404052734375 225.6852264404296875 360.749114990234375 259.35430908203125 225.0118560791015625 276.676605224609375 326.1300048828125 218.253448486328125 217.43719482421875 272.94024658203125 272.763092041015625 234.960723876953125 159.2133026123046875 371.994232177734375 248.37908935546875 351.2490234375 352.621978759765625 130.5340118408203125 161.8082733154296875 213.154571533203125 235.4027862548828125 184.00439453125 274.2528076171875 270.630462646484375 175.184173583984375 174.4899749755859375 222.3876190185546875 212.383941650390625 251.732391357421875 189.502899169921875 287.7801513671875 308.306182861328125 613.3055419921875 229.9579620361328125 324.88775634765625 365.514404296875 209.114501953125 143.89154052734375 207.938629150390625 273.739532470703125 238.0612335205078125 298.85009765625 305.437591552734375 228.665435791015625 301.055908203125 231.0128326416015625 172.93133544921875 151.40179443359375 187.0782012939453125 447.144622802734375 665.5555419921875 347.544464111328125 159.887054443359375 167.2263336181640625 195.3716583251953125 428.528472900390625 484.1434326171875 184.53240966796875 223.2139739990234375 197.7707366943359375 176.26904296875 272.060638427734375 205.2091827392578125 232.8701629638671875 260.8922119140625 173.638671875 173.6074981689453125 252.8069000244140625 240.15704345703125 250.225372314453125 195.544769287109375 130.9929962158203125 155.596343994140625 238.2156219482421875 907.68414306640625 1026.090576171875 488.5301513671875 549.34918212890625 256.705963134765625 429.625274658203125 473.022552490234375 162.2068939208984375 264.958404541015625 252.9300689697265625 236.1197357177734375 254.1575469970703125 242.5712127685546875 125.0504608154296875 106.97899627685546875 154.1616973876953125 187.364990234375 115.89810943603515625 184.90478515625 150.7240142822265625 369.267974853515625 801.97723388671875 1258.1995849609375 747.3531494140625 202.6411590576171875 nan 
nan 306.23077392578125 685.701904296875 668.53118896484375 612.9371337890625 391.396881103515625 408.9676513671875 360.135955810546875 578.59490966796875 374.66156005859375 314.201751708984375 643.38226318359375 342.8702392578125 372.795989990234375 174.122039794921875 339.64306640625 317.479583740234375 401.931640625 365.0897216796875 357.207489013671875 346.51397705078125 317.2474365234375 191.619384765625 424.744781494140625 413.37152099609375 480.121337890625 318.89434814453125 196.4406585693359375 216.366546630859375 186.6873321533203125 169.834564208984375 384.48541259765625 627.1802978515625 309.50555419921875 274.3677978515625 451.906829833984375 271.22100830078125 333.930938720703125 286.62713623046875 293.754608154296875 510.75677490234375 484.460235595703125 283.026275634765625 234.635162353515625 381.893035888671875 924.57623291015625 903.32220458984375 1217.2471923828125 1037.8809814453125 412.50457763671875 153.9202728271484375 271.7908935546875 299.337860107421875 273.6409912109375 207.2140655517578125 243.0319671630859375 305.636016845703125 274.157135009765625 264.03863525390625 245.1728973388671875 281.455413818359375 126.3586578369140625 136.2417144775390625 201.747833251953125 350.441162109375 181.8870849609375 200.019927978515625 221.1685943603515625 170.10919189453125 189.0294342041015625 222.0145416259765625 391.1378173828125 237.7551727294921875 258.93792724609375 210.4539947509765625 197.0908203125 194.64959716796875 158.4343414306640625 185.2349700927734375 140.7995452880859375 203.7515411376953125 246.1084442138671875 266.882781982421875 168.092803955078125 189.3892364501953125 164.3297576904296875 172.5020294189453125 277.194732666015625 284.952545166015625 200.745025634765625 232.29803466796875 220.5778045654296875 176.0248870849609375 112.46640777587890625 316.3582763671875 294.72418212890625 201.4317626953125 348.6131591796875 240.4732513427734375 270.78875732421875 395.166961669921875 395.082305908203125 178.4524993896484375 293.161376953125 288.50628662109375 257.375762939453125 206.95550537109375 212.71337890625 323.93182373046875 220.33551025390625 267.248046875 270.37896728515625 200.87139892578125 306.190948486328125 253.0942840576171875 274.553680419921875 235.121612548828125 260.50445556640625 237.4371337890625 788.03741455078125 794.20684814453125 423.728363037109375 135.0969390869140625 315.8895263671875 898.2674560546875 951.88763427734375 371.885009765625 173.4071044921875 266.785003662109375 173.44146728515625 183.2796173095703125 304.834503173828125 667.6751708984375 804.1334228515625 602.992919921875 317.933807373046875 158.7744903564453125 187.574066162109375 454.84490966796875 369.030517578125 130.2414398193359375 198.2052001953125 213.574493408203125 801.94342041015625 786.8446044921875 240.6282501220703125 508.276611328125 495.1671142578125 674.29595947265625 271.06439208984375 153.75811767578125 364.28826904296875 153.9547882080078125 171.679046630859375 312.26953125 146.4271392822265625 124.151885986328125 300.38934326171875 339.575408935546875 188.78997802734375 118.36065673828125 169.87725830078125 144.4336700439453125 299.456085205078125 1080.275634765625 1384.6688232421875 581.58416748046875 136.3715667724609375 nan 
nan nan nan nan nan nan nan nan nan nan nan nan nan nan nan nan nan nan nan nan nan nan nan nan nan nan nan nan nan nan nan nan nan nan nan nan nan nan nan nan nan nan nan nan nan nan nan nan nan nan nan nan nan nan nan nan nan nan nan nan nan nan nan nan nan nan nan nan nan nan nan nan nan nan nan nan nan nan nan nan nan nan nan nan nan nan nan nan nan nan nan nan nan nan nan nan nan nan nan nan nan nan nan nan nan nan nan nan nan nan nan nan nan nan nan nan nan nan nan nan nan nan nan nan nan nan nan nan nan nan nan nan nan nan nan nan nan nan nan nan nan nan nan nan nan nan nan nan nan nan nan nan nan nan nan nan nan nan nan nan nan nan nan nan nan nan nan nan nan 
