ncols        169
nrows        113
xllcorner    381000.000000000000
yllcorner    3074000.000000000000
cellsize     1000.000000000000
NODATA_value nan
nan nan nan nan nan nan nan nan nan nan nan nan nan nan nan nan nan nan nan nan nan nan nan nan nan nan nan nan nan nan nan nan nan nan nan nan nan nan nan nan nan nan nan nan nan nan nan nan nan nan nan nan nan nan nan nan nan nan nan nan nan nan nan nan nan nan nan nan nan nan nan nan nan nan nan nan nan nan nan nan nan nan nan nan nan nan nan nan nan nan nan nan nan nan nan nan nan nan nan nan nan nan nan nan nan nan nan nan nan nan nan nan nan nan nan nan nan nan nan nan nan nan nan nan nan nan nan nan nan nan nan nan nan nan nan nan nan nan nan nan nan nan nan nan nan nan nan nan nan nan nan nan nan nan nan nan nan nan nan nan nan nan nan nan nan nan nan nan nan 
nan 854.8887939453125 286.023956298828125 594.34112548828125 1389.4691162109375 2329.872802734375 3293.734130859375 4214.88525390625 5063.82568359375 5538.1376953125 5143.5478515625 4733.27197265625 4510.92431640625 4501.76416015625 4706.69921875 5102.599609375 5622.521484375 5716.498046875 4959.34521484375 3975.2314453125 2993.660888671875 2030.7054443359375 1122.729248046875 394.526123046875 78.7039947509765625 89.18517303466796875 62.12187957763671875 4.5014739036560058594 7.8890409469604492188 227.6305389404296875 832.1365966796875 747.66357421875 224.955841064453125 415.6749267578125 1196.87890625 1957.59228515625 2664.73681640625 3386.025634765625 3526.10693359375 3030.535400390625 2377.428466796875 1515.33251953125 799.0230712890625 445.379119873046875 286.849029541015625 366.851165771484375 538.0098876953125 1126.1202392578125 2032.8912353515625 3000.6533203125 3957.583251953125 4074.58251953125 3169.639892578125 2203.661376953125 1245.814208984375 411.193756103515625 171.7373046875 291.468719482421875 425.5535888671875 1138.760498046875 2077.49951171875 3049.199951171875 4009.48583984375 4935.6943359375 5815.873046875 6002.966796875 5111.498046875 4123.69140625 3143.89892578125 2182.911865234375 1285.647705078125 758.83056640625 1007.66943359375 602.2835693359375 353.1932373046875 336.61798095703125 831.57269287109375 1799.026123046875 2632.949462890625 2494.034423828125 2079.807373046875 1589.1495361328125 719.4337158203125 340.334686279296875 1098.8681640625 2023.9859619140625 2588.165771484375 2251.10400390625 1349.0406494140625 587.10113525390625 750.371826171875 1633.7415771484375 2593.892578125 2927.9501953125 2390.152099609375 2072.846923828125 2198.3603515625 2694.98974609375 3280.59814453125 3921.91455078125 4681.95458984375 5350.64013671875 5648.52685546875 5985.7294921875 6404.0009765625 6260.60400390625 5802.61279296875 5477.35546875 5183.0185546875 4910.45654296875 4821.4345703125 4930.1328125 5229.6611328125 5691.32666015625 6279.57373046875 6962.4794921875 7714.921875 8391.68359375 7990.95458984375 7003.1435546875 6010.1083984375 5019.83642578125 4034.35302734375 3058.346435546875 2105.63037109375 1233.7410888671875 770.8651123046875 1191.23193359375 2053.656494140625 3004.186767578125 3979.433349609375 4964.5146484375 5954.58544921875 6816.6865234375 6466.90283203125 5474.43017578125 4477.22119140625 3481.486572265625 2489.536865234375 1508.425048828125 581.1087646484375 276.107330322265625 871.945068359375 1467.5059814453125 2057.60498046875 2795.498291015625 3039.404541015625 2444.235107421875 1917.0667724609375 1619.377197265625 1484.8394775390625 1607.56396484375 1773.2076416015625 1795.97119140625 2237.4853515625 2963.758056640625 3747.445556640625 4231.9853515625 4647.375 5069.9248046875 5391.42578125 5801.80419921875 6311.43017578125 6916.595703125 7561.61328125 8181.9716796875 8849.3193359375 9554.15234375 nan 
nan 501.3426513671875 438.4794921875 1134.454833984375 1831.1495361328125 2468.345703125 3105.35546875 3787.42919921875 4551.38720703125 4914.92919921875 4395.0283203125 3907.099853515625 3634.77001953125 3623.40625 3874.885009765625 4346.90380859375 4875.98486328125 5101.53564453125 4971.3046875 4190.33642578125 3276.03369140625 2420.732666015625 1661.172607421875 1007.73907470703125 416.659088134765625 279.12506103515625 311.490081787109375 31.691585540771484375 0.0055269687436521053314 27.678712844848632813 377.7646484375 804.62139892578125 308.6263427734375 128.2098388671875 642.98980712890625 1331.3353271484375 2075.140869140625 2787.881591796875 2806.2548828125 2283.00048828125 1846.7392578125 1151.431884765625 371.79315185546875 415.89453125 695.94647216796875 1021.527587890625 1318.1383056640625 1708.2696533203125 2410.83544921875 3268.093994140625 4121.32470703125 3970.496826171875 3003.590576171875 2020.360595703125 1063.8214111328125 360.634002685546875 175.0939788818359375 310.638824462890625 911.9012451171875 1536.4302978515625 2220.71337890625 2944.79833984375 3717.490478515625 4542.4609375 5414.98486328125 5856.25927734375 5078.2587890625 4082.408447265625 3089.472412109375 2103.52880859375 1145.022705078125 510.911834716796875 873.11175537109375 583.7880859375 222.0102081298828125 328.862884521484375 991.66357421875 1946.5614013671875 2474.182861328125 1856.4779052734375 1274.654052734375 1109.721435546875 517.17144775390625 367.24530029296875 1027.7257080078125 1582.657470703125 1853.303955078125 1895.0533447265625 1075.7103271484375 339.64117431640625 750.82696533203125 1694.4173583984375 2588.384521484375 2489.17529296875 1703.39453125 1223.520751953125 1417.2626953125 1989.4658203125 2596.943359375 3361.632568359375 4173.23193359375 4578.21630859375 4799.1005859375 5191.1298828125 5673.20849609375 5526.09423828125 5002.46923828125 4627.07861328125 4347.78173828125 4045.129150390625 3936.658203125 4068.978271484375 4427.013671875 4963.8125 5628.59375 6381.56298828125 7195.0361328125 8006.28173828125 7932.87255859375 6974.45947265625 5976.65185546875 4979.71533203125 3984.286865234375 2991.90673828125 2007.6666259765625 1058.4710693359375 489.321258544921875 1008.99383544921875 1953.070068359375 2936.515625 3928.664794921875 4923.94189453125 5920.814453125 6804.31591796875 6504.4912109375 5521.61669921875 4534.82421875 3555.287841796875 2589.098876953125 1640.227783203125 730.82415771484375 233.406097412109375 399.658477783203125 762.74871826171875 1486.0245361328125 2329.44921875 2468.7177734375 1785.1837158203125 1148.9248046875 765.20550537109375 622.197509765625 789.6328125 931.5474853515625 994.92486572265625 1655.83544921875 2474.81494140625 3079.24169921875 3413.826904296875 3877.7958984375 4233.15283203125 4570.37548828125 5027.31201171875 5597.20947265625 6244.60791015625 6864.52783203125 7517.08447265625 8236.6845703125 8988.9482421875 nan 
nan 605.95770263671875 773.1458740234375 1509.2003173828125 1758.0838623046875 1926.2476806640625 2466.433349609375 3233.01513671875 4090.68798828125 4360.41796875 3707.21142578125 3113.57373046875 2764.68896484375 2749.76513671875 3073.08203125 3642.1435546875 4082.941650390625 4253.23486328125 4550.248046875 4464.99365234375 3746.71533203125 2993.61962890625 2322.621826171875 1686.7073974609375 956.2254638671875 309.353118896484375 522.43206787109375 222.2453765869140625 3.7108731269836425781 0.20788408815860748291 69.6858673095703125 493.127532958984375 405.138336181640625 51.862720489501953125 188.6553192138671875 755.57806396484375 1537.662353515625 2100.471435546875 2047.6676025390625 1553.80859375 1099.6578369140625 744.91986083984375 319.9002685546875 948.83673095703125 1521.3026123046875 1828.737548828125 2154.833740234375 2466.911376953125 3009.98388671875 3696.76806640625 4319.36865234375 4013.95654296875 3058.292724609375 2100.377685546875 1209.140380859375 605.46295166015625 262.75726318359375 325.9686279296875 821.822021484375 1247.9034423828125 1715.5523681640625 2401.09423828125 3238.4677734375 4131.87890625 5009.6171875 5670.60400390625 5189.2822265625 4225.44189453125 3276.351806640625 2369.94189453125 1579.0374755859375 1154.871826171875 1117.2891845703125 673.16796875 293.449310302734375 436.486297607421875 1138.5811767578125 1953.805419921875 2274.32568359375 1486.2501220703125 645.5958251953125 611.09991455078125 622.90264892578125 270.30560302734375 520.0242919921875 781.71038818359375 1097.1363525390625 1560.245361328125 1042.43115234375 349.885833740234375 842.84747314453125 1824.2603759765625 2653.3515625 2247.265869140625 1287.205810546875 548.96417236328125 755.9515380859375 1293.9083251953125 2058.109130859375 2958.685546875 3595.4501953125 3714.515625 3964.339111328125 4430.68798828125 4992.287109375 4841.96728515625 4236.0146484375 3786.402587890625 3508.813232421875 3190.377197265625 3052.24853515625 3220.8837890625 3662.483154296875 4295.78955078125 5049.30224609375 5876.85546875 6750.46044921875 7645.0361328125 7921.1630859375 7058.60302734375 6074.65771484375 5096.96630859375 4129.97900390625 3183.540771484375 2283.940185546875 1518.4022216796875 1166.044677734375 1483.988525390625 2236.1337890625 3131.555419921875 4076.3515625 5042.4931640625 6019.73095703125 6905.3154296875 6659.42724609375 5706.67138671875 4755.958984375 3817.7421875 2892.79296875 2007.5826416015625 1251.0037841796875 680.48284912109375 305.173828125 309.89642333984375 1115.5899658203125 1989.3934326171875 1918.1898193359375 1200.78662109375 498.227264404296875 216.0422210693359375 171.654541015625 184.311553955078125 292.364105224609375 518.28924560546875 1217.522705078125 1881.113037109375 2272.21826171875 2623.010498046875 3100.127685546875 3385.5849609375 3766.6435546875 4285.96630859375 4922.732421875 5551.06591796875 6185.935546875 6899.53173828125 7676.11865234375 8478.287109375 nan 
nan 439.694580078125 550.7869873046875 1227.5960693359375 1009.2119140625 1175.81640625 1934.3048095703125 2848.3994140625 3734.37744140625 3852.211181640625 3122.096435546875 2388.34521484375 1912.892333984375 1891.391357421875 2334.47314453125 2987.7177734375 3240.874267578125 3399.446533203125 3813.727294921875 4335.20947265625 4271.42236328125 3643.421142578125 2995.233154296875 2222.457275390625 1312.7200927734375 429.947906494140625 495.70111083984375 456.164886474609375 25.1739959716796875 0.070895440876483917236 2.1618230342864990234 134.7812347412109375 388.46136474609375 118.55449676513671875 57.208404541015625 405.3656005859375 930.77630615234375 1324.6107177734375 1330.374267578125 834.4661865234375 428.10748291015625 321.112579345703125 513.453369140625 1338.385498046875 2177.544921875 2658.305419921875 2983.14208984375 3192.37109375 3368.63525390625 3556.39111328125 3858.843505859375 4005.839111328125 3352.14794921875 2506.536376953125 1799.606689453125 1231.2525634765625 699.64404296875 327.356781005859375 276.4058837890625 497.73443603515625 1097.4393310546875 1967.015380859375 2855.45947265625 3700.96875 4549.06689453125 5392.76904296875 5400.1953125 4541.3359375 3674.97998046875 2894.9541015625 2284.22314453125 1841.223876953125 1111.958251953125 329.905792236328125 241.1851654052734375 320.154052734375 806.90374755859375 1447.518310546875 1974.275146484375 1574.71533203125 840.41839599609375 824.048828125 1113.2510986328125 577.8077392578125 287.54156494140625 262.951446533203125 601.86639404296875 1069.2100830078125 658.47113037109375 315.361572265625 879.94659423828125 1849.8751220703125 2609.786376953125 2112.672119140625 1198.8914794921875 496.83270263671875 339.62725830078125 879.15692138671875 1820.512451171875 2687.39013671875 2841.440673828125 2840.544921875 3159.585205078125 3727.763671875 4386.5546875 4234.83203125 3527.7353515625 2973.2255859375 2662.9345703125 2355.4404296875 2172.45654296875 2402.927734375 2968.291015625 3721.526123046875 4569.74365234375 5467.77294921875 6394.84130859375 7334.669921875 7802.494140625 7197.578125 6296.58935546875 5361.6318359375 4452.626953125 3592.465087890625 2826.546875 2253.21142578125 2029.750732421875 2230.04638671875 2788.07763671875 3546.494140625 4402.9404296875 5309.87939453125 6245.35595703125 7115.5673828125 6922.44091796875 6002.23095703125 5077.02783203125 4172.73779296875 3319.1455078125 2569.054443359375 1945.873046875 1373.0426025390625 699.04034423828125 258.678192138671875 982.055908203125 1656.2247314453125 1318.6151123046875 655.9796142578125 236.5530242919921875 603.53314208984375 669.5313720703125 297.9683837890625 206.29083251953125 250.4988861083984375 620.701171875 1211.619873046875 1432.71484375 1894.2783203125 2285.21533203125 2548.58740234375 2993.110107421875 3598.587646484375 4242.27197265625 4858.732421875 5563.150390625 6345.60009765625 7182.23046875 8033.96728515625 nan 
nan 517.2781982421875 619.9913330078125 1081.48828125 530.1705322265625 777.619873046875 1718.7432861328125 2694.974609375 3273.158935546875 3164.191650390625 2645.531005859375 1814.8236083984375 1122.325927734375 1084.8077392578125 1735.5482177734375 2359.340576171875 2369.701904296875 2570.4453125 3097.292236328125 3817.756103515625 4469.46435546875 4267.9931640625 3458.987548828125 2511.5751953125 1542.926025390625 593.5245361328125 400.7518310546875 690.751953125 218.977569580078125 11.420088768005371094 1.0165675878524780273 6.4811267852783203125 95.3953857421875 139.755615234375 93.6104888916015625 102.991485595703125 235.5913238525390625 574.2154541015625 828.302978515625 361.544403076171875 228.601409912109375 367.81121826171875 979.7568359375 1760.5887451171875 2599.43115234375 3124.466796875 3258.63720703125 3047.401123046875 2729.63427734375 2729.32080078125 3071.998779296875 3629.019775390625 3718.291748046875 3023.240234375 2180.863037109375 1266.6629638671875 491.49383544921875 505.463134765625 566.52044677734375 270.890350341796875 783.38037109375 1580.9814453125 2386.4560546875 3257.50341796875 4179.95947265625 5049.77734375 5418.1796875 4973.98779296875 4225.34814453125 3562.986572265625 2997.2685546875 2247.999755859375 1359.404296875 527.56341552734375 311.686248779296875 487.3323974609375 437.844512939453125 872.25518798828125 1435.71044921875 1815.104248046875 1591.3302001953125 1572.57470703125 1717.9705810546875 1238.7861328125 750.743896484375 301.949310302734375 606.99798583984375 574.95684814453125 291.670867919921875 599.75927734375 1218.5389404296875 2087.025390625 2551.76513671875 1823.2347412109375 905.501953125 256.072967529296875 407.101959228515625 1138.47412109375 1976.4222412109375 2338.68408203125 2000.515625 1980.957763671875 2415.2021484375 3121.749267578125 3891.058349609375 3741.406982421875 2920.374267578125 2219.521484375 1815.8326416015625 1554.4630126953125 1308.2027587890625 1659.9556884765625 2404.97265625 3286.34326171875 4218.859375 5176.095703125 6146.82666015625 7052.703125 7198.25634765625 6842.04345703125 6402.423828125 5723.52099609375 4916.8232421875 4154.587890625 3513.42333984375 3070.5751953125 2909.964599609375 3053.568359375 3482.53955078125 4114.9052734375 4872.35009765625 5705.0654296875 6584.57666015625 7420.6376953125 7247.8857421875 6354.26123046875 5475.2353515625 4645.337890625 3895.679443359375 3228.425537109375 2493.133544921875 1596.412841796875 646.34368896484375 241.826904296875 796.4476318359375 1115.4560546875 651.51287841796875 266.55126953125 468.278106689453125 1091.6072998046875 1369.108642578125 1039.4168701171875 863.05828857421875 484.76458740234375 245.073028564453125 460.447723388671875 664.42437744140625 1233.91455078125 1432.779296875 1735.6275634765625 2278.678466796875 2937.62451171875 3539.41259765625 4228.39111328125 5019.7451171875 5874.83740234375 6769.9404296875 7667.724609375 nan 
nan 448.830413818359375 524.0811767578125 1112.9095458984375 907.71710205078125 1116.1939697265625 1898.425537109375 2647.343017578125 2577.700927734375 2322.533203125 2043.1846923828125 1496.856201171875 674.9556884765625 604.69683837890625 1437.5255126953125 1732.70947265625 1502.3663330078125 1799.8013916015625 2494.489990234375 3348.607177734375 4255.2939453125 4536.07763671875 3687.28173828125 2713.990478515625 1743.617431640625 779.44390869140625 319.789459228515625 916.319091796875 739.8404541015625 279.672515869140625 202.5652923583984375 29.074853897094726563 0.10070601105690002441 6.1792707443237304688 101.74993133544921875 146.2943267822265625 61.58290863037109375 120.3170928955078125 426.008087158203125 673.7672119140625 479.89892578125 346.375701904296875 1091.3876953125 2012.089111328125 2642.3515625 2546.906494140625 2531.103515625 2314.30859375 1876.8902587890625 1876.194580078125 2345.633056640625 3080.155029296875 3734.641845703125 3257.608154296875 2292.130126953125 1359.40283203125 614.8642578125 711.455078125 953.50543212890625 338.45977783203125 401.28070068359375 1094.6341552734375 2011.865966796875 2971.03564453125 3872.377197265625 4434.67724609375 4811.01318359375 5109.56884765625 4835.0810546875 4212.9189453125 3427.4130859375 2523.0185546875 1613.2978515625 744.29827880859375 260.42462158203125 226.2270965576171875 352.221099853515625 503.6815185546875 888.27447509765625 1769.3587646484375 2097.763916015625 1901.8466796875 1942.7318115234375 1539.223876953125 721.5606689453125 259.511688232421875 709.27117919921875 476.541748046875 387.206268310546875 1102.7923583984375 1800.150146484375 2500.982666015625 2534.242431640625 1613.3311767578125 655.94964599609375 255.2971038818359375 739.4984130859375 1466.394287109375 2149.863525390625 1861.0712890625 1200.52001953125 1168.2939453125 1806.4359130859375 2677.848388671875 3543.39697265625 3403.158935546875 2482.595703125 1607.646240234375 1001.2000732421875 858.68719482421875 565.87115478515625 1136.59228515625 2069.86181640625 3041.287109375 4019.577392578125 4997.6611328125 5972.62744140625 6671.3525390625 6417.681640625 6024.33251953125 5775.3779296875 5595.8076171875 5288.15478515625 4792.74609375 4275.45263671875 3919.62158203125 3794.931396484375 3906.29443359375 4250.33447265625 4782.33740234375 5447.755859375 6203.671875 7020.9580078125 7808.2998046875 7635.81396484375 6791.59423828125 5977.2353515625 5224.6767578125 4500.08935546875 3662.81005859375 2723.49267578125 1795.9766845703125 924.68658447265625 318.537994384765625 281.274078369140625 474.159576416015625 247.49884033203125 547.45220947265625 1116.5181884765625 1694.648681640625 2090.851806640625 1896.39990234375 1665.0181884765625 1127.9217529296875 525.66033935546875 259.921295166015625 308.709014892578125 596.57977294921875 585.68377685546875 978.99261474609375 1641.975830078125 2237.25048828125 2897.1650390625 3703.04638671875 4585.65576171875 5508.63525390625 6454.77880859375 7391.0517578125 nan 
nan 532.51519775390625 566.652587890625 759.81646728515625 1070.266845703125 1699.0672607421875 2354.536865234375 2431.677490234375 1823.346435546875 1470.8099365234375 1255.9765625 1115.4154052734375 1004.66436767578125 1012.6856689453125 1534.6649169921875 1198.543701171875 710.56085205078125 1204.494140625 2106.15380859375 3070.7578125 4052.19873046875 4615.0341796875 3894.95556640625 2924.98388671875 1955.866455078125 991.24871826171875 295.481658935546875 757.67694091796875 1194.7935791015625 1029.6749267578125 739.61578369140625 130.279815673828125 1.1952152252197265625 0.048355009406805038452 11.344058036804199219 148.8719635009765625 158.1655426025390625 90.56681060791015625 86.7509765625 458.795867919921875 307.304473876953125 369.574676513671875 1109.2440185546875 2013.754150390625 2141.761474609375 1700.3197021484375 1692.124755859375 1639.7301025390625 1075.5211181640625 1084.385986328125 1774.129638671875 2671.1201171875 3543.000244140625 3469.4306640625 2631.689453125 1872.0543212890625 1343.3414306640625 1327.6201171875 1292.402099609375 576.84649658203125 250.982757568359375 904.0244140625 1879.4981689453125 2721.4462890625 3285.52783203125 3614.465576171875 4027.381103515625 4556.96337890625 4925.64697265625 4365.0244140625 3385.306640625 2400.870849609375 1433.554931640625 576.09429931640625 220.539154052734375 408.394989013671875 847.09185791015625 720.61199951171875 990.9656982421875 1776.365234375 1724.0821533203125 1201.55029296875 1305.4649658203125 1403.4072265625 639.74078369140625 281.764617919921875 698.45526123046875 538.55902099609375 642.76837158203125 1359.609375 2255.39697265625 2941.82958984375 2552.750244140625 1632.9293212890625 788.23028564453125 287.85101318359375 663.69842529296875 1158.8271484375 1840.603759765625 1568.8988037109375 683.700439453125 621.016845703125 1464.9268798828125 2372.8505859375 3231.33203125 3242.7548828125 2302.06591796875 1320.2718505859375 484.9071044921875 510.4554443359375 488.758392333984375 1005.500732421875 1913.99951171875 2866.872314453125 3833.437255859375 4808.80859375 5741.85205078125 6094.44921875 5644.5185546875 5192.482421875 4904.931640625 4774.8486328125 4776.8759765625 4885.35302734375 4900.40087890625 4766.29345703125 4681.833984375 4772.70166015625 5058.30029296875 5512.9794921875 6099.22314453125 6781.87646484375 7529.08203125 8250.94140625 8097.89208984375 7311.55419921875 6552.33154296875 5772.21337890625 4888.2958984375 3968.918701171875 3070.2724609375 2181.91162109375 1318.0711669921875 566.61810302734375 164.0387725830078125 252.262847900390625 619.9444580078125 1188.3701171875 1816.7010498046875 2405.392822265625 2852.845947265625 2757.91796875 2413.591552734375 1774.0648193359375 1257.0677490234375 693.7982177734375 293.01776123046875 281.464080810546875 240.322235107421875 434.739715576171875 982.59759521484375 1579.053955078125 2410.60888671875 3335.680908203125 4294.6494140625 5268.953125 6251.53173828125 7214.31103515625 nan 
nan 1179.0625 983.854248046875 496.20574951171875 904.00653076171875 1841.6632080078125 2536.000732421875 2035.9747314453125 1202.1363525390625 678.88702392578125 622.16229248046875 586.6761474609375 1301.051025390625 1775.311767578125 1866.3187255859375 1115.2677001953125 563.29742431640625 1112.4139404296875 2054.800048828125 3035.85791015625 4026.51708984375 4720.74072265625 4113.19873046875 3153.82177734375 2211.158447265625 1303.090087890625 490.968170166015625 354.80133056640625 957.81011962890625 1422.23095703125 1166.5782470703125 480.9256591796875 212.3523712158203125 47.90252685546875 0.97489076852798461914 37.879528045654296875 406.960479736328125 484.319122314453125 119.62831878662109375 181.716552734375 203.1476593017578125 715.21783447265625 1495.73779296875 2100.3525390625 1651.81982421875 926.580810546875 868.756591796875 1098.520751953125 547.91925048828125 635.64910888671875 1534.119873046875 2425.336669921875 3161.568603515625 3352.759521484375 2711.485107421875 2163.71826171875 1775.28076171875 1388.269287109375 1138.8414306640625 457.574493408203125 247.0685882568359375 933.07000732421875 1693.9190673828125 2096.85595703125 2477.94580078125 2788.14501953125 3266.417724609375 3829.968994140625 4385.56689453125 4308.57861328125 3392.007080078125 2412.60595703125 1455.201904296875 614.289306640625 248.99139404296875 356.933319091796875 1018.07354736328125 1384.3331298828125 1649.637451171875 2006.19970703125 1384.74267578125 588.372314453125 775.9134521484375 1431.836181640625 946.680419921875 287.40924072265625 427.984771728515625 251.1358642578125 740.608642578125 1624.0904541015625 2524.555419921875 3033.760986328125 2331.681884765625 1411.25 694.64324951171875 335.78955078125 314.992340087890625 692.22747802734375 1559.379638671875 1662.41845703125 900.934326171875 593.07586669921875 1134.957763671875 1997.1243896484375 2931 3249.083984375 2415.494140625 1498.23486328125 654.84954833984375 268.993804931640625 322.94482421875 812.123291015625 1745.0308837890625 2729.86181640625 3720.984619140625 4664.6171875 5279.814453125 5332.14453125 4908.365234375 4383.6181640625 4039.4267578125 3888.875 3900.8447265625 4140.84521484375 4582.58203125 5082.98046875 5434.66845703125 5623.185546875 5837.005859375 6164.1171875 6581.255859375 7063.95556640625 7602.58251953125 8183.30810546875 8426.359375 7871.3681640625 7045.66943359375 6132.5615234375 5195.095703125 4243.83740234375 3272.69287109375 2288.302490234375 1301.0576171875 397.59075927734375 198.3706512451171875 343.377655029296875 971.80279541015625 1747.081298828125 2476.59228515625 3119.961669921875 3629.32958984375 3594.3408203125 3088.890380859375 2486.763916015625 1939.1878662109375 1329.940673828125 990.77520751953125 912.86761474609375 529.10406494140625 194.656982421875 401.25567626953125 1212.138916015625 2186.995849609375 3178.182373046875 4173.634765625 5170.8486328125 6167.119140625 7118.60107421875 nan 
nan 1992.2481689453125 1553.5028076171875 1120.8338623046875 1372.9144287109375 2112.967529296875 2519.291015625 1739.7158203125 807.45989990234375 319.4471435546875 710.80718994140625 873.32275390625 1544.535888671875 2352.39697265625 2319.76904296875 1611.9595947265625 1270.571044921875 1609.917724609375 2361.16015625 3250.626220703125 4190.6455078125 4913.11376953125 4390.6689453125 3480.288330078125 2602.64892578125 1772.1531982421875 1001.54400634765625 369.599578857421875 387.79876708984375 859.0411376953125 1188.7889404296875 1115.1982421875 917.5625 448.62445068359375 74.44278717041015625 11.546781539916992188 371.67205810546875 909.33807373046875 455.71826171875 91.62453460693359375 150.21551513671875 678.99212646484375 1371.7918701171875 1777.0057373046875 1458.232666015625 627.575927734375 322.504638671875 833.00958251953125 858.4915771484375 953.599365234375 1434.4117431640625 1898.2738037109375 2565.979736328125 2865.31982421875 2158.0068359375 1517.2509765625 1230.7923583984375 716.775634765625 704.48992919921875 590.3494873046875 234.35443115234375 613.93475341796875 1006.6253662109375 1315.6163330078125 1647.9327392578125 1992.4385986328125 2529.126708984375 3106.976806640625 3745.199951171875 4116.982421875 3448.416748046875 2486.365478515625 1557.4693603515625 801.9259033203125 454.195281982421875 206.914520263671875 669.729248046875 1495.7645263671875 2178.427978515625 2320.3095703125 1533.8409423828125 850.8536376953125 975.30279541015625 1566.96142578125 1143.353271484375 409.491119384765625 281.4610595703125 276.745697021484375 543.6405029296875 1425.403564453125 2343.732177734375 2745.217041015625 2038.4129638671875 1173.2489013671875 381.067413330078125 532.04180908203125 420.2796630859375 639.80078125 1500.206298828125 1783.0506591796875 962.42901611328125 342.08331298828125 867.807861328125 1812.695556640625 2763.687255859375 3365.636962890625 2786.78125 1932.435546875 1076.4925537109375 316.43524169921875 459.47314453125 1059.3226318359375 1875.192138671875 2779.3701171875 3591.259765625 4202.07763671875 4481.96630859375 4500.85498046875 4213.4267578125 3612.792236328125 3186.978515625 3003.994873046875 3024.996826171875 3328.42529296875 3873.18798828125 4574.498046875 5350.64208984375 5759.9384765625 5735.83447265625 5814.92236328125 6045.27685546875 6420.4072265625 6920.521484375 7521.05615234375 8165.7119140625 8184.22802734375 7300.51220703125 6317.94189453125 5329.59228515625 4341.8623046875 3359.826904296875 2390.625244140625 1461.2147216796875 699.18896484375 380.6387939453125 204.4351806640625 810.1522216796875 1790.038330078125 2756.812744140625 3651.373779296875 4344.0693359375 4355.54345703125 3775.27099609375 3219.673095703125 2604.65234375 2117.87744140625 1805.803466796875 1352.5430908203125 590.65234375 241.350921630859375 560.3179931640625 1335.0208740234375 2261.41357421875 3229.870361328125 4204.78369140625 5142.126953125 6005.1328125 6788.78271484375 nan 
nan 2773.260498046875 2266.260986328125 1973.8525390625 2129.654296875 2646.338623046875 2695.521728515625 1835.6593017578125 990.9776611328125 638.50701904296875 1147.7237548828125 1615.54833984375 2100.29443359375 2808.67919921875 2883.159912109375 2352.310546875 2130.19384765625 2350.906005859375 2917.50439453125 3674.404296875 4527.07275390625 5229.12841796875 4776.4697265625 3917.721435546875 3102.76806640625 2336.19189453125 1608.926025390625 915.5865478515625 389.70147705078125 279.453125 555.19390869140625 976.91729736328125 1313.041748046875 1058.7039794921875 391.191070556640625 64.3427276611328125 302.18701171875 1104.7177734375 1047.601806640625 457.34930419921875 116.0577850341796875 217.5063629150390625 662.109130859375 1022.0546875 1248.013671875 846.66632080078125 396.92108154296875 1016.27783203125 1495.8900146484375 1159.327392578125 809.17034912109375 1264.562255859375 2129.6533203125 2550.018310546875 1771.4169921875 889.51953125 559.1771240234375 305.78045654296875 593.84857177734375 974.8424072265625 552.62628173828125 257.9385986328125 308.945587158203125 617.11041259765625 816.7884521484375 1234.5904541015625 1807.443603515625 2422.10009765625 3089.794921875 3540.57275390625 3322.82275390625 2383.407470703125 1393.46142578125 477.213775634765625 162.149658203125 335.45513916015625 510.776214599609375 1101.1910400390625 1960.1798095703125 2246.61083984375 1677.8170166015625 961.77813720703125 857.54046630859375 1429.5413818359375 1516.33984375 805.468017578125 345.728607177734375 237.066741943359375 376.680908203125 1171.2430419921875 2132.095947265625 2442.661865234375 1617.0623779296875 766.71710205078125 227.901702880859375 607.2130126953125 952.42059326171875 1207.05615234375 1841.0748291015625 1898.3631591796875 1033.67919921875 337.47412109375 680.5330810546875 1569.308837890625 2517.1416015625 3275.25146484375 2946.734619140625 2242.58837890625 1385.1002197265625 538.0142822265625 288.469268798828125 878.60791015625 1706.514404296875 2401.342529296875 2959.5537109375 3461.728515625 3620.3662109375 3644.225341796875 3553.430908203125 2908.5400390625 2362.25146484375 2121.953369140625 2161.11572265625 2567.83984375 3242.76904296875 4054.7236328125 4854.78515625 4999.19189453125 4874.92333984375 4943.66357421875 5206.998046875 5637.76513671875 6201.2734375 6865 7597.98828125 8058.00048828125 7443.54443359375 6473.41357421875 5506.22509765625 4552.64111328125 3623.83837890625 2745.4814453125 1973.5704345703125 1351.9666748046875 771.4102783203125 251.7457733154296875 808.6768798828125 1755.623046875 2682.156005859375 3579.63525390625 4453.13427734375 4900.11474609375 4455.78759765625 3777.4013671875 3053.8212890625 2439.14599609375 1952.8231201171875 1287.165283203125 448.401641845703125 381.64801025390625 1009.47686767578125 1737.184814453125 2563.017578125 3345.8583984375 4049.479736328125 4744.46875 5483.52490234375 6248.4404296875 nan 
nan 3518.78076171875 3061.335693359375 2836.345458984375 2816.574951171875 2829.66650390625 2713.00048828125 2243.834716796875 1619.8609619140625 1202.0526123046875 1219.3076171875 1724.6944580078125 2454.08056640625 3255.371337890625 3539.149169921875 3170.087646484375 3008.32568359375 3169.043212890625 3609.878662109375 4245.08447265625 5001.2939453125 5653.7939453125 5239.140625 4437.29833984375 3673.15087890625 2944.88525390625 2242.349853515625 1604.6923828125 1089.035888671875 637.464599609375 313.4249267578125 348.1669921875 879.35736083984375 1149.3677978515625 736.37957763671875 386.8443603515625 502.047393798828125 1308.3831787109375 1521.082763671875 758.6302490234375 188.250213623046875 51.33814239501953125 105.17537689208984375 345.4718017578125 686.923583984375 810.520751953125 463.72930908203125 1009.1368408203125 1411.2698974609375 994.32904052734375 465.989501953125 1033.8055419921875 1940.981201171875 2204.598876953125 1696.509765625 901.32586669921875 570.56854248046875 392.848175048828125 565.6358642578125 818.61187744140625 824.25421142578125 438.41571044921875 336.21148681640625 217.7752838134765625 264.609893798828125 549.2684326171875 1109.3411865234375 1798.496337890625 2351.26123046875 2806.6953125 3116.583740234375 2457.188232421875 1488.0556640625 563.13848876953125 223.0699310302734375 570.27313232421875 499.4061279296875 944.834716796875 1574.331298828125 1557.5870361328125 1257.119140625 655.20672607421875 416.277313232421875 1177.4815673828125 1795.6473388671875 1285.06640625 504.087799072265625 198.3582763671875 553.52093505859375 1347.7691650390625 2238.29931640625 2423.603515625 1538.2288818359375 685.8150634765625 356.272247314453125 415.46820068359375 876.7626953125 1252.4385986328125 1842.8831787109375 2040.26708984375 1217.8629150390625 410.05401611328125 511.836669921875 1440.7633056640625 2422.7001953125 2953.619873046875 2386.505859375 1835.5931396484375 1281.9669189453125 493.29364013671875 236.9010467529296875 676.87298583984375 1146.2479248046875 1716.15869140625 2205.35693359375 2747.98876953125 2753.381103515625 2778.75537109375 2920.78466796875 2323.591796875 1604.5780029296875 1248.3077392578125 1332.0224609375 1920.797607421875 2759.04931640625 3678.0126953125 4325.2060546875 4151.23486328125 3989.118896484375 4072.777587890625 4388.52734375 4891.78857421875 5531.77001953125 6265.2890625 6991.77783203125 7524.82080078125 7505.9296875 6729.22412109375 5805.77734375 4910.41357421875 4060.599609375 3250.271484375 2416.1513671875 1504.1123046875 574.12322998046875 243.36480712890625 791.40765380859375 1492.178466796875 2308.5810546875 3202.870361328125 4141.3837890625 4948.8212890625 4584.6044921875 3653.88134765625 2740.19677734375 1903.8074951171875 1264.06005859375 822.1048583984375 428.82647705078125 177.858001708984375 753.75335693359375 1657.5908203125 2373.326416015625 2836.951171875 3421.8486328125 4148.5576171875 4934.12939453125 5677.10205078125 nan 
nan 4263.29052734375 3773.717041015625 3216.366455078125 2594.64599609375 2120.502197265625 2022.6348876953125 2223.1181640625 1790.8631591796875 923.6871337890625 595.6824951171875 1302.05029296875 2256.4501953125 3238.093994140625 4017.86767578125 4013.13818359375 3891.930419921875 4017.65283203125 4374.0537109375 4911.509765625 5578.08984375 6166.544921875 5772.5546875 5010.76220703125 4281.33349609375 3575.24560546875 2912.2294921875 2349.975830078125 1875.226318359375 1415.88623046875 954.49627685546875 422.305328369140625 377.595703125 546.1302490234375 443.811737060546875 816.71746826171875 1116.0989990234375 1723.7249755859375 1944.552001953125 1313.6146240234375 739.34771728515625 467.528289794921875 199.6413726806640625 63.05016326904296875 193.876007080078125 307.107452392578125 275.394073486328125 542.80218505859375 625.23980712890625 713.55450439453125 897.91937255859375 1406.3885498046875 1837.5523681640625 1482.572021484375 1358.8541259765625 1159.837158203125 699.85186767578125 807.88543701171875 711.7435302734375 514.8565673828125 720.43890380859375 447.61865234375 711.16839599609375 702.89801025390625 614.45465087890625 261.70404052734375 523.40380859375 1157.45068359375 1554.7137451171875 2083.845458984375 2614.370361328125 2525.32080078125 1679.6798095703125 740.44482421875 233.4218902587890625 500.113006591796875 840.95635986328125 718.68841552734375 926.00567626953125 889.74652099609375 670.80694580078125 935.5716552734375 920.37518310546875 1454.5057373046875 1892.83544921875 1235.5546875 416.962005615234375 219.757904052734375 525.3642578125 1347.8717041015625 2297.546630859375 2639.787109375 1924.8529052734375 1328.543701171875 937.67218017578125 342.4964599609375 306.588043212890625 591.74432373046875 1335.125 1894.4508056640625 1282.1343994140625 460.413055419921875 484.836395263671875 1318.5723876953125 2250.5302734375 2620.331298828125 1849.4635009765625 1101.3883056640625 797.09820556640625 351.8765869140625 490.6641845703125 463.1375732421875 588.14306640625 993.21697998046875 1554.0250244140625 2105.16259765625 1894.18359375 1928.87939453125 2320.37646484375 1961.0447998046875 1051.624267578125 469.62493896484375 689.08477783203125 1538.8709716796875 2507.4736328125 3456.335205078125 3711.919189453125 3311.04541015625 3105.98876953125 3212.575927734375 3604.177490234375 4202.298828125 4932.1630859375 5692.04638671875 6284.9736328125 6740.7646484375 7092.2783203125 6984.6435546875 6216.0517578125 5357.982421875 4470.47607421875 3527.01513671875 2559.227783203125 1617.2120361328125 804.82598876953125 352.151824951171875 335.094879150390625 1049.85791015625 1995.332275390625 2965.947265625 3941.646728515625 4781.07666015625 4413.63134765625 3431.498291015625 2452.06201171875 1491.692626953125 630.271240234375 214.46807861328125 186.81646728515625 324.57940673828125 791.9296875 1336.9605712890625 1626.8941650390625 2105.126953125 2815.669677734375 3601.369873046875 4358.8232421875 5094.4189453125 nan 
nan 4637.29150390625 3807.713134765625 2880.0126953125 2007.1048583984375 1327.9854736328125 1182.9434814453125 1566.6439208984375 1565.3382568359375 906.936767578125 587.0833740234375 1298.8419189453125 2254.6123046875 3238.0576171875 4212.03515625 4775.90087890625 4777.84619140625 4881.00390625 5178.47119140625 5639.88232421875 6229.0205078125 6734.37841796875 6288.80810546875 5500.83447265625 4730.54296875 3995.656005859375 3358.8369140625 2873.57421875 2523.048828125 2180.81396484375 1672.779052734375 943.39776611328125 286.785125732421875 186.548248291015625 365.497222900390625 718.92852783203125 1188.9326171875 1730.423828125 2101.79833984375 1964.2674560546875 1534.688720703125 1258.217041015625 684.58447265625 203.1155242919921875 157.999847412109375 80.8139190673828125 90.67249298095703125 140.6846466064453125 134.648345947265625 178.3323974609375 787.12677001953125 1573.183837890625 1621.25927734375 827.9061279296875 680.22918701171875 891.8472900390625 479.50555419921875 902.91290283203125 1202.903564453125 1055.5401611328125 1183.8367919921875 1061.950439453125 1376.5841064453125 1512.281005859375 1249.6708984375 710.37493896484375 274.05889892578125 453.291015625 792.34002685546875 1390.6444091796875 1843.7803955078125 2225.072998046875 1932.8330078125 1171.0531005859375 678.6783447265625 302.503143310546875 431.18719482421875 234.856658935546875 452.05804443359375 609.89654541015625 606.90289306640625 1304.7567138671875 1734.3055419921875 2049.820556640625 1854.9027099609375 928.285888671875 286.980621337890625 479.15869140625 682.6839599609375 1432.2293701171875 2363.90771484375 2990.838623046875 2540.5146484375 1879.52392578125 1090.2772216796875 400.305511474609375 143.8089447021484375 360.6094970703125 1122.9696044921875 1653.5364990234375 1054.1795654296875 401.551971435546875 327.69866943359375 1092.401123046875 2059.891845703125 2438.781494140625 1595.4210205078125 648.02191162109375 248.7797393798828125 269.5015869140625 578.1436767578125 419.102874755859375 496.194580078125 459.60791015625 1228.07373046875 1593.640625 1083.344970703125 1141.4713134765625 1816.897705078125 1869.1175537109375 955.950439453125 311.37640380859375 649.82147216796875 1455.4456787109375 2382.69873046875 3213.748779296875 3043.93701171875 2499.18798828125 2228.53466796875 2374.34521484375 2881.568359375 3601.625 4397.85205078125 5017.2109375 5520.45947265625 5919.6533203125 6344.07763671875 6801.400390625 6568.43505859375 5668.65283203125 4716.146484375 3782.494873046875 2890.74755859375 2094.28076171875 1494.4969482421875 892.44866943359375 289.460296630859375 849.86822509765625 1809.406494140625 2778.850830078125 3756.318603515625 4626.5478515625 4322.5205078125 3333.815185546875 2337.831298828125 1343.5213623046875 413.255828857421875 170.9965972900390625 301.896453857421875 705.17877197265625 940.552001953125 655.8997802734375 833.08740234375 1488.051513671875 2270.758056640625 3022.956787109375 3780.436279296875 4578.71435546875 nan 
nan 4206.2666015625 3509.792724609375 2637.41748046875 1681.1611328125 779.1873779296875 544.6680908203125 842.03118896484375 1099.1669921875 1364.853759765625 1305.7969970703125 1758.4466552734375 2546.435546875 3447.089111328125 4390.7138671875 5280.50634765625 5644.544921875 5752.609375 6007.1552734375 6409.25830078125 6922.189453125 7055.662109375 6278.58642578125 5353.7060546875 4456.640625 3613.650146484375 2873.60546875 2336.643310546875 2147.464111328125 2291.388427734375 2022.99609375 1161.938232421875 363.455535888671875 439.485931396484375 470.1141357421875 296.4066162109375 585.868408203125 1027.6722412109375 1556.0849609375 2163.906982421875 2284.5400390625 1829.527099609375 1067.5870361328125 590.95794677734375 363.4013671875 252.60028076171875 290.8612060546875 234.4821319580078125 191.5179443359375 64.98712158203125 410.1151123046875 1268.9757080078125 1573.3641357421875 847.4295654296875 458.484771728515625 465.216705322265625 759.0177001953125 1274.4622802734375 1238.7529296875 923.77557373046875 1281.45458984375 1390.9964599609375 1524.806396484375 1971.1956787109375 1912.3514404296875 1210.651123046875 588.32135009765625 390.574676513671875 298.944732666015625 646.754638671875 1050.179443359375 1660.4671630859375 2164.19873046875 1880.2529296875 1391.0179443359375 709.40350341796875 234.998779296875 282.50299072265625 187.5296478271484375 336.4263916015625 1006.67486572265625 1773.2210693359375 2425.545166015625 2404.969970703125 1765.5159912109375 851.28314208984375 301.440155029296875 415.7744140625 825.32666015625 1729.1422119140625 2657.10693359375 3255.858642578125 2714.625 1872.0489501953125 1006.91705322265625 320.05255126953125 300.74078369140625 692.16204833984375 1152.3909912109375 1219.7767333984375 790.8861083984375 289.075164794921875 701.97052001953125 1326.3167724609375 2187.765625 2495.979736328125 1645.8809814453125 712.86083984375 227.7255706787109375 484.081329345703125 992.9254150390625 1040.4168701171875 961.0523681640625 823.739013671875 1137.48193359375 1072.28759765625 523.95794677734375 650.54656982421875 1549.4058837890625 1816.1798095703125 983.30230712890625 330.278289794921875 446.125274658203125 1239.30029296875 2208.051513671875 2927.876220703125 2445.165283203125 1743.441162109375 1366.72607421875 1592.471923828125 2279.947998046875 3120.962158203125 3780.01708984375 4257.2734375 4733.1689453125 5101.07763671875 5585.8662109375 6193.47314453125 6581.2060546875 5962.1474609375 5063.373046875 4203.5 3419.472900390625 2758.870361328125 2095.276123046875 1205.442138671875 364.818939208984375 675.21630859375 1654.0438232421875 2644.596923828125 3632.94189453125 4535.33154296875 4336.8310546875 3365.01220703125 2386.592529296875 1439.2088623046875 643.64019775390625 361.4808349609375 253.009735107421875 289.376129150390625 402.70758056640625 216.623504638671875 311.102783203125 946.24005126953125 1689.9609375 2451.439208984375 3294.102783203125 4172.2685546875 nan 
nan 3599.605224609375 2916.292724609375 2277.52587890625 1468.9454345703125 695.5118408203125 562.56292724609375 502.538909912109375 808.69281005859375 1641.9490966796875 1943.94677734375 2231.5087890625 2843.43310546875 3628.923095703125 4497.74267578125 5407.4541015625 6201.59033203125 6597.53564453125 6850.99609375 7206.12109375 7522.6962890625 7009.275390625 6041.3798828125 5068.4775390625 4108.7216796875 3174.341552734375 2296.44189453125 1574.564208984375 1290.4046630859375 1646.8790283203125 1749.6617431640625 901.6865234375 307.411224365234375 752.83599853515625 1050.8201904296875 795.91644287109375 550.31304931640625 398.134429931640625 960.36517333984375 1797.9742431640625 2422.666748046875 1863.032470703125 915.78936767578125 437.0849609375 640.89508056640625 438.44744873046875 336.868011474609375 246.8415374755859375 395.487762451171875 95.36185455322265625 332.339752197265625 1142.87646484375 1795.9847412109375 1462.4822998046875 880.0572509765625 529.63885498046875 823.2259521484375 1493.1085205078125 997.81170654296875 455.4097900390625 915.10150146484375 770.4058837890625 889.48211669921875 1704.7928466796875 2268.482177734375 1820.0704345703125 1383.957275390625 1091.0521240234375 575.5118408203125 299.983612060546875 433.045196533203125 1188.80078125 2001.5050048828125 2432.12939453125 1970.0081787109375 1127.3870849609375 532.03839111328125 391.437774658203125 201.006134033203125 371.880096435546875 1180.5841064453125 2027.55126953125 2511.347412109375 2054.57373046875 1281.448486328125 682.90997314453125 262.192779541015625 664.00579833984375 1208.1463623046875 1993.221435546875 2896.880859375 3179.08837890625 2349.63134765625 1472.14794921875 823.45599365234375 335.297088623046875 396.002105712890625 705.66064453125 750.8695068359375 564.276611328125 677.1729736328125 280.97802734375 920.5609130859375 1767.7584228515625 2587.668212890625 2754.23583984375 1903.7117919921875 1003.34625244140625 297.53656005859375 330.229583740234375 1074.3775634765625 1633.9903564453125 1705.0548095703125 1343.75927734375 710.63018798828125 438.919189453125 278.26397705078125 559.9644775390625 1426.939453125 1630.5938720703125 791.53411865234375 287.65411376953125 665.36456298828125 1437.0531005859375 2329.205322265625 2787.54638671875 2048.458984375 1154.09423828125 592.03271484375 1008.11492919921875 1906.8138427734375 2619.878662109375 3006.72265625 3510.65625 3913.735595703125 4308.1787109375 4872.390625 5560.75732421875 6226.109375 6038.15771484375 5318.98681640625 4619.8916015625 3984.50146484375 3269.57763671875 2340.298583984375 1351.6688232421875 436.5614013671875 579.40240478515625 1526.4005126953125 2497.94775390625 3474.39892578125 4421.57958984375 4483.7724609375 3596.156982421875 2703.116455078125 1916.14794921875 1354.1121826171875 1126.05322265625 845.797119140625 528.0263671875 435.752716064453125 587.58416748046875 350.703460693359375 421.523040771484375 1136.5906982421875 2017.0594482421875 2956.872314453125 3896.43017578125 nan 
nan 3086.19580078125 2298.7578125 1630.0760498046875 1124.9638671875 481.99969482421875 577.18524169921875 981.76806640625 1249.053466796875 1572.506103515625 1471.9022216796875 1749.392578125 2433.005126953125 3284.2939453125 4201.8974609375 5150.38671875 6114.0693359375 7018.41943359375 7633.84228515625 7996.38037109375 7830.92626953125 6921.65966796875 5924.736328125 4928.80859375 3935.019775390625 2945.775390625 1967.69384765625 1037.760009765625 561.2298583984375 1106.139892578125 1356.76806640625 696.46380615234375 389.64154052734375 435.607940673828125 1038.858154296875 1476.9952392578125 1070.967041015625 440.60443115234375 596.088134765625 1373.56884765625 2151.8603515625 2030.3153076171875 1273.7298583984375 978.39422607421875 1206.953857421875 731.47503662109375 327.785675048828125 476.285491943359375 427.886138916015625 111.53964996337890625 345.155609130859375 950.81414794921875 1859.74609375 2085.65673828125 1617.9617919921875 1251.601806640625 1320.1522216796875 1736.4962158203125 1345.327880859375 947.104736328125 1079.3870849609375 560.04998779296875 705.34814453125 1584.680419921875 2292.61181640625 2391.39013671875 2198.74951171875 1824.0552978515625 1324.2109375 784.56060791015625 275.13397216796875 742.05279541015625 1558.70263671875 2416.989990234375 2372.597900390625 1662.7703857421875 1193.2740478515625 585.12542724609375 256.37628173828125 493.980224609375 1061.9619140625 1521.816162109375 1920.1099853515625 1657.8773193359375 794.708740234375 238.38916015625 173.6241607666015625 700.10546875 1616.2347412109375 2461.7763671875 3223.382568359375 3077.050537109375 2138.69287109375 1178.3577880859375 367.711334228515625 279.70880126953125 869.50115966796875 1186.9140625 714.39642333984375 424.120849609375 470.420745849609375 326.08258056640625 995.62042236328125 1910.70361328125 2849.26416015625 2954.30615234375 2037.222900390625 1075.6181640625 311.723602294921875 316.850189208984375 714.16015625 1378.957763671875 2037.0528564453125 1574.1900634765625 784.8638916015625 513.99285888671875 485.455322265625 983.21875 1507.2313232421875 1432.337890625 663.10736083984375 324.692596435546875 1044.9730224609375 1910.8067626953125 2683.22412109375 2611.8447265625 1750.272705078125 907.158203125 479.1356201171875 996.75408935546875 1685.04931640625 1874.27880859375 2236.9560546875 2764.37939453125 3082.621826171875 3561.148681640625 4226.20263671875 5003.8408203125 5610.3466796875 5405.98779296875 4832.34521484375 4225.9873046875 3739.572998046875 3215.11474609375 2413.659423828125 1470.5284423828125 538.4154052734375 452.921478271484375 1375.3592529296875 2365.79833984375 3357.81689453125 4343.0458984375 4734.6318359375 4015.537353515625 3239.13037109375 2606.571044921875 2174.400146484375 1966.110107421875 1658.91650390625 1345.630615234375 1253.7509765625 1112.4322509765625 633.553955078125 251.2764129638671875 841.6954345703125 1819.1527099609375 2809.492919921875 3733.34716796875 nan 
nan 2549.93505859375 1812.6650390625 1011.957275390625 647.40655517578125 862.186767578125 1121.423828125 1662.7264404296875 1777.5992431640625 1175.5029296875 677.1142578125 1144.4095458984375 2042.0234375 3006.657958984375 3988.8759765625 4978.22314453125 5971.27197265625 6966.20458984375 7938.32666015625 8529.3955078125 7924.69921875 6931.78759765625 5936.5478515625 4943.0068359375 3952.80322265625 2969.5244140625 2003.1790771484375 1098.262451171875 509.758453369140625 631.44549560546875 741.46588134765625 396.60955810546875 345.792938232421875 410.5728759765625 1193.01953125 1951.037841796875 1664.5167236328125 887.1558837890625 433.82470703125 949.78265380859375 1757.83642578125 2268.33837890625 1857.544921875 1375.2615966796875 1266.9410400390625 1207.8223876953125 1025.1114501953125 930.1099853515625 309.394744873046875 125.7623443603515625 274.56842041015625 933.69610595703125 1906.989501953125 2531.696044921875 2046.32275390625 1351.688232421875 1078.7908935546875 1474.8416748046875 1431.4912109375 1004.9041748046875 1191.91455078125 1131.783203125 1117.243408203125 1341.7987060546875 1651.777099609375 2063.638916015625 2349.392578125 2363.5380859375 1817.5042724609375 978.45703125 244.05242919921875 484.494354248046875 1305.249267578125 2214.925048828125 2716.888916015625 2350.68408203125 1822.8487548828125 1118.3204345703125 486.290924072265625 241.95111083984375 456.085968017578125 759.93310546875 1193.98779296875 1096.605712890625 655.954345703125 221.139007568359375 189.767120361328125 730.028076171875 1686.2366943359375 2666.71142578125 3381.173828125 2871.213134765625 1933.5948486328125 1003.8492431640625 266.378570556640625 364.06536865234375 1185.100341796875 1729.3726806640625 1245.0341796875 631.14764404296875 259.178680419921875 711.00592041015625 1467.6072998046875 2275.95849609375 3113.849609375 3173.091552734375 2307.236572265625 1457.3394775390625 742.1993408203125 243.5563201904296875 404.4962158203125 1212.425048828125 2068.27490234375 2008.683349609375 1499.789794921875 1209.1702880859375 1131.4127197265625 1529.823486328125 1258.6767578125 834.60662841796875 447.482513427734375 429.5645751953125 1240.0172119140625 2149.02587890625 2702.19384765625 2403.311767578125 1493.443115234375 616.67486572265625 478.179107666015625 912.42523193359375 1164.4046630859375 1045.3714599609375 1569.0377197265625 1976.508544921875 2282.876953125 2895.97314453125 3683.200927734375 4542.80126953125 4930.67333984375 4605.201171875 4151.763671875 3513.6630859375 2958.835693359375 2546.31103515625 2084.354248046875 1386.841796875 559.169677734375 392.06878662109375 1289.5318603515625 2279.373291015625 3273.198486328125 4268.98095703125 4990.9638671875 4570.2861328125 3902.892333984375 3375.992431640625 3023.735107421875 2812.52734375 2484.581787109375 2185.705078125 1777.7271728515625 953.8472900390625 294.1820068359375 351.8931884765625 959.27880859375 1809.22119140625 2697.91455078125 3289.879638671875 nan 
nan 2068.34912109375 1269.2711181640625 678.581787109375 460.25897216796875 813.549560546875 1153.7325439453125 1881.1470947265625 1972.5540771484375 1114.1983642578125 555.25701904296875 1064.4111328125 1998.1192626953125 2977.094970703125 3966.671142578125 4960.4619140625 5956.478515625 6953.6259765625 7951.3525390625 8652.03515625 8033.8642578125 7052.36376953125 6076.9365234375 5110.8212890625 4160.87158203125 3241.0126953125 2373.699951171875 1546.1104736328125 746.65960693359375 471.103485107421875 416.66217041015625 314.93896484375 297.305023193359375 776.8031005859375 1623.425048828125 2384.5048828125 2144.48876953125 1311.07666015625 557.9163818359375 520.28826904296875 1310.55517578125 2087.01806640625 1820.41357421875 936.373291015625 614.9010009765625 1251.1663818359375 1598.0540771484375 952.83343505859375 182.530670166015625 115.89571380615234375 422.792755126953125 1143.065185546875 1990.5596923828125 2547.4150390625 1890.717529296875 942.27716064453125 455.5225830078125 1057.30322265625 1112.7965087890625 475.1624755859375 906.27105712890625 1509.988037109375 1019.84033203125 603.36865234375 885.32513427734375 1278.1536865234375 1681.902587890625 2074.42626953125 1474.51611328125 772.82733154296875 223.9776763916015625 338.6368408203125 1060.59765625 2011.3150634765625 2485.12890625 2274.6484375 2124.458984375 1707.724365234375 1113.43212890625 537.22747802734375 281.315216064453125 333.75079345703125 501.75634765625 363.628387451171875 276.274169921875 218.1618499755859375 326.2010498046875 738.8551025390625 1622.998779296875 2462.113525390625 3093.787109375 2629.871826171875 1666.0299072265625 764.7530517578125 240.9065093994140625 379.219635009765625 1208.364013671875 2030.939453125 1727.29296875 809.63800048828125 297.660400390625 958.2999267578125 1838.140380859375 2720.812744140625 3546.382568359375 3561.5615234375 2762.985595703125 1931.341552734375 1041.4315185546875 302.848358154296875 519.615478515625 1224.6741943359375 1772.8109130859375 2270.559814453125 2298.1572265625 2034.6790771484375 1907.4605712890625 1724.922119140625 944.08599853515625 319.669281005859375 236.3909149169921875 567.625732421875 1335.312744140625 1826.32666015625 1982.81103515625 2044.535400390625 1657.131103515625 971.94012451171875 540.755126953125 678.620849609375 769.31109619140625 522.6737060546875 1087.4647216796875 1153.4073486328125 1580.78271484375 2381.975830078125 3294.736328125 4165.15576171875 4209.787109375 3783.0234375 3403.593505859375 2865.369140625 2206.69775390625 1727.207275390625 1384.2021484375 819.01727294921875 262.304840087890625 502.764801025390625 1399.3232421875 2359.29833984375 3333.08154296875 4315.59765625 5219.20556640625 5201.54638671875 4638.41552734375 4180.67236328125 3886.558349609375 3657.2392578125 3304.5634765625 2804.645751953125 1951.5758056640625 1031.8380126953125 318.013824462890625 399.9495849609375 738.54071044921875 1463.3123779296875 2197.715087890625 2472.47509765625 nan 
nan 1651.88525390625 942.58026123046875 395.39996337890625 402.648529052734375 318.4713134765625 722.99212646484375 1665.7064208984375 2175.47314453125 1630.9234619140625 1283.697509765625 1588.539794921875 2319.986572265625 3201.576171875 4137.6201171875 5098.10986328125 6071.54541015625 7052.4189453125 8037.8779296875 8778.7802734375 8234.6513671875 7280.3740234375 6337.17236328125 5403.876953125 4477.1005859375 3550.474853515625 2617.666015625 1676.5152587890625 852.451416015625 656.9891357421875 489.568206787109375 288.3482666015625 438.82666015625 1198.080322265625 2063.252197265625 2831.730224609375 2590.33837890625 1725.3294677734375 854.9869384765625 351.3382568359375 891.13519287109375 1707.2376708984375 1780.1722412109375 955.49639892578125 567.72406005859375 1229.759521484375 1520.7073974609375 729.41058349609375 117.95307159423828125 219.118255615234375 443.30731201171875 899.01580810546875 1621.4366455078125 2306.240966796875 1947.400634765625 1113.658447265625 725.8592529296875 1182.6851806640625 1319.4937744140625 860.091552734375 1170.9903564453125 1641.071533203125 999.7119140625 449.397003173828125 518.07330322265625 561.087646484375 1149.4842529296875 1778.291748046875 1160.223388671875 417.37939453125 199.2530059814453125 419.815399169921875 1186.6851806640625 2010.655517578125 1867.9451904296875 1449.275146484375 1568.5960693359375 1972.7645263671875 1753.9217529296875 1248.03955078125 675.65277099609375 292.0513916015625 245.6828460693359375 208.9505462646484375 252.634735107421875 191.7618408203125 206.2859649658203125 594.21630859375 1210.4947509765625 1927.490966796875 2717.51806640625 2590.4599609375 1654.9273681640625 748.72113037109375 252.3509674072265625 461.260528564453125 1333.8157958984375 2200.32421875 1923.8350830078125 964.3448486328125 326.329681396484375 860.24365234375 1818.6395263671875 2800.841064453125 3753.152587890625 3975.8701171875 3176.497314453125 2273.615966796875 1399.1461181640625 547.76605224609375 333.49053955078125 632.6220703125 1142.6265869140625 1935.821044921875 2626.57861328125 2657.8779296875 2091.3984375 1342.398193359375 616.66033935546875 259.9698486328125 543.06036376953125 809.32244873046875 881.65960693359375 1090.0955810546875 1140.31787109375 1405.3289794921875 1892.7828369140625 1677.5994873046875 1189.2335205078125 1206.286865234375 1131.0322265625 933.14306640625 882.47454833984375 515.060791015625 1169.7318115234375 2131.82177734375 3118.3955078125 3815.498046875 3474.115234375 2972.3203125 2588.259033203125 2201.409423828125 1553.6480712890625 934.56793212890625 601.88897705078125 336.7125244140625 257.743255615234375 940.37042236328125 1754.3848876953125 2638.023193359375 3567.496826171875 4517.76025390625 5463.89453125 5843.1708984375 5412.36376953125 5008.40234375 4753.79736328125 4491.51708984375 3994.279296875 3189.225830078125 2315.88134765625 1475.285888671875 708.62091064453125 250.4857635498046875 311.860595703125 979.2745361328125 1478.9422607421875 1602.8614501953125 nan 
nan 1049.13525390625 679.57354736328125 752.25347900390625 782.37872314453125 521.95806884765625 777.795166015625 1671.72998046875 2478.5498046875 2370.318115234375 2146.80810546875 2344.03759765625 2890.670166015625 3636.168701171875 4482.15478515625 5381.3818359375 6311.20849609375 7259.73291015625 8220.3525390625 8971.8525390625 8471.5283203125 7515.84765625 6548.2451171875 5568.80224609375 4580.30712890625 3588.2763671875 2598.421875 1617.822021484375 702.66998291015625 426.37762451171875 292.600830078125 253.389617919921875 661.65716552734375 1303.752197265625 2123.72265625 2983.07470703125 2980.41162109375 2157.304443359375 1298.0078125 528.5572509765625 518.0225830078125 1238.790771484375 1795.0103759765625 1517.493896484375 1286.55126953125 1669.2044677734375 1567.4747314453125 694.46380615234375 102.82157135009765625 311.886505126953125 404.316925048828125 488.761444091796875 1207.5001220703125 1773.583984375 1731.2493896484375 1018.2086181640625 695.34088134765625 976.9534912109375 1509.4381103515625 1654.7928466796875 1868.7303466796875 2096.60888671875 1568.439697265625 1189.2757568359375 920.6212158203125 621.2437744140625 1176.11279296875 1867.7535400390625 1394.0875244140625 612.231201171875 277.757598876953125 788.7288818359375 1479.07470703125 2001.5589599609375 1354.88525390625 674.27783203125 900.48223876953125 1744.9510498046875 2300.1279296875 1935.1458740234375 1347.769775390625 966.41986083984375 797.66107177734375 403.439239501953125 593.9896240234375 650.80438232421875 348.662445068359375 235.347015380859375 667.86871337890625 1516.5457763671875 2306.722412109375 2614.77001953125 1914.06884765625 1063.917724609375 341.95172119140625 675.4832763671875 1540.6063232421875 2252.049560546875 1792.7354736328125 930.80657958984375 337.5902099609375 756.42169189453125 1675.9442138671875 2607.69189453125 3506.357666015625 4091.08544921875 3556.57080078125 2668.4462890625 1770.7386474609375 940.3914794921875 384.466796875 209.9132080078125 661.21173095703125 1439.51611328125 2305.279052734375 2514.82080078125 1684.9752197265625 850.6622314453125 332.501983642578125 619.10882568359375 1216.1063232421875 1150.095947265625 519.938720703125 693.20458984375 496.243896484375 914.59613037109375 1842.0447998046875 2289.043701171875 1989.07373046875 1722.486572265625 1326.670166015625 1264.7376708984375 1121.2913818359375 805.23095703125 1342.2239990234375 2231.117431640625 3157.524658203125 3415.470458984375 2781.011474609375 2189.147216796875 1763.046630859375 1418.7769775390625 979.84820556640625 371.62451171875 275.112030029296875 109.85298919677734375 422.515289306640625 1312.373779296875 2210.415283203125 3061.041748046875 3921.5068359375 4818.92333984375 5746.3828125 6429.9375 6208.6884765625 5852.677734375 5618.56640625 5234.57861328125 4482.4521484375 3630.476806640625 2797.95751953125 2019.6171875 1308.0523681640625 842.48968505859375 333.38555908203125 495.922119140625 651.7593994140625 770.2392578125 nan 
nan 618.99371337890625 373.09234619140625 592.00946044921875 502.529754638671875 989.19378662109375 1372.447998046875 2034.838134765625 2808.843017578125 2969.419189453125 2875.493408203125 3075.475341796875 3541.892333984375 4191.435546875 4953.80224609375 5785.44287109375 6661.33984375 7566.740234375 8492.6044921875 9101.23046875 8439.34375 7453.84521484375 6471.0546875 5492.3056640625 4519.93994140625 3558.677978515625 2619.2392578125 1734.2890625 1040.2315673828125 598.4195556640625 253.053070068359375 392.8746337890625 466.59454345703125 949.4456787109375 1895.5155029296875 2875.05810546875 3310.099853515625 2597.3701171875 1741.083740234375 895.6427001953125 308.96478271484375 689.37432861328125 1336.650146484375 1813.8626708984375 2057.60791015625 2324.586181640625 1930.5640869140625 1062.3685302734375 283.060333251953125 167.0245361328125 403.754119873046875 307.352996826171875 598.8382568359375 1049.6832275390625 1149.9508056640625 669.36328125 284.366668701171875 438.00689697265625 1261.8720703125 2030.73291015625 2477.006103515625 2713.2431640625 2340.985107421875 2027.8897705078125 1639.6260986328125 1406.8310546875 1737.226318359375 2228.69482421875 1668.4276123046875 735.24920654296875 261.015899658203125 689.60772705078125 1498.608154296875 2005.50341796875 1286.8521728515625 557.27203369140625 819.697265625 1714.754638671875 2599.968505859375 2605.5986328125 2140.2958984375 1784.3629150390625 1285.46875 712.252685546875 922.922607421875 832.44451904296875 261.58062744140625 248.0256195068359375 522.64990234375 1031.3028564453125 1773.322021484375 2279.3525390625 1666.663818359375 861.385498046875 289.499603271484375 839.6287841796875 1726.90185546875 2071.919921875 1537.81787109375 627.609130859375 237.0078125 550.482177734375 1359.71240234375 2213.62939453125 3068.056640625 3834.26904296875 3820.691162109375 3002.979248046875 2212.905517578125 1552.109130859375 981.453857421875 385.02410888671875 326.719940185546875 1119.803955078125 2030.31298828125 2227.266845703125 1386.2591552734375 505.8341064453125 431.06304931640625 1171.733154296875 1833.8822021484375 1591.0189208984375 1067.047607421875 986.63568115234375 437.417694091796875 785.9749755859375 1743.8966064453125 2603.634521484375 2435.4736328125 1561.2733154296875 741.45538330078125 763.1688232421875 1421.836181640625 1612.1573486328125 1952.6539306640625 2634.40869140625 3153.14697265625 2844.92236328125 2166.736328125 1463.249755859375 952.03118896484375 600.10369873046875 345.49932861328125 211.2025604248046875 253.30126953125 125.5647430419921875 611.42559814453125 1553.1510009765625 2503.791748046875 3444.09228515625 4350.796875 5224.67138671875 6101.28173828125 6925.85400390625 7013.21630859375 6707.9580078125 6430.7890625 5789.62548828125 4950.2646484375 4126.3271484375 3352.759033203125 2618.1962890625 1982.0526123046875 1282.0262451171875 419.90478515625 178.7942657470703125 215.1789398193359375 271.128021240234375 nan 
nan 541.34759521484375 687.9718017578125 859.4534912109375 698.0123291015625 1312.4996337890625 2048.4501953125 2551.12158203125 2709.21240234375 2492.49658203125 2504.246826171875 2875.91552734375 3497.697998046875 4260.21728515625 5099.2705078125 5981.732421875 6890.16015625 7814.5712890625 8746.677734375 9159.3984375 8346.1396484375 7349.84326171875 6353.35205078125 5357.923828125 4364.64794921875 3375.6435546875 2395.84716796875 1445.447021484375 688.02264404296875 352.636627197265625 210.4231109619140625 630.4410400390625 798.130859375 1173.802734375 2020.04345703125 2963.917236328125 3609.5947265625 3048.32373046875 2193.00830078125 1362.7618408203125 624.4635009765625 294.231231689453125 665.87689208984375 1322.6778564453125 2062.83544921875 2566.970703125 2032.6793212890625 1298.430419921875 644.0972900390625 140.9569244384765625 286.024627685546875 229.3319091796875 118.20442962646484375 515.23614501953125 589.35540771484375 536.2257080078125 640.4014892578125 398.332763671875 1047.727294921875 1535.7017822265625 2155.837890625 2889.807373046875 3114.3076171875 2846.5107421875 2439.02392578125 2277.011474609375 2495.502197265625 2681.402099609375 1955.0098876953125 1098.859130859375 508.074798583984375 558.86724853515625 1409.1455078125 2137.001708984375 1729.2821044921875 1265.5205078125 1420.6539306640625 2078.084228515625 2919.38232421875 3296.928955078125 2957.642333984375 2519.677734375 1897.6004638671875 1518.61083984375 1447.4481201171875 786.91607666015625 261.927734375 426.0235595703125 296.0560302734375 589.64862060546875 1495.7386474609375 1979.9722900390625 1260.809326171875 432.93035888671875 267.613983154296875 1007.02557373046875 1451.5328369140625 1335.8116455078125 1314.522705078125 665.47808837890625 425.109222412109375 441.147308349609375 947.032958984375 1778.5211181640625 2549.84130859375 3356.943359375 3587.954345703125 2816.4921875 2063.982421875 1571.4166259765625 1167.291259765625 400.972442626953125 381.986175537109375 1063.2025146484375 1558.7607421875 1869.1019287109375 1310.6292724609375 425.3831787109375 574.57061767578125 1460.46533203125 2234.28515625 2224.954833984375 1888.971923828125 1518.2362060546875 973.5643310546875 1155.4322509765625 1892.68603515625 2692.68212890625 2512.181884765625 1578.338623046875 770.24432373046875 802.41259765625 1619.8123779296875 2340.851806640625 2708.52099609375 2978.4345703125 2681.478515625 2131.49072265625 1542.9515380859375 849.17694091796875 312.421875 239.2927093505859375 227.825958251953125 133.338226318359375 71.2495269775390625 169.479583740234375 784.6087646484375 1740.6517333984375 2714.733154296875 3687.206298828125 4653.53369140625 5603.548828125 6517.6533203125 7387.55517578125 7790.32373046875 7556.58740234375 7078.138671875 6272.46875 5458.13525390625 4688.8916015625 3946.682373046875 3231.452880859375 2418.828369140625 1521.580322265625 781.15887451171875 409.61053466796875 550.814453125 459.99078369140625 nan 
nan 1192.1478271484375 1343.576416015625 1580.9930419921875 1458.0279541015625 1675.8306884765625 2137.092529296875 2373.465576171875 1995.247802734375 1640.058837890625 1664.389892578125 2189.43896484375 2970.531494140625 3854.810546875 4784.97509765625 5738.74365234375 6706.16064453125 7681.923828125 8648.267578125 8962.7119140625 8205.6728515625 7275.97119140625 6313.81689453125 5335.73681640625 4353.6796875 3370.36572265625 2392.27099609375 1435.0679931640625 598.875732421875 205.361083984375 323.886962890625 1043.746826171875 1558.9776611328125 1847.0255126953125 2477.948486328125 3293.607421875 3970.40966796875 3509.910888671875 2690.66064453125 1938.1246337890625 1256.418212890625 632.36712646484375 294.341339111328125 762.6468505859375 1597.517578125 2224.527099609375 1656.16259765625 838.59375 655.5 498.529296875 242.267242431640625 243.6327972412109375 202.281219482421875 214.032623291015625 451.763092041015625 691.4927978515625 1050.1744384765625 860.00634765625 682.2606201171875 878.31890869140625 1724.5457763671875 2680.66162109375 3514.717041015625 3508.853271484375 3153.044921875 3052.343017578125 3231.728515625 3153.684814453125 2402.15283203125 1736.052490234375 1233.14111328125 1155.3577880859375 1742.997314453125 2488.337646484375 2420.45556640625 2122.422119140625 2220.302001953125 2693.877685546875 3399.7509765625 3975.927490234375 3756.64306640625 3197.30224609375 2652.089111328125 2360.974365234375 1913.6419677734375 1078.8992919921875 442.0240478515625 274.74420166015625 187.0710296630859375 663.98809814453125 1272.63134765625 1504.969970703125 1051.7281494140625 283.44879150390625 376.479827880859375 1104.9140625 945.76446533203125 524.76470947265625 914.24884033203125 1012.200927734375 491.666412353515625 293.885498046875 628.0322265625 1239.9462890625 2071.136962890625 2984.03955078125 3272.4912109375 2433.386962890625 1525.1419677734375 839.310302734375 786.79058837890625 441.578765869140625 261.11749267578125 566.9033203125 812.4937744140625 1473.17431640625 1377.4505615234375 499.062744140625 504.12481689453125 1210.0625 1985.3450927734375 2660.535888671875 2640.085205078125 2044.331787109375 1439.059814453125 1251.44287109375 1669.2110595703125 2419.4755859375 2698.221435546875 2021.360595703125 1472.040283203125 1493.057373046875 2067.371826171875 2828.849853515625 3073.579345703125 2635.91357421875 1997.9527587890625 1404.9241943359375 843.19683837890625 355.262603759765625 308.318939208984375 340.47515869140625 152.343414306640625 131.110687255859375 58.6583251953125 268.7113037109375 1019.30926513671875 1949.545654296875 2910.61181640625 3879.856689453125 4852.50927734375 5826.96142578125 6799.8525390625 7758.22509765625 8473.0869140625 8311.8935546875 7596.3427734375 6792.24462890625 6026.27294921875 5278.5947265625 4521.91943359375 3676.277587890625 2814.1259765625 2065.646240234375 1506.6375732421875 1184.8182373046875 1270.653564453125 1236.1983642578125 nan 
nan 2033.5845947265625 2114.58251953125 2124.451416015625 1554.607666015625 1187.850830078125 1468.935791015625 1711.899169921875 1223.073486328125 825.6112060546875 918.4749755859375 1689.9310302734375 2624.815185546875 3595.48291015625 4578.78564453125 5568.06005859375 6560.73388671875 7555.32470703125 8463.333984375 8428.740234375 7747.01123046875 6941.2587890625 6058.48193359375 5153.4150390625 4231.0771484375 3308.46044921875 2394.54443359375 1487.525634765625 608.3680419921875 188.02252197265625 613.93206787109375 1479.4334716796875 2250.504150390625 2644.49169921875 3124.045654296875 3806.7138671875 4424.1650390625 4022.110107421875 3273.1435546875 2581.631103515625 1936.2322998046875 1282.0853271484375 550.66314697265625 398.61700439453125 1171.825927734375 1922.960693359375 1574.5538330078125 643.06402587890625 347.18255615234375 734.42816162109375 834.4932861328125 718.794189453125 469.976104736328125 146.8851165771484375 470.371978759765625 1062.4942626953125 1498.6845703125 1346.6905517578125 669.22955322265625 809.8768310546875 1686.66455078125 2656.776611328125 3406.5478515625 3182.865234375 2821.211669921875 2777.73974609375 3061.754150390625 3364.634765625 3023.526123046875 2479.9716796875 2042.72509765625 1966.517822265625 2232.418212890625 2592.3984375 2837.86474609375 2931.740234375 3052.19580078125 3386.134033203125 3925.946533203125 4511.97509765625 4465.6552734375 3909.400146484375 3452.567138671875 3017.968017578125 2276.798583984375 1527.1060791015625 1069.2835693359375 725.9945068359375 250.3377532958984375 346.5897216796875 574.98370361328125 706.19439697265625 656.9405517578125 197.4951934814453125 279.26123046875 797.96075439453125 739.04986572265625 300.6007080078125 694.58984375 1213.1326904296875 619.36944580078125 387.155548095703125 290.7225341796875 869.2293701171875 1829.9698486328125 2805.324462890625 3071.470947265625 2197.30615234375 1236.8218994140625 389.74212646484375 358.022705078125 436.456085205078125 218.785980224609375 163.2827301025390625 520.59197998046875 1389.01953125 1566.2686767578125 751.12432861328125 282.459136962890625 734.264892578125 1639.9970703125 2568.19384765625 2776.5166015625 1929.60986328125 1042.643310546875 579.48516845703125 1172.9656982421875 2111.450927734375 2894.685302734375 2690.62451171875 2309.791748046875 2322.921630859375 2687.432373046875 2891.01708984375 2516.66162109375 1967.3416748046875 1325.3458251953125 718.28643798828125 369.975006103515625 344.9366455078125 270.497833251953125 200.6710205078125 105.36713409423828125 89.08266448974609375 84.96007537841796875 230.2534637451171875 994.97064208984375 1986.487548828125 2982.8056640625 3979.043212890625 4973.75537109375 5966.490234375 6956.673828125 7943.91943359375 8863.0517578125 8883.7294921875 8127.650390625 7363.9580078125 6610.47314453125 5825.47705078125 4973.111328125 4136.20751953125 3385.09619140625 2776.853515625 2290.357421875 2049.77783203125 2118.731201171875 2111.438720703125 nan 
nan 2335.962158203125 2243.05224609375 2005.78759765625 1144.0244140625 510.209808349609375 835.324462890625 999.67877197265625 637.7742919921875 361.234588623046875 684.83428955078125 1570.1832275390625 2549.656005859375 3541.0986328125 4536.2490234375 5533.1533203125 6531.14453125 7529.37353515625 8245.2412109375 7822.04638671875 7115.59716796875 6435.79541015625 5641.90087890625 4763.9697265625 3878.106201171875 2976.077392578125 2059.986328125 1152.2291259765625 369.211456298828125 283.847503662109375 1000.9466552734375 1882.75634765625 2763.906005859375 3427.459716796875 3862.210205078125 4425.9765625 4938.0380859375 4579.46142578125 3907.570556640625 3257.945556640625 2597.7412109375 1824.6575927734375 957.56182861328125 314.582275390625 756.75311279296875 1606.3828125 1752.673828125 1019.775146484375 427.146728515625 318.400115966796875 495.084442138671875 431.616485595703125 153.3531036376953125 110.90593719482421875 404.137908935546875 598.4075927734375 1118.2823486328125 1579.90087890625 1349.27099609375 1434.367919921875 2063.8427734375 2885.924072265625 3102.2529296875 2465.115966796875 1977.1270751953125 1918.84130859375 2319.7626953125 2987.79638671875 3302.02783203125 3109.726318359375 2730.02734375 2257.281982421875 1872.8001708984375 1871.9578857421875 2331.412109375 2974.78515625 3202.159423828125 3303.787353515625 3650.146240234375 4197.2734375 4715.60986328125 4581.5224609375 3900.33154296875 3009.5576171875 2077.9912109375 1236.627685546875 829.30804443359375 1006.59246826171875 656.2447509765625 330.52227783203125 236.4579315185546875 194.440704345703125 395.198883056640625 162.566009521484375 164.2109222412109375 243.6616973876953125 443.40496826171875 785.81103515625 1195.246826171875 1588.1533203125 1079.4053955078125 778.83489990234375 612.3115234375 1071.8885498046875 1953.056640625 2884.6083984375 3061.2529296875 2157.94384765625 1196.6964111328125 397.387542724609375 260.655303955078125 206.6060791015625 312.7913818359375 488.909759521484375 975.3551025390625 1725.010986328125 1894.7923583984375 1097.5791015625 355.915802001953125 532.55633544921875 1454.091552734375 2415.55615234375 2590.68310546875 1699.84326171875 741.9769287109375 341.832916259765625 1116.0672607421875 2089.731201171875 3046.580078125 3397.171142578125 3139.922607421875 2977.053466796875 2754.791748046875 2324.634033203125 1769.9471435546875 1257.929931640625 672.24041748046875 331.703155517578125 515.2745361328125 333.09088134765625 226.3723907470703125 190.9603271484375 122.2329559326171875 120.15264129638671875 57.41905975341796875 343.777801513671875 1177.9771728515625 2110.592041015625 3072.397216796875 4050.80126953125 5036.873046875 6027.228515625 7018.92041015625 7966.03076171875 8727.8759765625 9086.78515625 8685.869140625 7940.95654296875 7135.48876953125 6286.12548828125 5466.34423828125 4715.24462890625 4068.378173828125 3538.197021484375 3107.9765625 2929.11962890625 2990.327880859375 2995.8349609375 nan 
nan 1641.656005859375 1454.2193603515625 1654.352783203125 1232.1893310546875 668.0758056640625 495.155364990234375 411.53204345703125 610.4339599609375 686.1019287109375 1214.6328125 1893.0885009765625 2759.669677734375 3694.93603515625 4657.22607421875 5632.7109375 6615.67529296875 7591.6416015625 7949.3740234375 7253.83935546875 6486.00048828125 5788.69970703125 5134.5888671875 4350.77294921875 3465.158935546875 2583.41162109375 1704.5384521484375 818.5750732421875 212.754638671875 559.4727783203125 1405.6009521484375 2292.150390625 3164.465576171875 3833.8583984375 4149.99609375 4523.3154296875 4796.7216796875 4500.0986328125 4176.17236328125 3805.701904296875 3120.169677734375 2249.603271484375 1375.18408203125 542.23236083984375 417.9365234375 1210.155029296875 1893.64892578125 1652.4324951171875 1089.624755859375 619.64947509765625 413.270965576171875 187.8896026611328125 181.6229095458984375 178.491973876953125 188.126434326171875 161.718902587890625 591.95013427734375 1337.67626953125 1936.1973876953125 2233.390625 2693.52197265625 3208.92138671875 2763.699462890625 1884.7166748046875 1189.8262939453125 1094.6136474609375 1698.38916015625 2433.928466796875 2623.041259765625 2805.30322265625 2631.50439453125 1792.028076171875 1094.16015625 1072.4678955078125 1733.64013671875 2413.8134765625 2406.10693359375 2474.856201171875 2896.5302734375 3556.723388671875 4334.78564453125 4692.32666015625 3897.52685546875 2903.980224609375 1917.1876220703125 964.1016845703125 453.922271728515625 1024.528076171875 884.45733642578125 335.17236328125 507.98419189453125 277.2808837890625 313.069580078125 237.5984344482421875 335.725555419921875 202.5074615478515625 232.8567962646484375 872.9676513671875 1568.0517578125 1967.034912109375 1405.8873291015625 720.4417724609375 753.29815673828125 1411.317138671875 2247.043701171875 3130.37255859375 3218.87451171875 2303.69287109375 1331.1419677734375 454.691497802734375 255.45556640625 273.0386962890625 264.834075927734375 963.8153076171875 1631.5174560546875 2235.7763671875 2187.07177734375 1292.7257080078125 448.02825927734375 658.1795654296875 1577.072021484375 2456.7197265625 2335.50048828125 1450.0252685546875 566.86376953125 293.562591552734375 1075.8831787109375 2061.4326171875 3040.527099609375 3597.303466796875 3258.59326171875 2659.7021484375 2068.12255859375 1596.688232421875 1045.9754638671875 558.18634033203125 298.04864501953125 477.949676513671875 434.2491455078125 187.689666748046875 174.217376708984375 185.0873870849609375 163.432037353515625 69.0707550048828125 98.44366455078125 617.02838134765625 1509.9288330078125 2431.111083984375 3349.2294921875 4277.63720703125 5225.1025390625 6171.2275390625 6981.7607421875 7550.82568359375 8045.44140625 8600.7861328125 8946.7470703125 8443.8212890625 7607.705078125 6799.865234375 6049.17919921875 5377.5302734375 4811.078125 4318.720703125 3952.92236328125 3813.289306640625 3869.425048828125 3882.9189453125 nan 
nan 995.3165283203125 660.15277099609375 1211.2943115234375 1313.7811279296875 795.54437255859375 732.15582275390625 808.46978759765625 1129.3896484375 1291.0037841796875 1771.1063232421875 2412.08056640625 3179.786376953125 4035.053466796875 4936.43603515625 5866.359375 6815.6796875 7700.7822265625 7601.22802734375 6754.64208984375 5922.39990234375 5150.4267578125 4468.93603515625 3855.455078125 3083.6689453125 2177.259765625 1284.8486328125 480.7640380859375 302.5755615234375 993.0899658203125 1836.6806640625 2684.5966796875 3236.1953125 3288.160400390625 3420.147705078125 3798.00439453125 4055.172607421875 3706.17578125 3469.832763671875 3481.488037109375 3369.4384765625 2676.83251953125 1808.5606689453125 926.0045166015625 309.62994384765625 851.77490234375 1785.8272705078125 2240.8564453125 1837.6439208984375 1419.415283203125 1115.7210693359375 550.01513671875 252.5502166748046875 493.098419189453125 301.438446044921875 151.7496490478515625 296.901458740234375 1009.7869873046875 1864.996337890625 2626.37451171875 3188.65576171875 3372.740478515625 2593.6982421875 1612.063232421875 710.4661865234375 576.20050048828125 1392.1376953125 1858.58642578125 1753.813720703125 2048.807373046875 2312.893310546875 1561.75 648.6983642578125 553.5106201171875 1384.395263671875 1846.8521728515625 1546.8892822265625 1649.3388671875 2228.265625 3013.20654296875 3866.212158203125 4535.70458984375 4014.2177734375 3061.791259765625 2149.126953125 1366.685302734375 1030.0050048828125 1406.3338623046875 1338.43408203125 967.79345703125 1070.427001953125 599.0989990234375 208.99224853515625 631.38616943359375 710.38787841796875 220.579071044921875 241.2400665283203125 493.12408447265625 1071.252685546875 1745.32958984375 1404.9095458984375 549.22015380859375 411.50396728515625 1206.9259033203125 2149.21630859375 2951.854736328125 3200.455078125 2439.0146484375 1527.0306396484375 806.70086669921875 382.7530517578125 248.5767822265625 464.761962890625 1106.0941162109375 1730.063720703125 2135.6083984375 1958.8475341796875 1162.17236328125 370.996246337890625 607.283203125 1501.024658203125 2318.747802734375 1975.7349853515625 1090.8167724609375 339.0947265625 430.44769287109375 1197.8316650390625 2086.563232421875 2826.489990234375 2924.347900390625 2654.69921875 1982.3819580078125 1352.695068359375 839.54852294921875 442.517364501953125 381.3685302734375 563.5509033203125 425.46942138671875 155.5841217041015625 138.60107421875 250.2774810791015625 284.69390869140625 194.9130401611328125 73.7461395263671875 133.831573486328125 782.49383544921875 1739.1044921875 2695.3564453125 3648.454345703125 4593.23486328125 5447.89306640625 6007.4638671875 6367.8525390625 6778.5546875 7301.01953125 7915.9638671875 8583.3037109375 8784.8486328125 8134.80078125 7384.775390625 6697.96533203125 6096.5029296875 5577.10009765625 5121.8623046875 4813.65771484375 4699.56591796875 4751.525390625 4771.0302734375 nan 
nan 695.58282470703125 291.441162109375 901.4759521484375 1129.8480224609375 514.41094970703125 888.980224609375 1442.6490478515625 1176.123046875 968.7529296875 1494.844970703125 2349.91650390625 3279.709228515625 4228.98681640625 5182.150390625 6133.73876953125 7082.92919921875 7783.19189453125 7262.49755859375 6341.591796875 5446.53125 4595.224609375 3817.019775390625 3164.816650390625 2632.44140625 1897.2191162109375 959.00311279296875 306.558563232421875 650.9114990234375 1455.494384765625 2302.52490234375 2855.173828125 2634.058349609375 2415.357421875 2578.111328125 3056.54052734375 3349.90771484375 2901.965576171875 2594.0595703125 2645.365234375 3004.26123046875 2995.294189453125 2191.9453125 1254.5023193359375 404.507080078125 678.01715087890625 1652.77392578125 2470.825439453125 2232.001708984375 1701.59521484375 1243.6561279296875 633.32989501953125 272.6505126953125 237.5227508544921875 153.6591796875 89.68438720703125 138.544921875 621.163818359375 1466.2642822265625 2248.00390625 2677.25732421875 3082.122314453125 2696.48583984375 1799.5911865234375 1062.008056640625 980.10797119140625 1498.5972900390625 1266.3394775390625 918.25213623046875 1396.823974609375 2071.71435546875 1611.9937744140625 712.62078857421875 427.2611083984375 1043.0543212890625 1339.7982177734375 765.6678466796875 928.7362060546875 1697.4576416015625 2576.753173828125 3491.807373046875 4337.7490234375 4277.5791015625 3450.25927734375 2673.99169921875 2093.2607421875 1879.2816162109375 2110.715087890625 2067.50390625 1824.2308349609375 1742.6707763671875 1099.805419921875 701.8995361328125 1128.22900390625 1167.9947509765625 670.21075439453125 448.635345458984375 252.272186279296875 590.58245849609375 1441.6815185546875 1617.3341064453125 876.61846923828125 406.968780517578125 1076.6778564453125 1768.637939453125 2323.972900390625 2837.67236328125 2678.016357421875 2079.578125 1495.1693115234375 767.7589111328125 266.346160888671875 289.1104736328125 701.31365966796875 1017.8826904296875 1516.424560546875 1460.59814453125 735.08197021484375 273.749969482421875 607.72235107421875 1465.920654296875 2238.61181640625 1774.5772705078125 803.54901123046875 227.0656890869140625 537.39556884765625 1056.4549560546875 1824.70654296875 2178.798583984375 2054.141357421875 2011.2200927734375 1421.9351806640625 686.04132080078125 305.271728515625 479.147003173828125 630.77593994140625 353.39093017578125 148.836883544921875 136.524627685546875 353.682708740234375 444.580657958984375 262.37353515625 269.2666015625 75.2332305908203125 201.0909423828125 855.0406494140625 1783.9061279296875 2760.490234375 3748.83642578125 4653.48193359375 5065.8203125 5233.61865234375 5545.14306640625 6008.68115234375 6592.40869140625 7267.5498046875 8010.8486328125 8719.78515625 8677.43359375 8024.57373046875 7396.3095703125 6849.82275390625 6355.73876953125 5947.412109375 5683.55615234375 5587.21484375 5635.52783203125 5659.8525390625 nan 
nan 339.693359375 383.824737548828125 977.050048828125 1363.3970947265625 1099.8544921875 1348.978759765625 1633.657958984375 879.32177734375 478.741485595703125 1206.4754638671875 2181.548583984375 3173.234375 4169.07373046875 5166.419921875 6164.58544921875 7162.1171875 7724.357421875 6996.01123046875 6032.609375 5083.3427734375 4158.18896484375 3277.611083984375 2489.4951171875 1910.7991943359375 1604.535888671875 1106.517333984375 757.99468994140625 1234.37744140625 1958.910888671875 2681.466552734375 2549.42333984375 1877.8372802734375 1546.59375 1779.7564697265625 2416.992431640625 2753.83203125 2165.524169921875 1733.2857666015625 1808.6031494140625 2346.17919921875 2913.196533203125 2390.802978515625 1404.1170654296875 476.798583984375 565.715087890625 1515.391357421875 2301.670654296875 1864.5152587890625 1078.499267578125 677.1605224609375 328.259033203125 497.4676513671875 392.426025390625 432.002593994140625 280.352020263671875 58.342998504638671875 367.497039794921875 1201.3575439453125 1569.9923095703125 1908.5360107421875 2580.905517578125 2917.082763671875 2338.249755859375 1830.1510009765625 1781.0860595703125 1775.7623291015625 989.14862060546875 492.743865966796875 1135.2738037109375 1970.800537109375 1649.794677734375 789.6029052734375 423.4737548828125 928.57635498046875 1176.6614990234375 482.078338623046875 476.37017822265625 1327.310302734375 2240.9853515625 3112.59033203125 3984.683837890625 4486.294921875 3988.088623046875 3355.5546875 2908.43310546875 2755.058349609375 2917.917236328125 2878.4990234375 2685.57763671875 2370.597412109375 1768.4149169921875 1530.5897216796875 1783.7320556640625 1728.5316162109375 1296.760986328125 696.08746337890625 301.677581787109375 331.744903564453125 982.73370361328125 1246.6719970703125 857.05963134765625 355.895294189453125 760.234375 1063.4205322265625 1714.371337890625 2088.22119140625 2342.822265625 2520.106689453125 2030.1436767578125 1229.1900634765625 466.762054443359375 118.60915374755859375 266.566986083984375 466.277496337890625 1185.6055908203125 1235.869384765625 403.42755126953125 356.38909912109375 1053.501953125 1843.974365234375 2209.8798828125 1567.19677734375 734.28076171875 221.5722808837890625 371.13922119140625 740.4918212890625 1481.53857421875 1403.742431640625 1181.7825927734375 1326.8392333984375 1042.1922607421875 399.328338623046875 606.26458740234375 883.58734130859375 390.272979736328125 161.05865478515625 121.69290924072265625 459.665618896484375 647.69171142578125 293.37890625 272.838714599609375 124.07065582275390625 163.0705108642578125 557.83331298828125 1311.5228271484375 2115.45263671875 2991.26220703125 3858.948486328125 4227.279296875 4216.27392578125 4374.37255859375 4742.4248046875 5276.86669921875 5933.005859375 6675.177734375 7477.6376953125 8319.3603515625 8824.5439453125 8524.7900390625 8075.20654296875 7609.51904296875 7151.59814453125 6788.75439453125 6558.74072265625 6475.41162109375 6520.6318359375 6548.80859375 nan 
nan 253.0626220703125 472.62554931640625 687.8092041015625 1293.5025634765625 1809.1239013671875 2050.966064453125 1962.97802734375 1231.2083740234375 944.38702392578125 1475.3631591796875 2340.552001953125 3284.310791015625 4254.12548828125 5235.24951171875 6222.3984375 7210.6572265625 7650.19189453125 6834.205078125 5844.1455078125 4858.11083984375 3879.449951171875 2915.520751953125 1987.9986572265625 1189.938720703125 914.77618408203125 1083.0528564453125 1002.4354248046875 1530.841064453125 2343.888427734375 2845.938232421875 2173.98193359375 1280.155029296875 736.2099609375 1119.9554443359375 1976.5699462890625 2348.665283203125 1592.9337158203125 932.0260009765625 1059.7447509765625 1818.109375 2618.7958984375 2480.462158203125 1532.9617919921875 580.733642578125 463.80731201171875 1380.7576904296875 2173.826171875 1703.281982421875 769.5986328125 283.1142578125 352.54376220703125 323.107940673828125 408.644622802734375 693.90838623046875 423.692535400390625 51.573513031005859375 309.63800048828125 751.33673095703125 776.50653076171875 1286.09619140625 2166.03125 3009.59912109375 3024.87109375 2674.887451171875 2588.306396484375 2149.2294921875 1381.2559814453125 1051.9669189453125 1490.1102294921875 2218.201416015625 2038.8319091796875 1426.3314208984375 1149.9051513671875 1059.1202392578125 848.4749755859375 628.89825439453125 377.77130126953125 1001.8245849609375 1823.1107177734375 2726.086181640625 3635.920654296875 4126.28955078125 4070.116455078125 3895.8974609375 3712.607666015625 3635.466064453125 3761.319091796875 3721.578125 3514.10888671875 3045.9853515625 2564.73046875 2382.26123046875 2178.678955078125 1502.4127197265625 994.744140625 915.24407958984375 463.511383056640625 228.7783966064453125 452.8333740234375 547.55377197265625 430.2344970703125 206.9910430908203125 460.0450439453125 657.0997314453125 1245.322265625 1248.8778076171875 1619.5426025390625 2086.0068359375 2056.673583984375 1224.6446533203125 441.383819580078125 173.8387603759765625 474.278564453125 844.3773193359375 1391.4019775390625 1237.7379150390625 404.084075927734375 654.47100830078125 1513.1905517578125 2180.0029296875 1856.4678955078125 1107.256103515625 401.929931640625 235.447052001953125 514.5751953125 1022.3575439453125 1032.46728515625 668.19024658203125 418.43377685546875 740.71527099609375 754.9912109375 504.763641357421875 1045.970458984375 968.36370849609375 264.2401123046875 167.4875946044921875 403.056610107421875 676.8482666015625 419.006256103515625 327.37152099609375 322.534576416015625 70.37796783447265625 273.585296630859375 714.605224609375 1603.2484130859375 2525.833740234375 3362.840087890625 3671.69970703125 3426.31396484375 3332.451904296875 3530.053466796875 3976.79443359375 4600.95068359375 5340.78076171875 6154.81201171875 7017.06591796875 7876.01611328125 8188.7685546875 8030.8896484375 7924.69775390625 7843.2685546875 7729.18017578125 7573.5830078125 7427.83642578125 7363.89013671875 7406.7529296875 7438.091796875 nan 
nan 381.44805908203125 528.71417236328125 527.6427001953125 1231.4627685546875 1870.28759765625 2043.0006103515625 2211.013427734375 1936.8980712890625 1776.846923828125 2112.157470703125 2785.837890625 3614.791748046875 4513.9638671875 5448.39990234375 6402.71728515625 7361.4287109375 7661.58447265625 6784.9873046875 5786.49658203125 4788.57373046875 3791.937744140625 2797.837158203125 1810.4615478515625 864.28839111328125 462.412078857421875 636.39886474609375 490.204254150390625 1280.4544677734375 2259.252685546875 2800.467041015625 2042.67626953125 1065.1016845703125 365.31182861328125 837.04852294921875 1795.075927734375 2209.65625 1397.8211669921875 559.320068359375 648.8294677734375 1392.5946044921875 2212.903564453125 2462.220947265625 1661.2349853515625 694.07366943359375 397.54718017578125 1253.8829345703125 2074.398193359375 1809.6473388671875 952.28448486328125 433.38775634765625 213.3964080810546875 290.822540283203125 882.703125 987.2220458984375 294.35382080078125 216.628997802734375 328.484283447265625 566.6346435546875 467.23272705078125 1073.2530517578125 2036.3389892578125 3018.2080078125 3646.904052734375 3521.28076171875 3262.844482421875 2651.295166015625 2089.869384765625 1897.2249755859375 2176.98486328125 2742.966796875 2675.85107421875 2222.1376953125 1749.4940185546875 930.94287109375 320.945831298828125 382.17218017578125 402.471466064453125 684.82122802734375 1591.30322265625 2548.25537109375 3174.707763671875 3291.527099609375 3285.0380859375 3418.3466796875 3751.603271484375 4112.50732421875 4465.95361328125 4558.544921875 4297.69970703125 3788.380859375 3395.00537109375 2989.569580078125 2158.10205078125 1190.2628173828125 492.1646728515625 820.5078125 564.17138671875 222.6900482177734375 217.670440673828125 215.11328125 217.98638916015625 233.508056640625 694.70550537109375 788.22418212890625 808.659423828125 522.46875 939.2471923828125 1351.1158447265625 1785.3548583984375 1214.5628662109375 476.26824951171875 212.5865936279296875 759.1583251953125 1376.147705078125 1825.02978515625 1317.15673828125 497.8497314453125 781.05718994140625 1728.360595703125 2234.4013671875 1484.6568603515625 620.91363525390625 194.32281494140625 323.470550537109375 810.13653564453125 1027.1002197265625 460.919036865234375 318.069122314453125 505.17095947265625 524.04168701171875 605.5057373046875 1046.5697021484375 1027.12109375 527.40130615234375 167.0299835205078125 253.3085479736328125 645.24688720703125 516.69830322265625 312.19122314453125 598.838623046875 207.847808837890625 87.67722320556640625 413.797149658203125 909.39910888671875 1753.3138427734375 2695.55517578125 3357.57568359375 3017.59228515625 2577.851318359375 2453.35400390625 2715.12548828125 3274.616943359375 4009.57861328125 4840.71630859375 5726.3486328125 6644.240234375 7395.09033203125 7357.51904296875 7152.60888671875 7062.61572265625 7080.46533203125 7218.8095703125 7462.4306640625 7716.13232421875 7954.74169921875 8171.89013671875 8284.638671875 nan 
nan 412.31085205078125 688.85504150390625 1156.98974609375 1471.4893798828125 1266.9449462890625 1262.904541015625 1864.64892578125 2467.761962890625 2638.13623046875 2885.2998046875 3409.83642578125 4114.83642578125 4923.380859375 5792.0439453125 6697.51318359375 7608.86474609375 7759.4765625 6847.5234375 5859.71875 4876.84130859375 3902.895751953125 2946.68505859375 2033.529052734375 1263.7613525390625 855.54736328125 428.284698486328125 402.619415283203125 1263.604248046875 2256.875 2869.337158203125 2178.90771484375 1221.6903076171875 464.72802734375 761.007568359375 1630.7813720703125 2164.2470703125 1687.9019775390625 925.9310302734375 468.887420654296875 1017.39239501953125 1920.7635498046875 2024.6383056640625 1490.443359375 796.82135009765625 315.8369140625 915.93353271484375 1654.000244140625 1725.95166015625 886.4151611328125 348.841094970703125 304.7376708984375 535.86590576171875 1039.6217041015625 795.09490966796875 244.0701446533203125 357.96417236328125 900.591552734375 1187.707763671875 1080.7340087890625 1464.64794921875 2265.681396484375 3182.6865234375 3998.581298828125 3815.0390625 3140.68701171875 2549.538818359375 2230.958984375 2295.524169921875 2702.474853515625 3295.477783203125 3396.91748046875 2870.071044921875 2030.6446533203125 1163.134521484375 699.88775634765625 684.619873046875 458.752685546875 882.06219482421875 1698.5440673828125 2274.922119140625 2390.0869140625 2413.80615234375 2404.10302734375 2580.217041015625 3019.55908203125 3570.41943359375 4252.33984375 4921.11962890625 5007.95263671875 4574.40283203125 4078.51953125 3257.865478515625 2319.721435546875 1458.46044921875 942.843994140625 1182.7218017578125 1038.176513671875 587.94049072265625 315.772491455078125 551.71240234375 339.121429443359375 228.98345947265625 552.332763671875 449.73919677734375 459.6875 281.89990234375 362.57513427734375 782.78363037109375 1319.4586181640625 1418.2037353515625 842.77239990234375 218.1588592529296875 408.6678466796875 1123.4478759765625 1916.4530029296875 1638.917724609375 1070.724365234375 1243.52685546875 1982.6845703125 2325.8056640625 1500.1187744140625 559.82415771484375 303.178985595703125 672.53472900390625 961.3294677734375 628.76348876953125 355.61981201171875 819.2591552734375 1202.6424560546875 948.06439208984375 878.92095947265625 1090.970703125 636.68389892578125 232.4175262451171875 269.43878173828125 632.33770751953125 670.3648681640625 346.0169677734375 517.10943603515625 727.4285888671875 140.312530517578125 139.128997802734375 601.94158935546875 1363.2147216796875 2150.36669921875 2973.10791015625 3063.525390625 2339.378173828125 1760.41552734375 1586.9962158203125 1965.67822265625 2685.7958984375 3545.1923828125 4463.80810546875 5411.57568359375 6359.685546875 6793.14208984375 6507.47509765625 6274.52392578125 6174.0576171875 6194.4990234375 6353.6025390625 6645.068359375 7003.1005859375 7451.3525390625 7916.462890625 8310.330078125 nan 
nan 312.534271240234375 671.32354736328125 1531.821533203125 1455.7679443359375 657.77398681640625 666.28155517578125 1527.828857421875 2496.20703125 3291.312744140625 3702.8271484375 4132.30517578125 4730.89892578125 5448.73828125 6244.68896484375 7092.5576171875 7942.16943359375 7944.6064453125 7022.40234375 6063.201171875 5119.62060546875 4202.47998046875 3333.655029296875 2562.825927734375 1964.9521484375 1308.8515625 522.15252685546875 437.0540771484375 1271.1229248046875 2257.303955078125 2969.052490234375 2399.6142578125 1515.11181640625 856.15411376953125 796.1168212890625 1153.732177734375 1799.8572998046875 2037.636474609375 1324.293701171875 818.4803466796875 1171.309326171875 1734.6390380859375 1488.650146484375 839.58392333984375 791.4580078125 428.72100830078125 415.785064697265625 1083.0537109375 1637.3980712890625 1353.5601806640625 1040.9649658203125 1048.86279296875 1184.5908203125 902.527587890625 342.42352294921875 154.9263458251953125 421.134002685546875 1161.7130126953125 1610.0777587890625 1827.2110595703125 2157.07763671875 2770.36669921875 3551.78271484375 4057.078369140625 3430.14599609375 2569.238525390625 1839.2081298828125 1445.1199951171875 1657.717041015625 2324.6171875 3169.10546875 3788.05810546875 3293.28662109375 2463.753173828125 1808.451416015625 1495.3707275390625 1050.8670654296875 415.684112548828125 789.08917236328125 1312.31494140625 1538.711669921875 1513.07568359375 1550.10400390625 1533.8433837890625 1767.5015869140625 2269.205322265625 2925.876953125 3732.429931640625 4587.7412109375 5122.0595703125 5127.7333984375 4485.94873046875 3595.573974609375 2769.62109375 2101.967041015625 1777.9217529296875 1847.993896484375 1472.5947265625 901.050537109375 732.404541015625 925.38592529296875 439.004547119140625 213.592559814453125 230.23883056640625 455.47491455078125 272.53106689453125 193.2829437255859375 193.3103790283203125 325.8011474609375 561.91241455078125 1030.1658935546875 856.50091552734375 226.2186737060546875 232.7253570556640625 1020.5987548828125 1913.125 2070.347900390625 1864.7237548828125 2003.66748046875 2516.343994140625 2554.60302734375 1660.1448974609375 695.38104248046875 255.801727294921875 372.31280517578125 359.914398193359375 303.19146728515625 671.86962890625 1374.9212646484375 1906.2293701171875 1520.7823486328125 837.38299560546875 560.7235107421875 531.35882568359375 235.0393829345703125 465.818389892578125 676.8309326171875 282.236541748046875 409.6358642578125 866.10638427734375 606.9349365234375 96.37033843994140625 121.87024688720703125 410.292724609375 1237.23681640625 2174.123046875 3018.22509765625 2749.65673828125 1841.3399658203125 1041.48828125 780.6671142578125 1391.513427734375 2299.643798828125 3262.779052734375 4243.15966796875 5231.130859375 6096.857421875 6073.2236328125 5667.4423828125 5399.8095703125 5285.8125 5309.8115234375 5493.6337890625 5807.70849609375 6196.6416015625 6679.75390625 7118.078125 7568.6669921875 nan 
nan 804.840087890625 1125.3994140625 1807.247802734375 1578.72802734375 846.0169677734375 880.665283203125 1641.7127685546875 2574.5107421875 3539.07861328125 4372.94873046875 4903.15478515625 5423.40576171875 6059.77294921875 6784.39111328125 7572.0390625 8349.205078125 8213.4248046875 7302.36767578125 6385.4140625 5497.501953125 4655.53515625 3887.114013671875 3204.257568359375 2480.052978515625 1566.2196044921875 612.07135009765625 416.905029296875 1316.2509765625 2307.47216796875 3132.58642578125 2790.83642578125 1934.0989990234375 1053.4365234375 386.22674560546875 602.82305908203125 1475.8646240234375 2220.685791015625 1929.452392578125 1423.1351318359375 1051.114013671875 1138.6827392578125 1238.6072998046875 587.86334228515625 793.88287353515625 897.24530029296875 340.247283935546875 536.5972900390625 1251.39453125 1768.9140625 1886.5120849609375 1911.8411865234375 1614.1656494140625 738.8603515625 189.116180419921875 144.37506103515625 558.11053466796875 792.50164794921875 1088.4964599609375 1735.66455078125 2353.570556640625 2940.008056640625 3566.638427734375 3759.31982421875 3144.5009765625 2191.12158203125 1278.2635498046875 668.6680908203125 1041.123046875 1933.8118896484375 2899.63623046875 3774.250732421875 3625.091796875 2965.844970703125 2501.921142578125 2135.501708984375 1338.4615478515625 540.23602294921875 371.975433349609375 685.60430908203125 758.8582763671875 651.02886962890625 745.832275390625 712.80682373046875 996.4945068359375 1608.387939453125 2440.234375 3354.1943359375 4049.08349609375 4403.0146484375 4815.2626953125 4796.8046875 4098.58642578125 3397.587646484375 2879.017578125 2618.86474609375 2210.285888671875 1315.8525390625 482.63031005859375 423.6748046875 868.92559814453125 900.98480224609375 433.408905029296875 195.549652099609375 299.183624267578125 263.67767333984375 566.15118408203125 713.504638671875 551.921630859375 258.67852783203125 514.72503662109375 721.8658447265625 256.114715576171875 254.685028076171875 939.3721923828125 1454.32861328125 1614.01611328125 1978.462158203125 2540.9365234375 3009.21630859375 2535.138427734375 1601.080322265625 687.89666748046875 276.38397216796875 574.76702880859375 518.51568603515625 756.8121337890625 1335.0777587890625 1942.2803955078125 2208.404541015625 1517.2049560546875 587.3985595703125 201.2581787109375 169.2867431640625 133.301177978515625 450.72021484375 302.516754150390625 453.9964599609375 939.4813232421875 888.663818359375 303.269287109375 69.37284088134765625 135.6745758056640625 305.219451904296875 1004.15374755859375 1960.1104736328125 2786.4619140625 2441.467041015625 1521.2598876953125 648.451904296875 441.282470703125 1255.2882080078125 2225.274658203125 3211.12548828125 4203.61083984375 5192.2294921875 5726.52490234375 5314.88671875 4844.23388671875 4530.7880859375 4398.2822265625 4427.46630859375 4641.39306640625 4977.8271484375 5414.51806640625 5895.8515625 6319.03564453125 6820.65625 nan 
nan 1644.322265625 1862.208251953125 2332.775634765625 2093.1572265625 1604.94677734375 1634.4691162109375 2148.863037109375 2923.547607421875 3805.544921875 4730.63916015625 5567.55322265625 6161.140625 6733.37548828125 7392.2607421875 8121.15478515625 8818.232421875 8559.833984375 7675.9951171875 6808.271484375 5971.076171875 5154.181640625 4318.3349609375 3418.637451171875 2454.944580078125 1475.253662109375 532.482177734375 479.3504638671875 1408.6763916015625 2396.876953125 3295.647216796875 3094.773681640625 2169.250244140625 1306.45068359375 721.24542236328125 849.63330078125 1608.7733154296875 2462.0986328125 2344.102294921875 1437.6571044921875 595.02691650390625 682.34564208984375 1351.395263671875 1208.309814453125 1347.9349365234375 1453.0875244140625 787.32781982421875 299.412445068359375 686.4508056640625 1427.994140625 2116.883544921875 2465.6875 1857.04052734375 945.23797607421875 316.115203857421875 135.6313323974609375 297.062713623046875 237.647735595703125 485.3021240234375 1121.197509765625 1722.797607421875 2348.3076171875 2894.850341796875 3004.494140625 2906.259521484375 2138.7314453125 1194.1590576171875 541.3153076171875 970.4476318359375 1902.1622314453125 2879.866455078125 3627.246337890625 3251.580078125 2617.17626953125 2236.562744140625 2101.443603515625 1563.92578125 865.314697265625 452.33868408203125 280.801513671875 197.2010650634765625 115.5600128173828125 261.63336181640625 349.712646484375 468.85040283203125 1250.2926025390625 2216.556884765625 2996.6435546875 3272.8583984375 3591.62841796875 4129.88671875 4722.14111328125 4670.4072265625 4123.0693359375 3696.439453125 3235.868408203125 2369.744384765625 1394.2608642578125 504.38909912109375 245.7294158935546875 819.83868408203125 1324.17919921875 766.6373291015625 514.23211669921875 455.78094482421875 672.57305908203125 1250.2034912109375 1444.1324462890625 897.95794677734375 281.76251220703125 236.89678955078125 666.2965087890625 490.99554443359375 221.24749755859375 536.60174560546875 634.90057373046875 797.2518310546875 1424.1844482421875 2290.613037109375 2895.981201171875 2349.217529296875 1411.8546142578125 515.70489501953125 288.1934814453125 979.61065673828125 1318.057861328125 1541.9840087890625 1963.0914306640625 2133.80029296875 1765.3148193359375 1150.150634765625 380.387451171875 142.8298187255859375 263.177581787109375 467.712310791015625 351.68463134765625 405.98114013671875 1066.706787109375 1130.5245361328125 475.281402587890625 111.7856292724609375 145.7569732666015625 226.03741455078125 254.4415283203125 849.50103759765625 1815.4185791015625 2492.353515625 2058.648681640625 1224.593017578125 428.5076904296875 598.46954345703125 1475.6248779296875 2423.419921875 3382.356201171875 4346.42041015625 5187.64990234375 5172.458984375 4579.07666015625 4045.272705078125 3671.117919921875 3511.50439453125 3548.766845703125 3796.275146484375 4163.841796875 4652.515625 5090.017578125 5545.158203125 6110.6904296875 nan 
nan 2518.363525390625 2682.021484375 3024.982177734375 2801.24072265625 2454.48681640625 2479.1005859375 2849.718017578125 3471.406005859375 4240.77001953125 5091.115234375 5984.67578125 6815.14501953125 7433.2783203125 8020.7197265625 8671.56640625 9273.3984375 8937.0556640625 8042.71337890625 7125.26171875 6184.93896484375 5222.42919921875 4244.51171875 3263.924072265625 2283.44970703125 1304.1007080078125 415.91046142578125 611.5712890625 1570.6903076171875 2549.856689453125 3469.60595703125 3415.6171875 2615.7529296875 1943.1103515625 1540.6011962890625 1607.175048828125 2122.158447265625 2804.33984375 2540.802734375 1657.13330078125 995.9161376953125 1070.671630859375 1743.7501220703125 2024.3013916015625 2095.3359375 1974.996826171875 1341.4539794921875 633.2132568359375 313.89996337890625 852.08270263671875 1596.3294677734375 2290.466552734375 2180.95458984375 1511.0538330078125 986.95416259765625 562.04522705078125 213.2434234619140625 159.360565185546875 166.4939117431640625 510.9688720703125 1028.0501708984375 1751.1982421875 2113.928466796875 2133.47607421875 2343.1376953125 2279.758544921875 1656.6053466796875 1229.193603515625 1482.4600830078125 2205.44091796875 3080.8486328125 3459.861083984375 2724.145751953125 1930.908447265625 1404.4644775390625 1450.5748291015625 1784.307861328125 1459.357666015625 706.36859130859375 398.2388916015625 353.264739990234375 356.774658203125 243.6257476806640625 619.45562744140625 834.3880615234375 1447.8031005859375 2186.943603515625 2341.44091796875 2415.57763671875 2826.92724609375 3482.938720703125 4269.97509765625 4950.08935546875 4880.50048828125 4366.45703125 3531.02978515625 2591.15673828125 1713.079345703125 1049.4764404296875 895.557861328125 1234.1875 1763.5159912109375 1499.089599609375 1341.9642333984375 1292.6444091796875 1451.9765625 1870.61962890625 1638.3134765625 731.14691162109375 168.7310943603515625 265.07562255859375 713.009033203125 489.61163330078125 230.8358917236328125 183.3434906005859375 152.0706329345703125 303.206939697265625 1038.9429931640625 1866.65234375 2276.5634765625 1908.8682861328125 1191.82958984375 440.05535888671875 231.8484039306640625 989.50494384765625 1808.49560546875 1951.214111328125 1841.730224609375 1516.5054931640625 1027.004150390625 521.46533203125 170.09100341796875 261.108856201171875 655.2750244140625 543.9493408203125 295.026702880859375 849.6610107421875 1472.5487060546875 1010.64154052734375 259.301513671875 101.378875732421875 86.6334228515625 190.636077880859375 317.828948974609375 921.679443359375 1831.642822265625 2051.033203125 1453.2012939453125 903.4263916015625 647.12322998046875 1006.80767822265625 1822.4085693359375 2714.29833984375 3637.4970703125 4548.02734375 4854.07861328125 4461.78515625 3883.80810546875 3281.002197265625 2828.535888671875 2626.60546875 2676.488037109375 2959.064208984375 3382.431396484375 3882.706298828125 4284.7744140625 4811.712890625 5453.9541015625 nan 
nan 3386.112060546875 3512.147216796875 3781.37451171875 3589.33154296875 3325.43017578125 3346.068115234375 3633.8388671875 4139.74609375 4803.2109375 5567.1875 6360.27197265625 7040.16455078125 7518.4267578125 7966.4365234375 8495.4931640625 9063.673828125 8940.4912109375 8014.08544921875 7035.30419921875 6053.98828125 5070.42431640625 4085.40380859375 3100.11767578125 2116.146240234375 1134.758544921875 333.819061279296875 758.52496337890625 1735.8331298828125 2717.5703125 3674.77783203125 3882.90966796875 3247.191650390625 2702.855224609375 2403.507568359375 2450.16259765625 2825.90625 3320.713623046875 2958.624267578125 2237.385009765625 1799.532470703125 1841.612060546875 2266.98486328125 2615.67236328125 2334.8388671875 1701.6025390625 1317.4835205078125 1081.3482666015625 488.5015869140625 372.40252685546875 1036.0865478515625 1829.78271484375 2409.0810546875 2231.409912109375 1768.183349609375 1271.6981201171875 535.49029541015625 106.76778411865234375 174.185577392578125 145.0191650390625 515.574951171875 1135.2672119140625 1280.4991455078125 1261.635498046875 1538.1719970703125 1952.1085205078125 1801.9852294921875 1392.780029296875 1547.714111328125 2183.582275390625 3017.154541015625 3277.55322265625 2416.9365234375 1466.674560546875 692.8525390625 803.71234130859375 1607.6787109375 1679.3377685546875 1161.433837890625 1082.8643798828125 1070.4454345703125 819.7017822265625 286.3056640625 407.184295654296875 1037.0682373046875 1792.8658447265625 1892.34619140625 1500.0828857421875 1585.60791015625 2156.5380859375 2960.404541015625 3856.507568359375 4786.93359375 5336.89111328125 4759.42919921875 3865.08203125 3026.4580078125 2313.522705078125 1849.454833984375 1766.4697265625 1970.25048828125 2411.62353515625 2333.91650390625 2217.0498046875 2176.930419921875 2295.22900390625 2416.885498046875 1732.8739013671875 793.75384521484375 174.6706695556640625 336.108123779296875 726.195068359375 504.347412109375 364.85284423828125 480.9024658203125 328.5009765625 245.9597320556640625 656.03631591796875 1225.856201171875 1512.33740234375 1176.9005126953125 670.29705810546875 184.685089111328125 284.83282470703125 993.20623779296875 1656.834228515625 1362.272705078125 1024.587158203125 767.5615234375 361.987548828125 232.413665771484375 468.7947998046875 765.13690185546875 537.01678466796875 250.5909881591796875 596.17144775390625 1268.9033203125 1653.42138671875 1164.376953125 414.944976806640625 65.34938812255859375 206.8077850341796875 580.21484375 517.41180419921875 975.50726318359375 1673.4171142578125 1448.2320556640625 801.524169921875 338.995849609375 711.33209228515625 1493.3402099609375 2284.733154296875 3122.00390625 3965.45068359375 4474.423828125 4193.09912109375 3679.98291015625 3209.4599609375 2566.823974609375 2016.7261962890625 1745.71630859375 1812.896728515625 2138.270263671875 2644.551025390625 3079.355224609375 3513.87548828125 4139.912109375 4871.7509765625 nan 
nan 3557.443359375 3639.333984375 3945.188232421875 4175.49853515625 4177.748046875 4220.93408203125 4451.4775390625 4856.16943359375 5390.73681640625 5885.28662109375 6181.84912109375 6423.0888671875 6761.8232421875 7222.65234375 7785.30615234375 8426.01953125 8659.4775390625 7844.17724609375 6861.4169921875 5878.43896484375 4898.36474609375 3920.281982421875 2942.144287109375 1963.123046875 984.6502685546875 310.09686279296875 922.2900390625 1896.258544921875 2874.270263671875 3851.991455078125 4396.00732421875 3967.773193359375 3512.291015625 3279.72802734375 3314.737548828125 3602.005615234375 3816.0595703125 3367.111572265625 2842.06787109375 2507.57373046875 2206.546875 2037.9635009765625 2180.249267578125 1995.07421875 1139.153564453125 610.70391845703125 997.923828125 972.36932373046875 368.322296142578125 538.7899169921875 1309.17578125 2103.403564453125 2660.23291015625 2475.6865234375 1731.870361328125 852.40625 193.0031585693359375 265.8980712890625 181.328948974609375 240.4290008544921875 416.099639892578125 501.031585693359375 442.17181396484375 745.4005126953125 1324.66259765625 1320.9443359375 692.2537841796875 932.63128662109375 1789.08251953125 2745.802978515625 3206.68115234375 2419.37548828125 1470.73681640625 713.58636474609375 843.64031982421875 1429.1014404296875 1144.78759765625 740.85577392578125 1116.7705078125 1600.5618896484375 1079.423583984375 469.665496826171875 271.88409423828125 899.835205078125 1739.947021484375 1433.653564453125 727.91162109375 876.23095703125 1693.181396484375 2639.361328125 3613.15185546875 4532.0380859375 5030.263671875 4971.97705078125 4349.97509765625 3630.21728515625 3047.482421875 2702.420166015625 2650.79541015625 2795.104248046875 3161.424072265625 3194.610595703125 3099.357177734375 3062.565673828125 3052.395751953125 2572.615478515625 1706.430419921875 928.80792236328125 321.55322265625 128.6223602294921875 240.5146484375 189.059234619140625 183.782073974609375 562.4757080078125 415.000579833984375 203.5990142822265625 230.5377960205078125 589.62860107421875 722.87567138671875 464.49517822265625 196.2725830078125 304.572967529296875 765.73529052734375 1334.0489501953125 1219.82080078125 680.46124267578125 281.693206787109375 182.0266265869140625 144.885498046875 567.345458984375 811.7071533203125 566.22015380859375 289.533660888671875 571.6507568359375 993.12158203125 1002.8843994140625 1129.0660400390625 1016.3983154296875 295.022857666015625 61.845855712890625 378.070220947265625 1081.2413330078125 1239.814697265625 1448.7747802734375 1380.8692626953125 780.197509765625 333.51971435546875 237.9413299560546875 696.6163330078125 1652.839111328125 2621.504638671875 3449.55712890625 3835.85791015625 3793.981689453125 3483.503662109375 2906.049560546875 2474.47509765625 1939.3887939453125 1261.93994140625 877.94891357421875 961.374755859375 1371.71923828125 1923.9332275390625 2264.728515625 2813.82861328125 3564.965576171875 4393.99658203125 nan 
nan 2748.37060546875 2841.8759765625 3243.810791015625 3829.046875 4441.0927734375 4704.65771484375 4730.6201171875 4893.0712890625 5185.51123046875 5297.02734375 5350.5341796875 5574.44580078125 5959.80908203125 6477.8935546875 7099.79052734375 7800.787109375 8250.4091796875 7605.3076171875 6684.31982421875 5729.55712890625 4750.580078125 3763.85107421875 2777.232177734375 1792.802978515625 815.07354736328125 320.478759765625 1080.8587646484375 2060.65673828125 3041.1865234375 4020.8291015625 4750.94140625 4588.50048828125 4287.78955078125 4143.17919921875 4172.4228515625 4124.79150390625 3583.769775390625 2921.654052734375 2475.894775390625 2242.833984375 1663.0531005859375 1207.9537353515625 1438.1510009765625 1767.332275390625 1053.0303955078125 341.195068359375 757.46588134765625 1330.218505859375 782.83837890625 300.28509521484375 784.60595703125 1580.564697265625 2368.659912109375 2768.056884765625 2148.69970703125 1331.7513427734375 642.48504638671875 232.6505889892578125 166.00921630859375 235.6048431396484375 178.9984283447265625 144.426727294921875 265.04681396484375 287.982940673828125 996.7264404296875 1238.6302490234375 612.93743896484375 865.32012939453125 1753.97314453125 2724.942138671875 3345.542724609375 2730.525390625 1941.34326171875 1444.45751953125 1490.2335205078125 1342.121826171875 570.4703369140625 337.787567138671875 991.83074951171875 1658.85302734375 1085.1553955078125 504.6456298828125 546.293701171875 870.93798828125 1554.74169921875 1298.310791015625 430.006744384765625 578.76226806640625 1513.2711181640625 2498.636962890625 3458.213134765625 4018.458984375 4218.640625 4545.80517578125 4701.77783203125 4318.685546875 3842.146484375 3573.32763671875 3537.81640625 3650.49462890625 3954.88623046875 3995.6953125 3759.998046875 3538.594482421875 3245.3427734375 2413.9404296875 1437.4088134765625 577.12115478515625 476.95550537109375 381.46868896484375 177.86614990234375 351.378662109375 193.999420166015625 199.0688629150390625 233.5907745361328125 146.346832275390625 133.45758056640625 170.9040679931640625 194.1871337890625 130.62005615234375 276.533477783203125 789.46453857421875 1407.026123046875 1565.8876953125 777.19073486328125 215.9886322021484375 115.43414306640625 135.3201904296875 489.51861572265625 816.837646484375 425.553436279296875 300.548431396484375 656.093994140625 1144.306884765625 945.82745361328125 473.983795166015625 622.2359619140625 513.6614990234375 99.90776824951171875 80.288177490234375 423.699554443359375 797.13128662109375 1375.6962890625 1558.451904296875 859.92852783203125 289.177093505859375 303.18365478515625 706.4376220703125 1079.6160888671875 1878.199951171875 2690.333984375 3036.58056640625 3037.91259765625 2926.121826171875 2744.130126953125 2201.68701171875 1669.704345703125 1361.28955078125 699.88140869140625 226.9848480224609375 288.853668212890625 742.65789794921875 1160.5362548828125 1511.8868408203125 2251.670654296875 3140.594482421875 4057.744384765625 nan 
nan 1874.92236328125 2007.727783203125 2516.114013671875 3201.98681640625 3937.41162109375 4070.8671875 3962.732666015625 4079.791015625 4363.3720703125 4414.56201171875 4473.23046875 4738.66015625 5186.39013671875 5774.2314453125 6464.16845703125 7227.14453125 7766.92333984375 7194.82763671875 6319.6162109375 5434.76708984375 4532.62353515625 3598.077392578125 2635.5859375 1656.96728515625 683.84027099609375 382.157989501953125 1240.98779296875 2223.960205078125 3206.5361328125 4123.47021484375 4387.41552734375 4186.05224609375 4151.3095703125 4317.6552734375 4520.2822265625 3984.90625 3089.569580078125 2269.560302734375 1662.9283447265625 1501.8343505859375 1187.0909423828125 538.8231201171875 926.46502685546875 1659.8592529296875 1196.9427490234375 493.783203125 898.4742431640625 1641.8948974609375 1289.8687744140625 536.49127197265625 369.59271240234375 1046.1033935546875 1827.635009765625 2494.62744140625 2507.378662109375 1746.345458984375 915.79498291015625 443.8963623046875 547.924072265625 617.80633544921875 582.86712646484375 300.966278076171875 217.067291259765625 259.8607177734375 973.74884033203125 1547.280517578125 1314.708740234375 1448.6690673828125 2068.064208984375 2881.793701171875 3573.71240234375 3255.49658203125 2630.081787109375 2222.143310546875 1894.04833984375 1336.6536865234375 768.97265625 826.66796875 1310.111328125 1838.712646484375 1549.0045166015625 1115.6309814453125 597.95672607421875 462.22015380859375 1115.0301513671875 1188.1419677734375 394.5120849609375 594.7581787109375 1541.1185302734375 2502.1298828125 3136.60400390625 3199.741943359375 3368.212158203125 3778.68115234375 4339.109375 4729.57763671875 4641.11328125 4451.90283203125 4426.04150390625 4507.93603515625 4509.39404296875 4005.093017578125 3361.2119140625 2894.603271484375 2696.6083984375 2379.145751953125 1582.150146484375 856.0594482421875 874.129638671875 956.67242431640625 607.55291748046875 895.94366455078125 613.75848388671875 304.030731201171875 155.3364715576171875 128.5200042724609375 105.94519805908203125 149.147705078125 391.021148681640625 194.4001312255859375 523.07196044921875 906.01763916015625 1533.4425048828125 1642.8580322265625 843.0311279296875 212.20306396484375 140.6934967041015625 405.7354736328125 815.4757080078125 702.84197998046875 341.98016357421875 809.24261474609375 1225.7581787109375 1080.829345703125 508.02655029296875 510.981414794921875 695.3468017578125 173.61968994140625 59.977642059326171875 143.906463623046875 349.175445556640625 499.494842529296875 1166.0408935546875 1153.5322265625 440.5904541015625 390.62237548828125 867.4100341796875 1403.186279296875 1800.05029296875 2241.94140625 2289.464111328125 2186.49658203125 2158.35107421875 2059.73193359375 1922.2425537109375 1562.236083984375 909.0244140625 632.909912109375 465.294677734375 291.472381591796875 410.869171142578125 320.477447509765625 442.904022216796875 1011.11865234375 1950.8873291015625 2932.874755859375 3899.51123046875 nan 
nan 1030.43701171875 1227.0738525390625 1877.8431396484375 2707.89208984375 3380.05029296875 3227.7119140625 3077.952392578125 3227.0576171875 3538.0302734375 3530.681884765625 3602.418701171875 3926.91845703125 4456.7939453125 5128.9013671875 5894.86865234375 6722.796875 7308.67431640625 6743.970703125 5884.2314453125 5016.71875 4138.041015625 3258.169921875 2368.66162109375 1458.2896728515625 548.74212646484375 465.031219482421875 1382.69970703125 2367.03759765625 3347.92724609375 3934.668212890625 3621.713134765625 3315.19091796875 3294.103759765625 3564.522705078125 4008.072265625 3733.49560546875 2783.096923828125 1829.6982421875 983.74456787109375 768.64996337890625 1087.6622314453125 755.0927734375 1095.02978515625 1821.23876953125 1579.77734375 1119.091064453125 1381.6597900390625 1728.255126953125 1333.6053466796875 795.71868896484375 330.622528076171875 531.6212158203125 1209.2913818359375 1885.42041015625 2382.4345703125 1825.6068115234375 925.611572265625 491.30499267578125 703.69403076171875 436.95330810546875 417.838104248046875 453.04345703125 95.07625579833984375 138.433135986328125 704.43756103515625 1391.693359375 1403.959716796875 1445.1412353515625 1856.244384765625 2574.134521484375 3376.017333984375 3529.6875 2959.3408203125 2247.719482421875 1513.4365234375 842.51055908203125 831.345703125 944.0614013671875 934.235107421875 1546.3907470703125 2007.563720703125 1682.0928955078125 885.5355224609375 336.993988037109375 747.38214111328125 1181.2225341796875 675.68450927734375 934.3125 1781.65234375 2438.217041015625 2420.891845703125 2320.677001953125 2539.434326171875 3039.308349609375 3670.49072265625 4309.3154296875 4911.10693359375 5105.5615234375 5142.0478515625 5045.7890625 4361.01806640625 3493.807373046875 2699.129638671875 2089.006103515625 1845.3997802734375 1986.557861328125 1979.7081298828125 1625.36767578125 1628.677978515625 1636.102294921875 1380.7686767578125 1368.548095703125 692.5948486328125 494.68115234375 319.988616943359375 172.3560943603515625 207.63714599609375 513.42987060546875 389.970367431640625 135.260894775390625 188.8086700439453125 383.838775634765625 1042.12109375 1216.2880859375 711.34228515625 174.4990997314453125 249.8044281005859375 671.59130859375 461.552398681640625 345.32135009765625 539.0328369140625 1148.8154296875 1069.0997314453125 872.0526123046875 493.088836669921875 864.10235595703125 579.8289794921875 101.33160400390625 68.126495361328125 138.30096435546875 342.5084228515625 926.561767578125 1032.5699462890625 615.69775390625 220.272125244140625 684.9716796875 1505.9527587890625 2120.279052734375 2457.300537109375 2134.226318359375 1535.35693359375 1313.2147216796875 1286.8206787109375 1217.4814453125 1057.74951171875 896.3929443359375 406.2640380859375 271.260467529296875 245.809539794921875 412.95428466796875 751.01641845703125 370.493560791015625 503.446563720703125 1143.0833740234375 2026.52392578125 2983.59912109375 3937.719482421875 nan 
nan 420.097686767578125 617.1182861328125 1464.804443359375 2415.56201171875 2831.62255859375 2402.587158203125 2197.425537109375 2401.064208984375 2736.645751953125 2649.28076171875 2743.775634765625 3157.279052734375 3795.9697265625 4566.4150390625 5412.6376953125 6304.263671875 6900.7470703125 6304.21484375 5433.07421875 4570.69970703125 3710.18115234375 2836.46240234375 1957.3477783203125 1079.6004638671875 343.251373291015625 646.33544921875 1567.6568603515625 2533.618408203125 3435.320068359375 3447.86328125 2848.928955078125 2452.262939453125 2423.81298828125 2779.509765625 3394.27392578125 3590.964111328125 2745.0400390625 1771.1151123046875 872.94073486328125 634.99658203125 1310.6617431640625 1539.6943359375 1761.2569580078125 2192.514404296875 1943.65283203125 1640.431884765625 1746.6861572265625 1381.5953369140625 703.145263671875 399.491485595703125 317.868743896484375 261.524200439453125 578.50921630859375 1276.1204833984375 2054.65087890625 2127.48046875 1513.7808837890625 1276.7236328125 1329.5228271484375 849.9912109375 308.331756591796875 178.083404541015625 156.03887939453125 125.69701385498046875 414.601287841796875 849.3203125 618.84539794921875 678.24517822265625 1274.52294921875 2167.150146484375 2914.283935546875 2889.2509765625 2546.79443359375 1757.955078125 982.57073974609375 463.91461181640625 440.51751708984375 622.6566162109375 454.33428955078125 1039.6453857421875 1831.429931640625 1764.378662109375 938.26092529296875 478.623443603515625 774.7310791015625 1310.4669189453125 1409.6229248046875 1599.7550048828125 2098.96630859375 1948.04150390625 1563.859130859375 1449.9600830078125 1752.68994140625 2356.136962890625 2988.174072265625 3697.52490234375 4347.703125 4606.64599609375 4732.40673828125 4774.390625 4035.96337890625 3097.06005859375 2191.2021484375 1387.1298828125 984.60546875 1248.1707763671875 1871.6143798828125 2300.782958984375 2445.830078125 2421.43505859375 2216.981201171875 1826.883056640625 1152.827880859375 1027.768798828125 906.55126953125 584.7568359375 402.863037109375 814.23126220703125 506.559844970703125 164.1695098876953125 252.0699310302734375 216.3582611083984375 445.9969482421875 448.316925048828125 204.5340118408203125 306.54974365234375 569.60601806640625 443.72576904296875 537.189697265625 277.433197021484375 721.132568359375 1055.7418212890625 511.6812744140625 854.505615234375 1120.380859375 1088.027587890625 413.766937255859375 51.897705078125 76.15354156494140625 138.4783477783203125 615.34661865234375 1181.5621337890625 670.34100341796875 220.5698394775390625 442.510528564453125 1059.4251708984375 1876.2916259765625 2520.826416015625 2360.058837890625 1660.47412109375 862.4490966796875 504.4644775390625 462.028045654296875 456.44708251953125 306.706756591796875 264.547576904296875 237.940338134765625 609.01007080078125 779.0465087890625 901.418701171875 1280.2274169921875 1111.581787109375 1240.8248291015625 1751.32861328125 2445.00244140625 3282.40087890625 4168.29541015625 nan 
nan 729.33441162109375 731.4482421875 1494.2225341796875 2374.801025390625 2339.940673828125 1644.98583984375 1331.093017578125 1641.0982666015625 1988.840087890625 1776.852783203125 1914.0816650390625 2469.573974609375 3246.51220703125 4121.15478515625 5042.7822265625 5989.61572265625 6559.06640625 5895.42138671875 5001.904296875 4124.83740234375 3258.039306640625 2399.83349609375 1534.69921875 669.89508056640625 328.841094970703125 1025.5892333984375 1899.3350830078125 2798.17724609375 3435.71923828125 2920.281005859375 2153.175537109375 1617.0245361328125 1576.2630615234375 2080.241455078125 2859.6904296875 3496.673095703125 2983.932373046875 2125.98193359375 1461.3680419921875 1320.2584228515625 1816.1949462890625 2330.821533203125 2422.429443359375 2062.55810546875 1402.457763671875 1033.7171630859375 1276.8284912109375 1215.3558349609375 542.8037109375 622.7161865234375 777.87188720703125 674.286865234375 295.501129150390625 827.84912109375 1762.7882080078125 2461.67529296875 2297.955078125 2151.813720703125 2065.122802734375 1485.9073486328125 929.57427978515625 649.036376953125 409.080322265625 179.615570068359375 417.46807861328125 362.0318603515625 275.873504638671875 309.368408203125 991.98602294921875 1878.7320556640625 2327.1162109375 2038.156982421875 1902.71923828125 1509.4110107421875 700.28802490234375 338.342803955078125 589.42059326171875 976.74200439453125 539.4420166015625 852.50140380859375 1682.1800537109375 1522.758544921875 630.36602783203125 318.21917724609375 377.68023681640625 1097.157958984375 1928.0479736328125 2354.918701171875 2208.617431640625 1395.471435546875 761.54144287109375 626.0557861328125 1061.7493896484375 1678.929443359375 2378.04052734375 3101.120849609375 3575.82861328125 3731.04345703125 3874.932373046875 4184.765625 3837.185546875 2874.76611328125 1896.1693115234375 947.84918212890625 309.998931884765625 630.50616455078125 1465.2596435546875 2116.235107421875 2625.962158203125 3045.038330078125 2988.683837890625 2426.8017578125 1935.1046142578125 1844.667724609375 1614.6075439453125 1138.828369140625 910.28515625 1165.332275390625 785.02655029296875 283.825653076171875 215.6321563720703125 153.680816650390625 206.2408905029296875 264.437774658203125 317.532989501953125 838.5880126953125 1084.169189453125 757.79833984375 620.10015869140625 340.16851806640625 943.230224609375 832.21466064453125 662.60125732421875 1158.8489990234375 1365.97705078125 860.57757568359375 486.729888916015625 100.93058013916015625 116.4473876953125 195.0883636474609375 714.81817626953125 887.5218505859375 344.00341796875 361.363800048828125 1045.1798095703125 1697.434814453125 2304.023681640625 2236.090576171875 1666.6221923828125 1196.172607421875 439.949676513671875 117.23340606689453125 168.90411376953125 279.411468505859375 518.7005615234375 680.5872802734375 820.68603515625 1119.3172607421875 1552.624755859375 1721.8470458984375 2014.3538818359375 1976.9708251953125 2059.89208984375 2485.45068359375 3062.7919921875 3772.380859375 4563.8251953125 nan 
nan 1213.906005859375 1281.924072265625 1820.078857421875 2336.6083984375 2012.9066162109375 1105.1700439453125 581.859375 1092.3834228515625 1385.552001953125 941.30426025390625 1174.4560546875 1952.0986328125 2873.093994140625 3834.1708984375 4811.22802734375 5795.0302734375 6296.37353515625 5552.56005859375 4621.5087890625 3709.569580078125 2820.826904296875 1949.1121826171875 1090.149658203125 358.331146240234375 594.0323486328125 1453.80419921875 2328.625 3186.390869140625 3404.63330078125 2555.8974609375 1631.5596923828125 871.05303955078125 827.11517333984375 1584.3995361328125 2522.86181640625 3427.89990234375 3417.03515625 2736.46435546875 2257.959228515625 2167.944580078125 2507.531494140625 2978.524658203125 2576.82763671875 1659.64013671875 800.993408203125 373.93408203125 892.57159423828125 1464.427734375 1217.025390625 1368.0816650390625 1596.966552734375 1239.0087890625 449.45050048828125 634.9678955078125 1571.713134765625 2510.6103515625 3004.315185546875 3019.026611328125 2776.79736328125 2192.609375 1729.5849609375 1298.2962646484375 514.27569580078125 116.4663238525390625 343.260589599609375 137.602203369140625 152.25274658203125 182.9735260009765625 687.2127685546875 1375.5767822265625 1687.771240234375 1217.184814453125 1058.09033203125 1143.0272216796875 1061.3277587890625 703.64166259765625 922.4755859375 1453.8623046875 1200.79541015625 1293.719482421875 1492.154296875 1415.830322265625 884.108642578125 460.603424072265625 399.53973388671875 1184.4820556640625 2103.68212890625 2602.893798828125 2175.159423828125 1265.2320556640625 521.678955078125 370.993072509765625 538.213134765625 1089.5718994140625 1889.2364501953125 2379.212890625 2783.111328125 2851.8203125 3032.440185546875 3495.26123046875 3699.64892578125 2908.405517578125 1948.1304931640625 1066.65869140625 464.728485107421875 575.47393798828125 1055.837890625 1394.572509765625 2089.203369140625 2946.246826171875 3333.41796875 2901.725341796875 2606.71044921875 2407.01318359375 1670.645263671875 799.0234375 643.74169921875 1147.7816162109375 608.07476806640625 191.1631622314453125 249.2159576416015625 191.695953369140625 404.8431396484375 884.4974365234375 1076.179931640625 1398.5615234375 1469.9677734375 946.02618408203125 375.332122802734375 508.406097412109375 1047.1749267578125 507.109375 548.2176513671875 1331.939208984375 1223.3980712890625 516.44818115234375 446.614227294921875 124.10687255859375 72.9338836669921875 312.208831787109375 657.63958740234375 379.73626708984375 251.504425048828125 707.51873779296875 1513.41064453125 2311.83251953125 2533.201416015625 1808.9984130859375 982.91082763671875 539.0291748046875 226.2028045654296875 309.937957763671875 715.1361083984375 1006.56622314453125 1300.1871337890625 1550.010009765625 1696.8494873046875 1888.365478515625 2322.90625 2580.8935546875 2832.240478515625 2856.440185546875 2912.0810546875 3257.47802734375 3771.38720703125 4386.92919921875 5085.96875 nan 
nan 691.20050048828125 966.6697998046875 1405.8321533203125 1756.079833984375 1904.7740478515625 1153.206787109375 658.33062744140625 1123.3699951171875 1171.2161865234375 496.566802978515625 831.08746337890625 1764.192626953125 2749.212890625 3742.376708984375 4738.45654296875 5730.60205078125 6106.23681640625 5281.2158203125 4321.96142578125 3372.0986328125 2437.311767578125 1527.7960205078125 661.9454345703125 324.517974853515625 1003.4931640625 1865.232177734375 2747.002197265625 3570.303466796875 3416.89599609375 2449.3603515625 1458.4385986328125 550.34649658203125 569.7042236328125 1480.7486572265625 2466.70751953125 3451.00146484375 3918.0908203125 3469.579345703125 3105.448486328125 3040.345947265625 3288.04736328125 3382.79931640625 2578.2900390625 1607.9161376953125 697.82257080078125 343.19354248046875 1014.36688232421875 1844.1873779296875 2044.7265625 2149.99267578125 2251.391357421875 1532.8070068359375 591.95196533203125 459.954193115234375 1341.3756103515625 2235.244384765625 2982.785888671875 3523.23681640625 3458.052978515625 2950.8173828125 2433.00830078125 1664.5335693359375 853.4639892578125 277.52703857421875 184.8357696533203125 440.06231689453125 480.730072021484375 226.6553802490234375 231.3970947265625 945.7843017578125 1081.244140625 569.06878662109375 317.02752685546875 445.12432861328125 900.71160888671875 1304.3994140625 1577.5726318359375 2044.5096435546875 1934.9984130859375 1389.187255859375 802.54296875 1036.383056640625 1405.9229736328125 1030.21728515625 906.76715087890625 1546.921142578125 2108.98779296875 1965.2989501953125 1905.114501953125 1626.974609375 1159.94482421875 752.20562744140625 297.41058349609375 756.81536865234375 1276.3839111328125 1602.1937255859375 2023.78173828125 1975.8779296875 2226.959228515625 2830.577392578125 3485.591064453125 3183.91650390625 2358.708251953125 1683.216552734375 1199.2333984375 974.33599853515625 536.38763427734375 846.5955810546875 1760.1678466796875 2698.561279296875 2860.830078125 2367.65869140625 2169.987548828125 2107.724609375 1652.204345703125 885.0059814453125 753.85888671875 1287.125732421875 855.53240966796875 369.314056396484375 140.807861328125 155.8200531005859375 395.053253173828125 1187.357177734375 1595.0576171875 1257.2154541015625 970.0904541015625 458.260711669921875 363.133941650390625 1015.727783203125 1422.7457275390625 850.16864013671875 736.84326171875 1311.9007568359375 946.34002685546875 479.582305908203125 596.55645751953125 152.109619140625 83.29018402099609375 204.6072998046875 562.258056640625 288.830657958984375 655.20147705078125 1302.0440673828125 2005.015625 2640.09326171875 2281.249755859375 1431.833984375 566.03179931640625 151.2581939697265625 192.5579833984375 742.5958251953125 1427.982666015625 1854.3939208984375 2118.537353515625 2414.96337890625 2576.237060546875 2729.144775390625 3097.699951171875 3439.680419921875 3678.190673828125 3739.1953125 3781.417724609375 4058.391357421875 4521.783203125 5073.38525390625 5699.06298828125 nan 
nan 571.774169921875 717.46875 663.01605224609375 1166.88037109375 1903.363037109375 1733.005126953125 1447.613525390625 1691.9605712890625 1528.916748046875 1039.4749755859375 1255.7716064453125 2002.1044921875 2907.22509765625 3859.7802734375 4831.64697265625 5794.46923828125 5979.865234375 5082.69189453125 4103.791015625 3127.89404296875 2158.21337890625 1199.529052734375 379.669464111328125 605.40081787109375 1455.4019775390625 2314.131591796875 3171.376708984375 3906.096435546875 3514.90185546875 2547.807861328125 1610.0416259765625 858.38201904296875 879.15875244140625 1627.0201416015625 2555.145751953125 3522.481689453125 4324.3046875 4255.39208984375 3971.49365234375 3917.802978515625 3982.3232421875 3587.69384765625 2769.1337890625 1911.3251953125 1022.79229736328125 487.074615478515625 1052.89404296875 1879.916259765625 2250.494873046875 2190.63916015625 2191.504638671875 1705.18408203125 772.22357177734375 321.362884521484375 953.35516357421875 1680.39599609375 2403.4892578125 3189.0419921875 3827.039306640625 3667.03564453125 2955.558837890625 2152.255126953125 1343.3509521484375 519.02459716796875 385.37738037109375 950.1553955078125 664.0048828125 357.324859619140625 236.9332275390625 871.18206787109375 635.14959716796875 253.82666015625 162.5029754638671875 118.103424072265625 472.350128173828125 1111.0750732421875 1608.3331298828125 2038.4622802734375 2074.90283203125 1304.8990478515625 548.7530517578125 829.10247802734375 1274.3831787109375 1286.68701171875 1497.01025390625 1938.61474609375 1748.45263671875 1152.14013671875 1207.6658935546875 1749.1851806640625 1798.619873046875 1139.5059814453125 436.489349365234375 323.397308349609375 523.18951416015625 962.88104248046875 1339.726806640625 1122.460205078125 1517.69775390625 2314.250244140625 3213.116943359375 3558.373291015625 2980.710693359375 2425.098388671875 1980.624755859375 1386.291259765625 766.9488525390625 1018.55328369140625 1849.0908203125 2590.0224609375 2306.007568359375 1604.7017822265625 1301.1107177734375 1298.3763427734375 1452.551025390625 1478.1973876953125 1478.09814453125 1604.971923828125 912.47003173828125 246.7275848388671875 107.2000732421875 423.388580322265625 876.45013427734375 1519.905029296875 1426.557861328125 634.67486572265625 295.09344482421875 296.194976806640625 814.5728759765625 1573.5904541015625 1983.572998046875 1579.814697265625 1489.9058837890625 1607.5914306640625 889.11639404296875 479.11151123046875 581.28497314453125 178.18634033203125 161.610809326171875 235.51031494140625 550.131103515625 293.1876220703125 949.35601806640625 1837.34814453125 2574.6904296875 2655.780517578125 1910.1328125 1015.37158203125 260.74249267578125 148.886932373046875 509.631134033203125 1094.84765625 1939.1168212890625 2631.659912109375 2952.62939453125 3270.095703125 3455.6728515625 3593.120361328125 3893.21533203125 4282.41845703125 4535.6025390625 4622.68994140625 4658.52978515625 4886.31201171875 5293.2890625 5804.26708984375 6371.5205078125 nan 
nan 1283.4339599609375 999.38275146484375 550.1173095703125 1084.137939453125 2001.447509765625 2430.3251953125 2317.419189453125 2445.10791015625 2205.78857421875 1884.26171875 2014.3404541015625 2548.205322265625 3306.695068359375 4168.7021484375 5081.6962890625 5961.25244140625 5860.5380859375 4910.861328125 3930.3681640625 2950.070556640625 1970.556640625 992.8031005859375 309.729766845703125 901.6961669921875 1845.1959228515625 2751.2822265625 3626.3701171875 4190.2841796875 3540.417724609375 2552.532470703125 1579.2918701171875 713.9234619140625 647.69036865234375 1475.0164794921875 2445.005615234375 3432.67529296875 4410.369140625 4958.6533203125 4837.32861328125 4598.1142578125 3998.968994140625 3195.223876953125 2481.488525390625 1852.1668701171875 1042.1265869140625 519.38311767578125 1052.7508544921875 1370.0064697265625 1529.1802978515625 1387.9227294921875 1505.7862548828125 1751.0372314453125 1109.7982177734375 403.9691162109375 421.53704833984375 1072.5159912109375 1878.9503173828125 2767.372314453125 3688.26220703125 4098.96435546875 3405.27392578125 2490.02392578125 1549.3658447265625 755.149658203125 774.59478759765625 1072.0634765625 408.239837646484375 123.31539154052734375 407.61669921875 700.0179443359375 310.93865966796875 136.39276123046875 206.2645111083984375 127.21654510498046875 122.55577850341796875 440.60504150390625 855.99456787109375 1282.11767578125 1534.622802734375 1384.8673095703125 1130.1229248046875 1126.7451171875 691.1300048828125 638.5885009765625 1097.0498046875 1737.2767333984375 1451.4010009765625 599.0106201171875 635.39605712890625 1446.710205078125 1703.5096435546875 1480.950439453125 822.110107421875 242.07470703125 239.2199554443359375 675.22650146484375 881.5650634765625 486.876983642578125 1110.69482421875 2070.40185546875 3056.3447265625 3665.515869140625 3231.450439453125 2730.283935546875 2373.121337890625 1912.0673828125 1559.9327392578125 1715.009521484375 2215.60009765625 2213.14208984375 1772.32861328125 1053.5560302734375 548.15972900390625 536.6845703125 898.1195068359375 1343.84130859375 1574.8212890625 1493.9588623046875 790.51422119140625 234.2314300537109375 100.1557464599609375 482.495849609375 1003.31146240234375 1526.00146484375 1197.357421875 359.08355712890625 265.80224609375 777.1124267578125 1385.5859375 2133.67822265625 2635.810546875 2404.948486328125 2327.764892578125 2089.90966796875 1400.2376708984375 1065.052490234375 701.14703369140625 144.4184112548828125 92.29811859130859375 296.400482177734375 303.199554443359375 436.988250732421875 1170.7823486328125 2102.43017578125 2774.553466796875 2264.57861328125 1455.5838623046875 752.209228515625 222.8526611328125 382.74072265625 1078.4627685546875 1711.798095703125 2392.622802734375 3201.34228515625 3770.357177734375 4114.5908203125 4334.80322265625 4466.9345703125 4714.009765625 5105.20849609375 5397.974609375 5506.326171875 5539.93798828125 5732.88134765625 6085.87109375 6561.19287109375 7084.13671875 nan 
nan 2084.827392578125 1604.9329833984375 1277.4656982421875 1598.505126953125 2337.318603515625 3059.83642578125 3196.5703125 3256.52978515625 2991.947998046875 2758.421875 2849.3330078125 3249.50830078125 3873.037353515625 4630.67041015625 5466.94580078125 6174.00146484375 5719.10400390625 4739.6982421875 3758.410400390625 2779.188232421875 1801.466064453125 827.68023681640625 326.475799560546875 1083.4617919921875 2061.501953125 3036.712890625 3992.202880859375 4399.2646484375 3591.718017578125 2620.73681640625 1685.16845703125 912.113525390625 855.6058349609375 1584.4378662109375 2512.2646484375 3480.791748046875 4463.39501953125 5365.8759765625 5416.30029296875 4628.75634765625 3675.931640625 2741.72412109375 1878.03369140625 1234.406494140625 919.95135498046875 636.50048828125 847.20269775390625 620.17608642578125 893.64459228515625 666.5439453125 877.52685546875 1669.2393798828125 1623.3280029296875 941.57977294921875 343.284210205078125 619.5654296875 1530.63134765625 2491.637451171875 3462.036865234375 4200.68212890625 3705.48828125 2807.02392578125 2005.0577392578125 1473.566650390625 1489.1317138671875 1332.6417236328125 533.53082275390625 119.77738189697265625 358.412322998046875 200.3230438232421875 73.62989044189453125 412.691314697265625 825.31195068359375 562.81201171875 121.656097412109375 156.036163330078125 255.1139068603515625 520.69952392578125 712.510009765625 788.49114990234375 1199.0086669921875 1317.4716796875 663.3109130859375 335.1484375 699.97515869140625 1390.716552734375 1242.9287109375 806.70391845703125 841.52294921875 1244.28759765625 947.187744140625 1068.0887451171875 779.65875244140625 291.85369873046875 275.56781005859375 489.993621826171875 632.8779296875 739.3531494140625 1319.067626953125 2189.532470703125 3045.851318359375 3271.79052734375 2640.99755859375 2058.7685546875 1754.56640625 1841.47509765625 2152.84130859375 2410.12451171875 2310.412353515625 1596.4962158203125 1073.2335205078125 907.05780029296875 629.799072265625 548.06231689453125 572.997314453125 579.994873046875 970.1168212890625 1183.0902099609375 516.84466552734375 277.508270263671875 283.80902099609375 149.0915069580078125 387.662353515625 959.45111083984375 986.1732177734375 530.9888916015625 795.65765380859375 1385.807373046875 2029.3509521484375 2547.031494140625 2791.590087890625 2768.192626953125 2834.93359375 2533.16455078125 1783.892333984375 1104.0621337890625 436.938873291015625 136.54266357421875 82.20070648193359375 192.367645263671875 295.414337158203125 935.406494140625 1664.72998046875 2442.98681640625 2747.206787109375 1924.1268310546875 989.542236328125 311.01336669921875 216.3769683837890625 552.29693603515625 1436.5377197265625 2307.067626953125 3005.489990234375 3719.137451171875 4463.2685546875 4946.78466796875 5210.47607421875 5345.43408203125 5555.18505859375 5916.9111328125 6256.8466796875 6389.396484375 6423.61474609375 6590.78125 6900.12109375 7332.45556640625 7827.69970703125 nan 
nan 2729.674560546875 2242.138427734375 2035.439697265625 2262.23095703125 2829.459716796875 3541.6240234375 3986.64794921875 4084.613037109375 3821.669677734375 3640.56787109375 3710.055908203125 4025.92333984375 4544.28857421875 5205.11328125 5960.00927734375 6375.16943359375 5621.015625 4624.96875 3630.104248046875 2637.186767578125 1648.20263671875 683.06658935546875 392.627105712890625 1236.615966796875 2217.842529296875 3202.647216796875 4184.43798828125 4616.517578125 3849.833251953125 2965.023193359375 2183.17041015625 1657.301513671875 1625.298583984375 2106.4609375 2869.654296875 3746.584716796875 4673.5068359375 5499.59814453125 5264.48681640625 4403.50830078125 3490.157958984375 2528.545166015625 1554.25927734375 681.54107666015625 566.82421875 498.255126953125 473.86810302734375 435.13873291015625 858.92913818359375 686.06427001953125 892.63714599609375 1714.1700439453125 2046.92822265625 1469.381103515625 590.19427490234375 432.293914794921875 1324.331298828125 2304.563232421875 3287.476806640625 4186.28271484375 4092.40673828125 3328.331298828125 2686.8310546875 2315.499267578125 2265.031005859375 1798.5797119140625 930.7305908203125 204.49908447265625 79.68115997314453125 57.7212677001953125 198.973297119140625 851.5809326171875 1449.2266845703125 967.1298828125 378.015533447265625 176.6443939208984375 91.79360198974609375 76.853515625 117.48956298828125 169.069732666015625 589.24237060546875 1064.321044921875 1197.5302734375 979.14276123046875 1089.4490966796875 1125.734619140625 629.0078125 796.122314453125 959.1883544921875 957.12860107421875 375.160369873046875 688.3905029296875 437.4140625 263.78961181640625 264.61334228515625 329.35382080078125 300.692718505859375 968.36492919921875 1762.968017578125 2287.236083984375 2588.716552734375 2605.245849609375 2063.162841796875 1329.8642578125 902.33721923828125 1139.7490234375 1839.014404296875 2153.98388671875 1869.729736328125 1195.6756591796875 509.366668701171875 823.25732421875 1225.959228515625 736.02410888671875 431.74334716796875 302.01739501953125 608.46026611328125 763.40460205078125 844.60174560546875 546.48358154296875 342.4249267578125 239.9767303466796875 96.21042633056640625 383.7508544921875 427.13525390625 818.0828857421875 1423.0919189453125 1861.259033203125 2098.139892578125 2132.062744140625 2011.9798583984375 2038.0877685546875 2249.196533203125 2302.548095703125 1539.6787109375 636.39208984375 127.4017333984375 220.8896331787109375 473.4114990234375 482.948822021484375 785.04644775390625 1446.13232421875 2216.57958984375 2936.588134765625 2789.068603515625 1834.3856201171875 847.92919921875 223.3862762451171875 534.5064697265625 1055.491943359375 1788.2408447265625 2666.476318359375 3550.983642578125 4318.00732421875 5049.5556640625 5718.35205078125 6078.68115234375 6226.6171875 6409.7021484375 6732.2138671875 7103.94873046875 7272.0830078125 7309.0029296875 7456.37060546875 7731.18896484375 8120.66357421875 8588.69140625 nan 
nan 2437.289794921875 1934.70556640625 1761.62353515625 2051.769775390625 2624.665771484375 3274.539306640625 3995.228759765625 4443.89794921875 4464.9345703125 4473.73193359375 4577.00146484375 4841.3515625 5280.41796875 5858.83935546875 6519.17431640625 6551.2421875 5641.46630859375 4653.732421875 3670.345947265625 2697.318359375 1754.4156494140625 947.14068603515625 818.95965576171875 1514.046875 2417.522705078125 3370.029296875 4341.4892578125 4905.59228515625 4281.08544921875 3507.05224609375 2876.50634765625 2499.562744140625 2478.26904296875 2818.670166015625 3426.822509765625 4188.5029296875 5032.802734375 5530.25390625 4866.92919921875 3976.705810546875 3141.981201171875 2362.31591796875 1606.157958984375 924.36334228515625 549.7755126953125 361.271331787109375 642.79425048828125 668.335693359375 744.294677734375 1119.8310546875 1388.4217529296875 1507.3746337890625 1682.045166015625 1631.3375244140625 773.825927734375 355.826141357421875 1159.070556640625 2134.156982421875 3107.6357421875 4071.46533203125 4507.96630859375 3982.234130859375 3463.814208984375 3181.966796875 2961.68603515625 2216.44873046875 1348.7518310546875 629.86273193359375 318.091644287109375 323.360626220703125 666.1929931640625 1331.9254150390625 1925.61767578125 1577.575439453125 1141.1468505859375 775.2493896484375 316.356475830078125 204.81304931640625 185.80072021484375 54.523097991943359375 174.0457305908203125 478.2451171875 1178.7525634765625 1645.383544921875 1690.0325927734375 1192.31103515625 501.78662109375 422.148773193359375 414.244964599609375 615.78912353515625 546.50177001953125 764.7899169921875 322.7452392578125 484.851654052734375 694.4893798828125 659.11566162109375 306.99774169921875 989.15924072265625 1595.2808837890625 1610.705810546875 1731.728515625 1773.0303955078125 1481.999755859375 800.62322998046875 293.362823486328125 561.468505859375 1242.2886962890625 1366.865234375 1106.3409423828125 743.76800537109375 521.57257080078125 906.793212890625 1399.3162841796875 967.0838623046875 796.36370849609375 760.8011474609375 681.5423583984375 545.16290283203125 869.110595703125 794.578369140625 709.616455078125 559.3148193359375 289.00799560546875 74.301849365234375 220.5723114013671875 837.24658203125 1479.1715087890625 1393.3614501953125 1305.401123046875 1289.0679931640625 1127.382568359375 1160.150634765625 1413.220458984375 1736.62060546875 1414.583251953125 495.18682861328125 73.11907196044921875 264.205047607421875 464.64178466796875 816.411865234375 1421.400390625 2080.00927734375 2770.66357421875 3388.171875 2924.908203125 1958.5814208984375 1018.47625732421875 266.3956298828125 463.48529052734375 1366.58349609375 2204.715087890625 3027.018798828125 3912.494140625 4812.61474609375 5629.84033203125 6372.5771484375 6918.32861328125 7108.787109375 7272.62109375 7558.9912109375 7935.39794921875 8153.359375 8195.279296875 8326.9931640625 8573.974609375 8926.7939453125 9360.2470703125 nan 
nan 1693.497314453125 1181.369384765625 917.60760498046875 1327.301513671875 1955.455078125 2702.677734375 3455.88134765625 3760.659912109375 4040.780517578125 4496.64111328125 5020.4189453125 5530.18115234375 6027.6669921875 6566.1796875 7021.6015625 6547.96630859375 5590.865234375 4634.6455078125 3696.79833984375 2794.1484375 1979.010986328125 1416.9771728515625 1410.8218994140625 1963.18408203125 2766.970947265625 3655.152587890625 4581.05126953125 5269.77783203125 4839.05126953125 4170.1728515625 3655.614990234375 3366.5107421875 3350.68701171875 3610.2314453125 4102.92236328125 4757.55908203125 5484.48974609375 5488.65283203125 4580.86669921875 3620.6865234375 2689.74609375 1834.38037109375 1217.1513671875 1011.39068603515625 621.4395751953125 566.23089599609375 986.93060302734375 702.52972412109375 427.083740234375 998.04046630859375 1089.9891357421875 785.6290283203125 997.8641357421875 1538.918701171875 938.83941650390625 314.371429443359375 971.52069091796875 1945.7606201171875 2922.452392578125 3900.607666015625 4741.68115234375 4698.93798828125 4284.82568359375 4019.048583984375 3491.06982421875 2665.61279296875 1924.75537109375 1368.1519775390625 1130.3980712890625 1123.512451171875 1379.6455078125 1965.7412109375 2522.06298828125 2324.537353515625 1889.6534423828125 1251.123046875 455.31622314453125 466.767303466796875 698.12554931640625 229.367218017578125 191.586181640625 345.52105712890625 980.156982421875 1423.7908935546875 1495.1719970703125 1382.9373779296875 644.5277099609375 561.65216064453125 612.7398681640625 797.15966796875 1021.52276611328125 501.640716552734375 301.578765869140625 862.425048828125 991.32989501953125 387.646636962890625 451.769775390625 1090.7005615234375 1037.1480712890625 762.77301025390625 864.843505859375 918.3868408203125 740.90777587890625 345.11761474609375 326.5404052734375 289.901947021484375 774.851806640625 603.755615234375 367.159454345703125 264.15887451171875 256.336273193359375 469.931610107421875 1083.6488037109375 1473.3734130859375 1566.4866943359375 1565.283447265625 1324.971923828125 1003.60009765625 511.222198486328125 531.04852294921875 1201.68359375 979.98358154296875 498.788665771484375 194.3489837646484375 89.2408294677734375 462.404205322265625 882.06512451171875 582.6168212890625 464.8363037109375 478.611968994140625 305.8172607421875 337.202362060546875 594.570556640625 1036.846435546875 1332.4757080078125 706.101318359375 110.1461334228515625 198.709930419921875 418.961334228515625 791.63958740234375 1696.119384765625 2597.59423828125 3387.767578125 3819.14501953125 3147.588623046875 2190.117919921875 1235.8883056640625 370.8203125 341.554718017578125 1144.1478271484375 2032.245361328125 2968.923583984375 3933.42919921875 4909.49462890625 5882.5390625 6801.5673828125 7511.13916015625 7850.2578125 8091.81884765625 8388.2265625 8756.2001953125 9028.990234375 9082.3349609375 9201.3701171875 9425.484375 9747.548828125 10146.4013671875 nan 
nan 913.3817138671875 570.166748046875 352.91802978515625 687.539306640625 1412.563720703125 2306.5361328125 2797.480712890625 2896.117431640625 3248.771240234375 3836.8095703125 4570.45458984375 5387.6865234375 6229.7060546875 7028.91162109375 7214.4140625 6380.1767578125 5405.08349609375 4423.99951171875 3449.440673828125 2494.444091796875 1592.2593994140625 923.0614013671875 1054.08740234375 1831.7877197265625 2757.29345703125 3718.7451171875 4691.98779296875 5557.78564453125 5472.48046875 4905.591796875 4476.1943359375 4243.13916015625 4230.580078125 4439.18017578125 4848.5380859375 5413.8095703125 5934.09228515625 5446.728515625 4456.716796875 3462.132568359375 2471.808837890625 1495.7611083984375 645.4388427734375 490.870819091796875 534.06597900390625 913.891845703125 630.71588134765625 819.52337646484375 1005.926025390625 915.48193359375 485.0313720703125 448.969268798828125 795.5172119140625 1543.5377197265625 1117.886962890625 339.716339111328125 794.90863037109375 1766.735595703125 2743.638427734375 3721.845947265625 4692.615234375 5293.03759765625 5123.95703125 4729.72900390625 3992.371826171875 3248.46435546875 2626.626708984375 2185.702880859375 2013.372314453125 2004.2308349609375 2183.883544921875 2650.043701171875 3192.329833984375 2925.948974609375 2080.13134765625 1123.5538330078125 330.632415771484375 390.496307373046875 763.13934326171875 411.41558837890625 192.6769866943359375 299.3028564453125 771.80267333984375 758.62127685546875 817.2574462890625 1403.59716796875 1055.8480224609375 536.497314453125 835.1734619140625 1401.1861572265625 1327.69140625 681.88836669921875 770.03753662109375 1317.4683837890625 947.03033447265625 253.72528076171875 460.14556884765625 568.068115234375 417.802093505859375 195.34942626953125 261.629425048828125 408.132598876953125 267.824127197265625 196.6909637451171875 547.830078125 362.563385009765625 376.01568603515625 228.0171966552734375 319.196380615234375 372.912017822265625 635.1629638671875 336.083587646484375 590.206298828125 1198.9329833984375 1726.2283935546875 2129.2099609375 2023.8819580078125 1365.5504150390625 673.4398193359375 857.620849609375 1453.208984375 982.3182373046875 331.245635986328125 329.70343017578125 143.261505126953125 115.31079864501953125 318.561279296875 128.3515625 125.29224395751953125 114.43706512451171875 209.1093902587890625 194.2875518798828125 89.56948089599609375 386.90228271484375 936.04071044921875 649.9853515625 114.06006622314453125 284.149932861328125 943.74163818359375 1341.1275634765625 2028.4737548828125 2900.298828125 3817.68408203125 4166.53515625 3350.2421875 2403.27001953125 1508.6912841796875 708.36297607421875 238.630828857421875 872.47222900390625 1854.8665771484375 2850.4951171875 3848.41845703125 4847.1904296875 5828.77294921875 6609.64501953125 7095.84912109375 7562.748046875 8102.716796875 8684.0654296875 9276.3017578125 9771.2861328125 9957.01953125 10078.5498046875 10283.607421875 10579.5947265625 10948.1669921875 nan 
nan 399.150970458984375 477.78399658203125 635.83685302734375 571.19873046875 1248.314453125 1967.47119140625 1997.9039306640625 2045.36474609375 2518.9921875 3242.07666015625 4084.12158203125 4985.203125 5918.2900390625 6846.7548828125 6975.0146484375 6110.6259765625 5192.73779296875 4270.205078125 3326.50439453125 2359.954833984375 1387.8995361328125 564.7757568359375 756.66741943359375 1677.2384033203125 2661.122314453125 3654.117431640625 4650.283203125 5633.91943359375 6079.4794921875 5685.2109375 5319.0107421875 5124.3212890625 5113.9208984375 5287.884765625 5636.048828125 6125.63818359375 6303.63818359375 5493.0859375 4505.32958984375 3524.55126953125 2558.667724609375 1635.708984375 909.97967529296875 820.51983642578125 915.69976806640625 1122.7127685546875 656.62158203125 1008.2977294921875 1610.2218017578125 1187.822265625 609.66461181640625 465.432342529296875 1101.661865234375 1794.2218017578125 1289.83544921875 413.010467529296875 629.93402099609375 1588.5443115234375 2567.85888671875 3546.7373046875 4522.47021484375 5454.248046875 5841.1279296875 5317.14794921875 4577.724609375 3924.59814453125 3360.803955078125 2959.278564453125 2753.973388671875 2728.0107421875 2911.25634765625 3334.4638671875 3730.725341796875 3140.59521484375 2184.774658203125 1284.9049072265625 594.6527099609375 342.52691650390625 331.220306396484375 315.7987060546875 167.9084014892578125 260.578216552734375 530.02032470703125 636.89959716796875 758.43048095703125 1505.9384765625 1322.0078125 671.258544921875 956.437744140625 1781.8310546875 1878.0433349609375 1460.6563720703125 1539.187744140625 1827.255859375 1220.476318359375 440.773956298828125 237.251251220703125 242.212860107421875 393.9522705078125 553.05560302734375 716.08251953125 905.9688720703125 817.8209228515625 585.9713134765625 757.1898193359375 788.322265625 443.1866455078125 503.027130126953125 735.96478271484375 641.36907958984375 1071.8265380859375 788.82958984375 427.759735107421875 543.06781005859375 1104.3524169921875 1724.00146484375 2058.603515625 1841.7166748046875 1428.322021484375 1573.8502197265625 1938.696044921875 1454.0994873046875 720.64385986328125 170.0113067626953125 50.647411346435546875 33.363246917724609375 54.8951416015625 44.74932098388671875 76.3475341796875 488.966766357421875 940.1004638671875 771.6861572265625 197.7262725830078125 99.540557861328125 310.161712646484375 303.975921630859375 83.6552581787109375 404.36907958984375 1288.2689208984375 2032.749267578125 2622.111572265625 3346.41259765625 4161.6943359375 4281.13818359375 3379.34033203125 2402.239501953125 1453.1688232421875 597.630859375 297.31134033203125 986.794921875 1917.536865234375 2891.39306640625 3878.664794921875 4840.51708984375 5526.451171875 5897.9453125 6301.77734375 6821.552734375 7439.994140625 8133.5107421875 8884.0771484375 9671.5009765625 10389.7607421875 10863.33984375 11140.4677734375 11420.2685546875 11762.5400390625 nan 
nan 832.26678466796875 1120.364501953125 1217.26806640625 883.58349609375 919.92724609375 1397.6871337890625 1178.98974609375 1249.9215087890625 1927.8116455078125 2807.92431640625 3749.0810546875 4714.79150390625 5692.4599609375 6644.98583984375 6716.4833984375 5807.115234375 4857.58935546875 3931.949462890625 3045.64697265625 2216.447998046875 1486.82958984375 1024.392822265625 1221.8353271484375 1947.948974609375 2839.52880859375 3785.813720703125 4754.380859375 5733.6181640625 6547.20263671875 6489.15234375 6175.2255859375 6008.287109375 5999.416015625 6148.427734375 6450.38134765625 6843.39990234375 6600.05224609375 5672.96875 4723.0283203125 3799.0654296875 2925.6884765625 2166.017822265625 1682.0191650390625 1645.28466796875 1721.95263671875 1729.715576171875 1407.3472900390625 1617.2806396484375 2116.132568359375 1795.4373779296875 1156.380615234375 866.7449951171875 1410.467041015625 2042.632080078125 1473.575927734375 539.1600341796875 487.332427978515625 1403.6727294921875 2376.242919921875 3351.5380859375 4331.6357421875 5317.06103515625 6129.62255859375 5831.34619140625 5045.5537109375 4257.16796875 3497.729736328125 2842.419921875 2404.421875 2328.90869140625 2651.83251953125 3254.359130859375 3838.635498046875 3431.093994140625 2586.06298828125 1857.69677734375 1351.813232421875 986.9593505859375 499.6783447265625 251.6213226318359375 85.63109588623046875 181.3727264404296875 284.307403564453125 862.78167724609375 1216.6953125 1653.913818359375 1765.5968017578125 1437.26123046875 1596.1329345703125 2225.99267578125 2549.6318359375 2312.736083984375 2369.1787109375 2381.455322265625 1694.3212890625 1039.23291015625 751.46868896484375 834.32421875 853.8499755859375 1060.833740234375 1242.97412109375 971.4844970703125 992.96539306640625 627.0430908203125 528.06915283203125 985.24517822265625 561.39324951171875 375.900726318359375 606.78436279296875 454.396728515625 1096.7032470703125 955.2747802734375 405.423431396484375 298.18902587890625 552.6693115234375 993.99737548828125 1508.0770263671875 2063.898681640625 1938.2357177734375 2042.2515869140625 2369.432861328125 1867.045166015625 935.79730224609375 154.455841064453125 64.85277557373046875 45.35955810546875 56.381847381591796875 36.597743988037109375 196.5034027099609375 784.50872802734375 1511.79443359375 1324.1812744140625 804.82818603515625 448.411773681640625 119.4449005126953125 71.3746490478515625 207.220062255859375 740.38189697265625 1574.9609375 2469.392822265625 3268.36328125 3940.904541015625 4463.79638671875 4093.588623046875 3275.589599609375 2352.20556640625 1382.180908203125 462.641143798828125 402.51275634765625 1287.4967041015625 2204.553466796875 3123.447998046875 3985.388916015625 4539.6484375 4763.697265625 5072.10693359375 5529.79052734375 6115.3232421875 6797.16748046875 7548.25927734375 8351.31640625 9193.1298828125 10058.43359375 10892.5947265625 11596.828125 12146.046875 12569.8251953125 nan 
nan 1417.9818115234375 1485.1485595703125 1249.290771484375 523.40966796875 532.304443359375 1084.59521484375 609.0936279296875 729.37078857421875 1632.885498046875 2614.818359375 3606.953369140625 4602.677734375 5599.99853515625 6544.45361328125 6501.6552734375 5572.9580078125 4609.08544921875 3644.62646484375 2688.081787109375 1765.3035888671875 1001.0760498046875 893.33074951171875 1526.18310546875 2354.682861328125 3217.36181640625 4103.4169921875 5015.681640625 5952.3359375 6880.99853515625 7263.1083984375 7039.7060546875 6893.70068359375 6885.96826171875 7016.2060546875 7282.251953125 7500.8515625 6900.5732421875 5981.30078125 5089.34326171875 4246.021484375 3486.677978515625 2878.9599609375 2533.5283203125 2517.3369140625 2581.63720703125 2506.439453125 2267.742919921875 2405.1943359375 2774.364501953125 2453.111572265625 1875.30322265625 1693.109375 2031.1683349609375 2377.704345703125 1670.7158203125 736.82708740234375 474.202972412109375 1295.767578125 2276.893798828125 3269.716064453125 4265.83935546875 5263.47216796875 6141.203125 5848.92236328125 4896.1064453125 3950.76904296875 3040.7294921875 2210.956787109375 1593.6097412109375 1476.700439453125 1946.159423828125 2715.257080078125 3574.4306640625 3813.71533203125 3178.13037109375 2577.944580078125 2159.5283203125 1672.7696533203125 1084.595703125 451.8355712890625 122.00463104248046875 98.37242889404296875 217.880279541015625 558.12255859375 767.84674072265625 1117.232177734375 1679.0863037109375 2051.273193359375 2365.425048828125 2667.897705078125 2672.67919921875 2629.082763671875 2820.6240234375 2640.8203125 2154.570068359375 1741.53515625 1455.5189208984375 1153.049560546875 529.322998046875 564.4471435546875 955.3724365234375 479.397216796875 660.14569091796875 934.88653564453125 614.1728515625 730.95819091796875 511.123016357421875 474.5811767578125 633.0760498046875 967.87469482421875 1385.9759521484375 1133.954833984375 684.09271240234375 602.881103515625 389.12255859375 470.490875244140625 1171.703369140625 1665.350830078125 1326.2286376953125 1461.0919189453125 2043.1710205078125 1824.2877197265625 862.03204345703125 121.63236236572265625 32.065021514892578125 57.875553131103515625 57.83341217041015625 85.65995025634765625 325.290313720703125 759.70477294921875 1640.9732666015625 1959.84326171875 1608.467041015625 1130.39599609375 663.9976806640625 542.08514404296875 819.183349609375 1339.7078857421875 2061.162109375 2879.469970703125 3743.95166015625 4498.5771484375 4389.36474609375 3584.74169921875 2812.905029296875 2092.828369140625 1267.600830078125 442.35186767578125 432.733978271484375 1351.4451904296875 2302.99951171875 3125.7744140625 3574.272705078125 3737.785888671875 3904.505615234375 4266.48095703125 4798.7978515625 5462.03857421875 6213.7958984375 7027.0400390625 7882.66162109375 8751.9521484375 9586.0732421875 10398.3623046875 11231.265625 12083.572265625 12886.419921875 nan 
nan 984.52459716796875 875.89642333984375 922.1728515625 467.36865234375 871.0672607421875 1171.3609619140625 774.54986572265625 977.489990234375 1774.51416015625 2705.69091796875 3673.244140625 4654.76171875 5642.86279296875 6523.35205078125 6265.36328125 5318.9658203125 4363.544921875 3407.868408203125 2450.163330078125 1494.6715087890625 602.2457275390625 548.140869140625 1430.972900390625 2411.4521484375 3397.348876953125 4372.32861328125 5328.1357421875 6265.23779296875 7194.77490234375 7919.580078125 7908.93701171875 7780.29931640625 7773.4482421875 7889.06591796875 8120.72705078125 8060.1025390625 7268.49560546875 6399.60888671875 5575.0546875 4817.595703125 4163.83056640625 3669.748779296875 3404.98046875 3398.30517578125 3453.2177734375 3335.361083984375 3145.1953125 3246.05322265625 3495.789794921875 3138.047119140625 2689.200927734375 2564.546630859375 2792.361328125 2784.831787109375 1981.4705810546875 1228.9559326171875 1034.3634033203125 1597.5615234375 2459.846435546875 3399.353515625 4365.8857421875 5344.82666015625 6154.5126953125 5712.71826171875 4722.39013671875 3733.066162109375 2751.582275390625 1791.678955078125 931.591064453125 724.99847412109375 1440.831298828125 2377.19189453125 3350.7783203125 4109.9677734375 3862.8876953125 3361.38330078125 2935.74072265625 2344.34130859375 1636.18310546875 1097.6180419921875 600.4090576171875 244.166534423828125 120.86309051513671875 287.41363525390625 311.25494384765625 507.73095703125 1050.780517578125 1848.5411376953125 2532.513427734375 2350.730712890625 1902.6392822265625 1895.98583984375 2258.27490234375 2034.732666015625 1682.473388671875 1605.7366943359375 1135.3701171875 854.94195556640625 674.84033203125 366.323516845703125 660.50213623046875 541.83544921875 712.7352294921875 1207.3076171875 642.8988037109375 714.5701904296875 1116.14013671875 759.18499755859375 581.6153564453125 938.36285400390625 1220.131591796875 1350.300048828125 969.44354248046875 434.647064208984375 284.64501953125 637.7120361328125 1307.394287109375 1302.3934326171875 631.38763427734375 840.50433349609375 1488.41943359375 1618.9132080078125 784.4742431640625 84.04140472412109375 11.500925064086914063 56.06781005859375 8.0558042526245117188 78.3789215087890625 549.41180419921875 1222.286865234375 1962.6124267578125 2532.2275390625 2064.005126953125 1245.3726806640625 727.86407470703125 1017.303466796875 1567.23486328125 2063.539306640625 2656.38134765625 3393.80810546875 4199.63134765625 4739.31640625 4110.3701171875 3169.832275390625 2274.302734375 1495.6983642578125 806.9349365234375 230.783111572265625 637.453857421875 1339.3621826171875 1940.325439453125 2506.35107421875 2725.176025390625 2856.894775390625 3058.49072265625 3499.097412109375 4129.24853515625 4881.45703125 5709.23974609375 6580.673828125 7443.8818359375 8258.2880859375 9070.984375 9914.3720703125 10784.5615234375 11675.69140625 12560.2626953125 nan 
nan 644.473876953125 544.37603759765625 659.742431640625 425.6593017578125 1079.8577880859375 913.58172607421875 564.8377685546875 1236.2442626953125 2118.31298828125 3000.683837890625 3910.20556640625 4852.29443359375 5812.15478515625 6565.48193359375 6059.5390625 5083.63818359375 4112.84716796875 3149.585205078125 2193.06982421875 1243.2125244140625 432.459381103515625 688.18890380859375 1617.2261962890625 2578.51513671875 3544.583251953125 4516.03564453125 5493.318359375 6474.18603515625 7450.76708984375 8376.408203125 8748.4443359375 8667.5498046875 8661.3994140625 8765.32421875 8930.2646484375 8552.87109375 7719.70263671875 6907.8369140625 6151.81591796875 5474.7509765625 4909.22265625 4497.58740234375 4284.07373046875 4282.4189453125 4328.41064453125 4185.70166015625 4028.22802734375 4107.57666015625 4256.0859375 3892.7763671875 3539.6748046875 3445.69091796875 3579.6796875 3263.889404296875 2521.90771484375 1983.3623046875 1865.970458984375 2231.555908203125 2911.47021484375 3738.834716796875 4634.9296875 5566.6630859375 6274.1162109375 5703.9931640625 4709.15869140625 3716.298828125 2728.75 1756.289794921875 863.381591796875 640.8515625 1394.7015380859375 2349.46484375 3331.589111328125 4284.779296875 4557.5009765625 4166.1982421875 3649.359130859375 2952.428955078125 2331.142822265625 1849.3248291015625 1287.3153076171875 625.63134765625 125.59067535400390625 247.0600128173828125 244.9018707275390625 201.9683837890625 724.130615234375 1460.4622802734375 1931.1463623046875 1757.284423828125 1106.730224609375 1095.550048828125 1669.83984375 1418.760009765625 857.7808837890625 977.5975341796875 614.57525634765625 333.10906982421875 616.4127197265625 622.9857177734375 484.680450439453125 758.41815185546875 1189.7738037109375 1616.0032958984375 1307.6517333984375 1343.6070556640625 1722.611328125 1339.361083984375 943.436279296875 437.644500732421875 738.89483642578125 855.47894287109375 489.777374267578125 504.9200439453125 482.676727294921875 631.71820068359375 975.4112548828125 807.4669189453125 455.45758056640625 437.488525390625 802.64801025390625 1271.9259033203125 730.5694580078125 67.63303375244140625 8.2818784713745117188 46.4759979248046875 9.7870311737060546875 135.07269287109375 822.4073486328125 1670.882080078125 2350.7509765625 2699.56005859375 2069.37109375 1121.09912109375 484.452117919921875 960.33441162109375 1889.959228515625 2716.6171875 3342.420654296875 3984.056884765625 4713.48974609375 4831.49560546875 3937.865234375 2948.650146484375 1968.6180419921875 1022.00390625 316.801910400390625 204.9060821533203125 448.211578369140625 722.9659423828125 1293.381103515625 1753.310546875 1848.1611328125 1978.831787109375 2240.81103515625 2802.3251953125 3553.99853515625 4402.96875 5288.68701171875 6131.466796875 6927.68603515625 7747.29345703125 8604.2421875 9489.19921875 10394.7724609375 11315.3779296875 12223.521484375 nan 
nan 687.97344970703125 822.4317626953125 540.04571533203125 399.339263916015625 1083.72265625 995.17626953125 576.11895751953125 1119.595458984375 2013.5079345703125 2957.5703125 3921.2529296875 4897.89501953125 5881.00439453125 6575.0810546875 5951.11376953125 4954.8671875 3960.511962890625 2969.4921875 1984.1510009765625 1011.416015625 342.052703857421875 897.5255126953125 1853.385009765625 2814.644775390625 3775.7451171875 4738.04638671875 5702.43408203125 6668.4375 7636.923828125 8607.94140625 9401.3095703125 9551.7978515625 9549.71484375 9643.8603515625 9666.5380859375 9044.42578125 8242.60546875 7487.66943359375 6796.46240234375 6190.28857421875 5696.17626953125 5345.36865234375 5166.90673828125 5168.07666015625 5204.6318359375 5047.21533203125 4913.79736328125 4978.9541015625 5047.92236328125 4694.3828125 4405.73828125 4330.49560546875 4348.3994140625 3845.593505859375 3220.02783203125 2817.33447265625 2735.463623046875 2997.806640625 3533.502685546875 4241.1064453125 5048.70361328125 5915.51220703125 6494.24658203125 5826.78173828125 4856.7529296875 3901.767333984375 2976.72314453125 2121.95263671875 1467.949951171875 1340.5684814453125 1843.388427734375 2641.92919921875 3543.608154296875 4485.98388671875 5166.7412109375 4933.79541015625 4281.48291015625 3616.7607421875 3097.83837890625 2507.715576171875 1691.4527587890625 773.3143310546875 124.5468292236328125 237.8473663330078125 237.5613555908203125 318.77313232421875 609.83282470703125 793.96441650390625 1219.4091796875 1377.3140869140625 656.23602294921875 643.60845947265625 1428.5758056640625 1204.79150390625 475.485260009765625 743.62109375 880.38861083984375 670.71063232421875 815.8333740234375 1089.3802490234375 560.67779541015625 560.3489990234375 1071.4022216796875 1813.165771484375 2093.196533203125 2134.7548828125 2007.00732421875 1327.023193359375 785.72161865234375 386.724517822265625 877.009033203125 797.5760498046875 488.896881103515625 902.0350341796875 638.5203857421875 342.70947265625 418.67669677734375 290.8402099609375 233.5681610107421875 255.50531005859375 308.410400390625 724.5277099609375 601.53704833984375 50.524547576904296875 3.5328590869903564453 17.863180160522460938 3.7288892269134521484 72.97357177734375 701.09405517578125 1439.582763671875 1854.829833984375 2168.58349609375 2162.19775390625 1560.700927734375 1131.0380859375 1416.5435791015625 2173.756591796875 3071.040771484375 3940.68212890625 4643.05810546875 5234.296875 4921.80810546875 3948.345947265625 2963.471923828125 1994.2113037109375 1077.643310546875 441.340728759765625 332.996612548828125 258.073760986328125 206.8690643310546875 773.954833984375 932.1043701171875 974.17596435546875 1111.751953125 1495.517822265625 2238.435302734375 3119.4580078125 4008.357421875 4813.27587890625 5597.29248046875 6429.78955078125 7304.4072265625 8207.1904296875 9128.697265625 10063.0419921875 11007.09375 11934.6123046875 nan 
nan 421.199859619140625 844.68890380859375 832.56298828125 826.55828857421875 1335.4644775390625 1103.77978515625 445.3956298828125 897.8720703125 1854.9471435546875 2844.363037109375 3839.36279296875 4836.58544921875 5834.82421875 6563.169921875 5972.39794921875 4980.51611328125 3992.634765625 3013.047119140625 2053.51220703125 1168.156982421875 726.287109375 1233.1927490234375 2109.423828125 3049.150634765625 4008.257568359375 4973.25341796875 5937.83740234375 6901.40478515625 7864.9462890625 8829.5146484375 9778.9169921875 10363.494140625 10438.41015625 10516.0234375 10312.728515625 9578.53515625 8824.5927734375 8123.923828125 7491.64208984375 6946.3681640625 6509.83935546875 6205.12890625 6052.01953125 6054.8076171875 6080.9658203125 5915.77197265625 5800.90966796875 5855.28857421875 5859.20166015625 5523.185546875 5279.9296875 5215.515625 5086.154296875 4515.8427734375 3994.98681640625 3677.728271484375 3615.256103515625 3817.96435546875 4251.8203125 4855.904296875 5575.10595703125 6370.1357421875 6805.431640625 6078.337890625 5155.9345703125 4268.58203125 3443.808837890625 2739.20068359375 2269.2392578125 2187.902099609375 2531.885986328125 3165.267822265625 3949.932861328125 4814.6240234375 5644.53955078125 5595.0283203125 4930.0205078125 4352.43212890625 3765.27783203125 2930.321533203125 2017.38525390625 1143.4886474609375 445.441497802734375 166.3234710693359375 80.077545166015625 96.6576995849609375 134.339569091796875 221.5009765625 552.2626953125 965.1697998046875 837.75958251953125 1037.6317138671875 1660.221435546875 1416.354736328125 797.3165283203125 994.28387451171875 1481.958740234375 1451.31005859375 1194.4342041015625 1098.161376953125 967.73382568359375 469.0611572265625 824.00750732421875 1753.552734375 2600.251708984375 2607.3779296875 1845.182861328125 938.21966552734375 324.35723876953125 456.7476806640625 1172.106689453125 1392.9410400390625 1270.0718994140625 1443.5888671875 1070.1243896484375 792.6417236328125 834.77960205078125 844.09466552734375 798.78631591796875 730.82757568359375 364.8719482421875 249.45904541015625 284.671600341796875 29.931077957153320313 6.253879547119140625 18.253650665283203125 24.110860824584960938 79.96085357666015625 360.229156494140625 697.87799072265625 1020.51995849609375 1361.9013671875 1821.340576171875 2028.4283447265625 1942.559326171875 2149.019775390625 2708.466064453125 3467.991943359375 4320.18115234375 5130.650390625 5570.80908203125 5088.04345703125 4149.3271484375 3226.509765625 2362.439453125 1624.17626953125 1149.6959228515625 968.19464111328125 632.2664794921875 236.836334228515625 284.99884033203125 239.687957763671875 262.8399658203125 365.483367919921875 964.258544921875 1885.6400146484375 2745.524658203125 3490.441162109375 4270.56298828125 5123.17724609375 6020.35400390625 6943.27783203125 7881.67578125 8830.322265625 9786.2734375 10747.85546875 11689.4990234375 nan 
nan 1022.19268798828125 1271.9996337890625 1081.7037353515625 677.31317138671875 1174.9461669921875 1360.6458740234375 960.60052490234375 1261.504150390625 2056.22265625 2979.12744140625 3940.0888671875 4916.861328125 5901.5068359375 6655.3564453125 6124.2548828125 5162.0556640625 4217.04541015625 3304.93896484375 2462.544921875 1792.464111328125 1533.14013671875 1849.9322509765625 2541.895751953125 3384.8154296875 4288.05615234375 5220.41748046875 6170.8193359375 7131.8203125 8097.36083984375 9063.4326171875 10028.3447265625 10921.1181640625 11309.0078125 11350.5341796875 10906.427734375 10161.8681640625 9454.560546875 8804.1669921875 8224.3349609375 7730.8828125 7341.109375 7072.2587890625 6938.28076171875 6941.9716796875 6956.55126953125 6788.9423828125 6688.69140625 6733.443359375 6683.53271484375 6368.39306640625 6158.54931640625 6089.20703125 5807.4853515625 5250.48779296875 4809.70654296875 4549.42626953125 4499.0234375 4663.619140625 5025.15576171875 5545.71337890625 6185.21240234375 6886.71240234375 7127.78857421875 6433.470703125 5582.41455078125 4775.14306640625 4054.841552734375 3476.234619140625 3118.673583984375 3059.749755859375 3315.259033203125 3823.0888671875 4497.2119140625 5273.36083984375 6085.1220703125 6214.08154296875 5636.2060546875 5020.86767578125 4196.24609375 3295.69677734375 2449.266845703125 1724.07470703125 1124.6019287109375 712.13958740234375 404.86431884765625 247.805145263671875 156.59130859375 152.139404296875 141.1254119873046875 369.357666015625 568.150390625 1343.3890380859375 1959.7984619140625 1365.6884765625 557.8604736328125 792.101806640625 1670.1124267578125 1707.386474609375 860.99444580078125 544.59130859375 1105.4140625 1087.5322265625 1307.2745361328125 2030.9317626953125 2811.41845703125 2510.17529296875 1557.2049560546875 679.70257568359375 294.3822021484375 871.8045654296875 1646.5108642578125 2124.365234375 2058.95556640625 1700.6009521484375 1064.830810546875 942.608642578125 1356.906005859375 1628.031982421875 1398.7225341796875 805.34808349609375 265.4005126953125 174.990325927734375 104.95322418212890625 77.49962615966796875 79.95928955078125 76.2608184814453125 190.48626708984375 197.2528839111328125 347.351654052734375 290.8497314453125 322.069610595703125 589.90411376953125 1123.1182861328125 1604.1148681640625 1958.0028076171875 2319.193603515625 2825.391845703125 3497.137939453125 4240.0830078125 4774.90771484375 5055.26318359375 5129.845703125 4511.7060546875 3663.140380859375 2821.86962890625 1972.3499755859375 1150.4791259765625 687.5704345703125 469.441497802734375 482.92218017578125 509.925079345703125 587.2655029296875 516.97454833984375 236.657470703125 793.04852294921875 1526.012939453125 2170.6611328125 2953.93505859375 3836.03759765625 4760.02978515625 5703.65673828125 6658.60888671875 7620.86083984375 8587.3564453125 9555.6064453125 10523.9365234375 11468.0478515625 nan 
nan 1875.321044921875 1780.0238037109375 1050.1444091796875 533.79962158203125 1119.0267333984375 1808.503173828125 1799.28662109375 1984.2061767578125 2564.315185546875 3349.6279296875 4226.94580078125 5149.46923828125 6096.59619140625 6858.6318359375 6397.3125 5484.02978515625 4605.7001953125 3788.566650390625 3081.55615234375 2577.075439453125 2402.44287109375 2618.153076171875 3149.9990234375 3868.689453125 4688.982421875 5565.54931640625 6473.49365234375 7401.23583984375 8343.3310546875 9296.763671875 10258.193359375 11221.408203125 12013.7958984375 12111.103515625 11499.3251953125 10787.287109375 10123.767578125 9519.2001953125 8985.611328125 8536.2548828125 8184.892578125 7944.6171875 7825.5703125 7829.6962890625 7831.45556640625 7665.8662109375 7577.17529296875 7612.18603515625 7517.73876953125 7224.52197265625 7040.205078125 6938.326171875 6536.40771484375 6027.22998046875 5647.30322265625 5427.24267578125 5385.03955078125 5523.36376953125 5831.94482421875 6285.6982421875 6797.64013671875 7000.08349609375 6773.36767578125 6440.74951171875 5983.35693359375 5370.2841796875 4754.7041015625 4271.83935546875 3985.982421875 3939.972900390625 4141.79345703125 4558.8076171875 5139.01220703125 5832.4365234375 6592.94140625 6866.25537109375 6291.4716796875 5472.6728515625 4596.4091796875 3775.438232421875 3049.373291015625 2405.13525390625 1828.85546875 1341.4466552734375 1028.5679931640625 942.49871826171875 744.76318359375 320.803802490234375 128.7305145263671875 205.2577056884765625 679.9407958984375 1476.2989501953125 2126.476318359375 1602.14599609375 981.64971923828125 1146.5897216796875 1871.71484375 1828.896728515625 1026.6524658203125 786.6954345703125 1409.9102783203125 1877.646484375 2075.55322265625 2598.8310546875 3118.30029296875 2538.68115234375 1588.4554443359375 789.63006591796875 715.87213134765625 1319.017822265625 2112.597412109375 2442.59716796875 2029.1328125 1440.840576171875 604.8768310546875 353.468841552734375 1012.26763916015625 1604.874267578125 1166.392578125 484.913116455078125 212.29608154296875 192.48748779296875 180.263916015625 142.9635467529296875 138.5122222900390625 313.499664306640625 255.125457763671875 199.914459228515625 512.35150146484375 857.9381103515625 612.24542236328125 304.80133056640625 430.362884521484375 796.2845458984375 1173.486572265625 1605.117431640625 2208.0751953125 2942.032958984375 3640.130615234375 3944.096923828125 4225.08154296875 4640.7685546875 4721.00732421875 3923.647705078125 2943.2392578125 1961.3111572265625 1015.69256591796875 390.6865234375 435.452239990234375 1005.24267578125 1339.9970703125 1374.399658203125 883.8272705078125 255.3229217529296875 413.532379150390625 881.0167236328125 1661.49365234375 2581.254638671875 3533.08056640625 4496.02783203125 5463.23583984375 6431.25634765625 7398.60986328125 8366.8603515625 9338.083984375 10313.615234375 11268.7392578125 nan 
nan 2714.2109375 2267.793701171875 1543.86083984375 1173.7938232421875 1347.71435546875 1825.6727294921875 2333.359619140625 2754.962158203125 3239.96923828125 3892.1982421875 4668.509765625 5517.58740234375 6410.48583984375 7164.7431640625 6776.681640625 5923.41015625 5121.08544921875 4400.77880859375 3809.05712890625 3413.351806640625 3283.121826171875 3444.540283203125 3865.23876953125 4473.2373046875 5201.11962890625 6006.4560546875 6862.60986328125 7750.95849609375 8660.470703125 9585.595703125 10522.65625 11469.34375 12407.3515625 12738.275390625 12121.169921875 11447.68359375 10824.7158203125 10261.51953125 9768.5478515625 9356.8466796875 9037.421875 8820.3798828125 8713.294921875 8717.3564453125 8705.5576171875 8545.34375 8465.861328125 8490.2822265625 8359.3681640625 8087.8447265625 7923.30224609375 7754.8798828125 7287.24853515625 6831.517578125 6498.71630859375 6308.37109375 6272.087890625 6391.27978515625 6657.15087890625 6936.4052734375 6817.5810546875 6358.32373046875 5945.99560546875 5680.6953125 5572.8994140625 5531.12744140625 5372.73095703125 5086.41650390625 4861.36279296875 4823.72216796875 4990.0439453125 5341.3779296875 5844.63623046875 6464.34130859375 7165.96630859375 7469.4228515625 6767.1572265625 5912.94580078125 5107.85400390625 4369.556640625 3642.7734375 2819.820556640625 1920.5533447265625 1051.8306884765625 701.0035400390625 1137.7034912109375 803.39544677734375 362.662933349609375 267.49951171875 124.13397979736328125 523.4644775390625 1331.204833984375 2055.200439453125 2051.861083984375 1716.567626953125 1770.66064453125 2196.16162109375 2226.934814453125 1717.361572265625 1572.421142578125 1879.05322265625 2213.08984375 2508.011474609375 3040.30615234375 3461.821533203125 2848.005859375 2046.988037109375 1508.5157470703125 1510.15380859375 1952.130615234375 2284.987548828125 2009.2384033203125 1339.1317138671875 1011.18341064453125 744.86151123046875 199.5247955322265625 610.72772216796875 1156.653076171875 620.76715087890625 224.350555419921875 568.37255859375 767.7476806640625 417.9298095703125 115.20635986328125 262.981292724609375 420.121795654296875 230.368377685546875 161.347900390625 514.08563232421875 1334.350341796875 1382.2862548828125 852.47296142578125 426.025909423828125 279.985443115234375 420.256256103515625 889.767822265625 1613.0335693359375 2410.50537109375 2905.63671875 3080.08349609375 3407.406005859375 3910.217529296875 4422.0849609375 4070.712890625 3147.37744140625 2255.126708984375 1481.0169677734375 1032.9722900390625 1009.2301025390625 1509.197265625 2104.44384765625 1937.3638916015625 1093.6337890625 376.938323974609375 210.8963470458984375 478.792724609375 1387.77099609375 2348.463623046875 3311.631103515625 4276.22412109375 5245.26220703125 6220.28564453125 7201.2568359375 8186.76416015625 9175.4033203125 10166.3525390625 11090.63671875 nan 
nan 3319.625 2700.817138671875 1990.6019287109375 1233.16162109375 807.93743896484375 1241.0518798828125 2101.83544921875 3019.358642578125 3834.842529296875 4527.67236328125 5225.45263671875 5996.30322265625 6826.82275390625 7561.47705078125 7245.603515625 6456.30712890625 5729.13232421875 5095.4990234375 4594.0146484375 4271.40478515625 4167.939453125 4296.3955078125 4640.72998046875 5158.80615234375 5803.58251953125 6536.171875 7331.3916015625 8171.6201171875 9043.57421875 9937.7958984375 10848.3857421875 11771.6572265625 12703.8828125 13261.001953125 12774.6806640625 12137.51171875 11551.7998046875 11025.7958984375 10568.5224609375 10189.1806640625 9896.6396484375 9698.830078125 9601.5390625 9604.8603515625 9579.6435546875 9426.892578125 9354.896484375 9367.41796875 9207.275390625 8956.482421875 8803.03125 8543.4970703125 8064.275390625 7654.86474609375 7359.3486328125 7191.78564453125 7159.97314453125 7254.70458984375 7280.173828125 6858.966796875 6196.3818359375 5595.8583984375 5121.61669921875 4811.22802734375 4697.07861328125 4793.0439453125 5074.857421875 5409.85791015625 5611.744140625 5698.671875 5850.74462890625 6153.24658203125 6594.90283203125 7150.0947265625 7788.81640625 7972.73828125 7237.76220703125 6439.25634765625 5655.5419921875 4801.3798828125 3850.301025390625 2865.32421875 1890.2869873046875 968.11224365234375 571.4014892578125 1118.9129638671875 857.088623046875 616.78985595703125 535.42041015625 222.25726318359375 216.2178955078125 835.0225830078125 1453.6517333984375 1684.6512451171875 1513.00390625 1431.0281982421875 1696.79443359375 2139.55029296875 2282.01025390625 1938.869873046875 1571.389892578125 1523.30615234375 1934.7822265625 2656.837158203125 3423.595947265625 3323.74169921875 2683.431884765625 2275.293212890625 2243.096435546875 2231.373779296875 1787.1336669921875 1342.70458984375 853.0321044921875 454.967926025390625 836.58538818359375 347.287261962890625 462.287384033203125 854.30670166015625 293.971466064453125 559.17388916015625 1170.5692138671875 1379.072021484375 631.4659423828125 119.74098968505859375 126.4767608642578125 225.5482177734375 238.4319305419921875 208.046112060546875 767.04571533203125 1662.4385986328125 2055.999267578125 1606.8389892578125 1180.5579833984375 801.70269775390625 409.9525146484375 387.9765625 1117.187744140625 1786.601806640625 2052.825439453125 2224.44580078125 2623.570068359375 3208.330810546875 3916.599853515625 4229.87841796875 3567.22509765625 2801.57958984375 2189.25 1890.8475341796875 1859.4906005859375 2176.550537109375 2649.1416015625 2157.017578125 1225.261962890625 563.55450439453125 314.865631103515625 360.43145751953125 1181.3204345703125 2142.278564453125 3123.802490234375 4113.76171875 5107.65478515625 6103.63671875 7100.720703125 8098.484375 9096.73046875 10070.322265625 10653.546875 nan 
nan 3059.848388671875 2342.70458984375 1739.532470703125 1032.5914306640625 489.859527587890625 1038.857421875 1989.8489990234375 2974.90576171875 3966.239013671875 4927.56494140625 5786.1962890625 6554.9150390625 7328.09912109375 8026.23681640625 7754.77587890625 7018.0185546875 6347.13330078125 5771.2080078125 5321.06103515625 5030.2841796875 4925.9775390625 5017.72119140625 5297.3955078125 5738.29638671875 6306.79150390625 6971.31591796875 7706.64013671875 8495.2353515625 9323.67578125 10182.3095703125 11063.3427734375 11961.525390625 12874.0322265625 13633.4619140625 13445.9921875 12851.974609375 12300.3251953125 11807.705078125 11381.876953125 11030.529296875 10760.873046875 10579.224609375 10490.0966796875 10492.16015625 10454.5966796875 10309.9091796875 10244.1162109375 10243.0947265625 10057.0390625 9798.73046875 9567.7578125 9191.1708984375 8741.029296875 8379.982421875 8125.21923828125 7986.79345703125 7961.14208984375 7791.03857421875 7132.63037109375 6319.5703125 5554.6865234375 4875.71826171875 4323.3154296875 3950.90283203125 3811.19091796875 3928.81396484375 4282.8642578125 4821.63134765625 5477.8486328125 6120.044921875 6606.68701171875 6974.81787109375 7376.25830078125 7871.92041015625 8379.5048828125 8413.5087890625 7745.32421875 6894.306640625 5958.77685546875 4991.83203125 4034.778564453125 3103.915771484375 2229.92138671875 1516.3814697265625 1273.6400146484375 1622.584228515625 1528.3736572265625 1217.3504638671875 581.68634033203125 422.656005859375 217.5720672607421875 295.810791015625 724.89031982421875 948.42431640625 681.461181640625 599.78546142578125 925.85089111328125 1466.8377685546875 1950.6390380859375 1467.782958984375 799.24554443359375 714.432861328125 1361.126220703125 2268.614013671875 3202.075927734375 3352.13134765625 2656.25537109375 2121.062255859375 1967.42919921875 1774.6976318359375 1099.844970703125 596.720458984375 697.148193359375 729.48236083984375 871.49700927734375 340.4862060546875 544.3162841796875 758.44366455078125 296.6126708984375 989.79180908203125 1761.4345703125 1788.7652587890625 1041.8179931640625 402.902191162109375 70.54694366455078125 95.42266082763671875 99.60698699951171875 378.33135986328125 1142.454345703125 1996.1256103515625 2605.227783203125 2391.161865234375 2000.0902099609375 1596.89111328125 968.4345703125 322.927001953125 554.23291015625 996.20758056640625 1176.944091796875 1390.5496826171875 1892.362060546875 2591.373046875 3382.68310546875 4120.427734375 4089.725830078125 3470.757080078125 2986.2392578125 2768.752197265625 2719.3564453125 2764.23828125 2700.57958984375 2255.014892578125 1401.497802734375 641.70458984375 332.054931640625 301.5633544921875 1126.890625 2114.558349609375 3107.81103515625 4103.12646484375 5099.6513671875 6097.11669921875 7095.1513671875 8093.60400390625 9083.6962890625 9781.580078125 9855.591796875 nan 
nan 2654.3720703125 1782.069580078125 1079.18798828125 910.8768310546875 1004.533935546875 1458.42822265625 2249.7998046875 3157.78369140625 4107.34814453125 5075.76318359375 6051.55322265625 6997.70703125 7854.38525390625 8290.6220703125 7728.85986328125 6953.8115234375 6239.93408203125 5611.1982421875 5101.1162109375 4748.6201171875 4590.12060546875 4645.3984375 4907.546875 5346.46142578125 5923.02197265625 6601.44189453125 7353.68603515625 8159.26806640625 9003.8388671875 9877.6142578125 10773.427734375 11686.037109375 12611.900390625 13533.986328125 13994.7119140625 13586.71875 13066.546875 12603.90234375 12205.8740234375 11878.9130859375 11628.9365234375 11461.046875 11378.8251953125 11379.4228515625 11331.0458984375 11193.806640625 11112.265625 10947.15234375 10491.66796875 9930.6357421875 9372.25 8854.83984375 8417.494140625 8080.48388671875 7856.5986328125 7754.796875 7764.1689453125 7534.60791015625 6713.1220703125 5829.27587890625 4989.73779296875 4220.83349609375 3568.58740234375 3107.388671875 2928.01025390625 3079.29443359375 3519.443603515625 4156.88818359375 4913.69140625 5744.65185546875 6612.4658203125 7427.25048828125 8033.19482421875 8227.6748046875 8167.517578125 8054.2841796875 7833.794921875 7141.29345703125 6210.6279296875 5284.818359375 4389.5517578125 3548.125244140625 2811.811279296875 2285.47265625 2129.97216796875 2367.00732421875 2319.600341796875 1797.455078125 1169.67041015625 1015.64208984375 713.91668701171875 291.708099365234375 204.961700439453125 345.9830322265625 226.9564666748046875 247.7315216064453125 307.28094482421875 830.691162109375 1503.333984375 1112.8740234375 340.107940673828125 370.64605712890625 1186.4473876953125 2147.5224609375 2965.66162109375 2955.415283203125 2122.857421875 1378.626220703125 1138.197509765625 1320.12890625 688.9407958984375 312.21826171875 853.3150634765625 1428.6685791015625 1214.52685546875 744.64013671875 1011.098388671875 766.29180908203125 322.325958251953125 1117.6883544921875 2078.79248046875 2289.235107421875 1586.8604736328125 715.35137939453125 195.2880401611328125 248.1629486083984375 68.0076446533203125 280.3387451171875 1055.5703125 1828.0157470703125 2494.633056640625 2909.4599609375 2796.30126953125 2258.91845703125 1463.569580078125 721.16729736328125 315.198577880859375 312.194671630859375 379.42694091796875 620.61566162109375 1261.6885986328125 2053.193115234375 2879.352294921875 3728.190185546875 4372.57080078125 4202.9091796875 3821.799072265625 3565.052734375 3114.552001953125 2473.203369140625 1966.45068359375 1798.6552734375 1288.5736083984375 418.386474609375 171.9159088134765625 543.92767333984375 1365.996337890625 2291.906494140625 3249.685302734375 4221.83447265625 5202.47509765625 6188.1455078125 7176.703125 8165.20263671875 8966.9013671875 9077.037109375 8969.896484375 nan 
nan 2509.1533203125 1558.5035400390625 664.31842041015625 407.422332763671875 869.818115234375 1563.69677734375 2422.182373046875 3349.38427734375 4302.1796875 5265.6552734375 6233.63916015625 7203.25830078125 8113.439453125 8089.6376953125 7253.09033203125 6415.6826171875 5631.5107421875 4924.07373046875 4330.67919921875 3906.389892578125 3709.83251953125 3776.294189453125 4093.17822265625 4609.46337890625 5266.8828125 6019.515625 6836.041015625 7696.001953125 8586.2822265625 9498.56640625 10427.009765625 11367.4765625 12317.3173828125 13274.6611328125 14159.580078125 14299.5185546875 13847.7265625 13412.052734375 13038.7099609375 12733.14453125 12500.2548828125 12344.216796875 12267.912109375 12266.8193359375 12197.0791015625 11936.5625 11447.3740234375 10745.7646484375 10002.154296875 9300.9951171875 8658.7646484375 8089.404296875 7609.4248046875 7236.640625 6988.06884765625 6876.2490234375 6897.75439453125 6945.5791015625 6370.390625 5441.30859375 4530.32470703125 3666.163330078125 2891.366455078125 2298.74169921875 2050.84521484375 2260.68212890625 2828.876708984375 3587.250244140625 4441.1337890625 5346.177734375 6280.173828125 7227.85546875 7819.8603515625 7593.423828125 7322.86767578125 7181.9287109375 7169.90283203125 7106.04931640625 6544.98876953125 5698.658203125 4877.203125 4135.26806640625 3523.69140625 3119.200927734375 3006.67724609375 3185.25537109375 3061.14501953125 2442.127197265625 1968.5223388671875 1816.4488525390625 1433.1026611328125 768.42437744140625 209.7282867431640625 206.780181884765625 564.753662109375 722.76104736328125 253.067230224609375 524.51739501953125 1174.8043212890625 756.34228515625 338.210235595703125 632.3468017578125 1389.2901611328125 1944.48876953125 2341.5322265625 2556.8955078125 1851.2679443359375 911.37469482421875 530.34393310546875 1119.28515625 973.484130859375 870.3106689453125 1410.8360595703125 2041.1334228515625 1865.4752197265625 1563.551513671875 1478.7022705078125 727.875244140625 346.754852294921875 1190.062744140625 2181.301513671875 2594.565185546875 1778.7408447265625 799.23077392578125 183.5359954833984375 245.7709808349609375 85.30944061279296875 127.74979400634765625 550.1676025390625 1188.3853759765625 1876.184814453125 2608.535400390625 3173.957275390625 2783.90380859375 2035.7659912109375 1416.626708984375 965.58984375 608.82696533203125 376.684661865234375 256.136566162109375 736.79901123046875 1562.2681884765625 2418.943115234375 3295.968994140625 4192.2177734375 4744.021484375 4438.6318359375 3748.09716796875 2828.84912109375 1926.2578125 1196.1280517578125 1038.3975830078125 999.85870361328125 562.57647705078125 259.548370361328125 903.800537109375 1778.090576171875 2647.817626953125 3540.927734375 4466.470703125 5412.220703125 6370.72314453125 7338.26025390625 8217.2275390625 8425.7626953125 8211.296875 8082.63916015625 nan 
nan 2423.00439453125 1543.5079345703125 717.94720458984375 361.4332275390625 485.78826904296875 1315.033447265625 2282.17529296875 3260.788818359375 4239.4296875 5215.13232421875 6188.4296875 7161.6669921875 8023.07470703125 7753.53857421875 6841.09375 5945.890625 5090.0263671875 4296.76953125 3604.438232421875 3082.458984375 2829.6708984375 2916.0869140625 3315.785400390625 3935.239013671875 4688.177734375 5520.33251953125 6400.90673828125 7312.26220703125 8244.1171875 9190.4501953125 10147.1416015625 11111.3330078125 12081.3369140625 13056.0166015625 14027.4873046875 14620.896484375 14450.8759765625 14154.546875 13858.58203125 13589.6640625 13373.8828125 13228.16796875 13155.4501953125 13073.361328125 12643.1591796875 11875.66015625 11031.583984375 10205.828125 9413.904296875 8665.2724609375 7971.99609375 7349.6435546875 6817.81787109375 6399.134765625 6116.67578125 5988.63623046875 6013.3671875 6182.017578125 6047.36376953125 5178.90380859375 4211.4326171875 3263.62890625 2359.708984375 1579.0347900390625 1195.09375 1520.9964599609375 2275.251953125 3167.318603515625 4109.57373046875 5074.2294921875 6050.42236328125 6979.22021484375 7163.1181640625 6762.16015625 6456.4560546875 6296.18408203125 6288.76611328125 6430.794921875 6557.15966796875 6174.283203125 5466.22119140625 4815.93115234375 4302.07861328125 3977.222412109375 3889.460693359375 4012.265625 3746.4833984375 3175.530517578125 2817.545654296875 2615.062744140625 2017.2403564453125 1254.32763671875 819.610107421875 862.62255859375 1103.3780517578125 720.88372802734375 211.4954986572265625 739.64630126953125 1001.8258056640625 480.51239013671875 377.983428955078125 632.3944091796875 1131.3880615234375 1201.8665771484375 1557.1885986328125 2071.18359375 1926.411865234375 1146.4444580078125 846.18865966796875 1062.282470703125 718.44842529296875 993.84075927734375 1792.2740478515625 2575.84619140625 2595.6064453125 2157.917236328125 1490.5526123046875 600.43511962890625 396.048370361328125 1283.871826171875 2270.112060546875 2742.718505859375 1983.3597412109375 1068.7159423828125 337.355438232421875 246.54693603515625 261.220703125 249.0834197998046875 209.7638702392578125 565.524658203125 1285.773193359375 2115.12841796875 2975.92919921875 3257.1103515625 2690.03564453125 2060.988037109375 1437.6453857421875 802.3079833984375 282.266143798828125 242.4694366455078125 362.578948974609375 1122.0831298828125 2025.32373046875 2968.259765625 3933.028564453125 4611.84765625 4136.31787109375 3409.939453125 2616.486572265625 1682.7784423828125 756.04986572265625 454.135589599609375 413.927337646484375 216.7352752685546875 289.983123779296875 1030.369140625 1992.2984619140625 2953.160888671875 3853.713134765625 4709.91015625 5588.0107421875 6490.00341796875 7376.7724609375 7864.1416015625 7614.994140625 7340.4716796875 7196.2802734375 nan 
nan 1890.0718994140625 1286.1302490234375 544.94268798828125 273.454620361328125 547.6068115234375 1223.12744140625 2126.521240234375 3080.3740234375 4050.60302734375 5030.29541015625 6016.2734375 7006.36328125 7849.8095703125 7480.7392578125 6525.173828125 5579.44091796875 4656.5986328125 3773.618408203125 2965.323486328125 2307.205322265625 1958.51708984375 2080.7734375 2610.7216796875 3362.62109375 4219.1455078125 5128.0966796875 6065.95458984375 7020.97216796875 7986.9169921875 8960.4755859375 9939.341796875 10921.9033203125 11907.3564453125 12894.947265625 13774.376953125 14027.228515625 13971.525390625 13957.880859375 13977.30859375 14006.33203125 14021.728515625 14017.353515625 13865.109375 13250.0380859375 12366.328125 11462.6494140625 10576.2705078125 9711.853515625 8875.953125 8077.60791015625 7328.94873046875 6646.66845703125 6053.43505859375 5577.740234375 5251.373046875 5101.71533203125 5130.7138671875 5340.31005859375 5584.94140625 5049.8330078125 4064.83984375 3071.906005859375 2085.857421875 1128.1846923828125 514.71844482421875 1032.544189453125 1978.777587890625 2961.88330078125 3953.60498046875 4948.8427734375 5945.28564453125 6692.83056640625 6433.54541015625 5947.25537109375 5597.29443359375 5411.693359375 5403.06396484375 5571.697265625 5904.65087890625 6242.546875 6077.45166015625 5556.017578125 5117.03369140625 4846.94482421875 4775.10791015625 4824.775390625 4450.9560546875 3935.3681640625 3526.78759765625 3097.89404296875 2478.298583984375 1946.2867431640625 1685.3065185546875 1700.6175537109375 1419.95556640625 542.7005615234375 260.20928955078125 692.63311767578125 622.756103515625 466.0521240234375 652.6949462890625 377.77398681640625 536.61407470703125 439.435211181640625 820.831787109375 1479.802978515625 2040.444580078125 1812.6910400390625 1558.1708984375 1108.995361328125 423.5638427734375 796.4586181640625 1753.9493408203125 2697.205810546875 2751.695556640625 1951.728759765625 1089.47265625 347.6951904296875 585.27593994140625 1465.75 2265.178955078125 2748.43408203125 2306.162353515625 1396.1343994140625 566.31927490234375 283.638092041015625 275.01702880859375 177.165771484375 239.5264892578125 233.818267822265625 834.67425537109375 1737.89013671875 2666.637939453125 3376.910400390625 2947.77978515625 2067.40625 1144.912841796875 463.90679931640625 555.8201904296875 496.6583251953125 199.26116943359375 841.6729736328125 1822.2183837890625 2813.68701171875 3806.800048828125 4300.79736328125 3605.4541015625 2808.454345703125 2165.20166015625 1633.7716064453125 957.892333984375 366.17681884765625 383.7467041015625 177.6505126953125 310.636474609375 1084.8643798828125 1978.37841796875 2801.76025390625 3590.634765625 4414.99462890625 5289.74072265625 6169.7529296875 6851.0712890625 7117.92724609375 6784.43994140625 6474.7109375 6310.7998046875 nan 
nan 1141.607177734375 718.8521728515625 350.351715087890625 443.4388427734375 409.0618896484375 1015.95947265625 1979.2086181640625 2967.913330078125 3962.523193359375 4959.2919921875 5957.048828125 6955.57568359375 7763.73291015625 7301.72265625 6318.607421875 5337.56201171875 4364.11181640625 3405.920166015625 2481.103759765625 1646.2835693359375 1119.27099609375 1318.1834716796875 2054.1630859375 2951.853271484375 3899.93212890625 4868.98486328125 5848.6162109375 6834.11572265625 7823.19140625 8814.8671875 9808.2861328125 10802.78125 11798.193359375 12762.2216796875 13236.552734375 13156.2314453125 13083.943359375 13085.8447265625 13162.052734375 13313.0419921875 13535.5986328125 13813.6064453125 13784.4638671875 12969.8466796875 12028.224609375 11096.8701171875 10178.67578125 9277.26953125 8398.2060546875 7549.48583984375 6742.42041015625 5993.73828125 5328.33251953125 4781.12548828125 4396.16015625 4216.36083984375 4251.38330078125 4502.0244140625 4921.60400390625 4943.37890625 4093.999755859375 3110.60205078125 2142.624755859375 1230.3255615234375 686.5784912109375 1136.77783203125 2034.6650390625 2999.381591796875 3981.729248046875 4971.3212890625 5945.517578125 6280.93115234375 5712.9931640625 5157.396484375 4749.7109375 4529.6171875 4519.30908203125 4719.53125 5110.62451171875 5652.42333984375 6200.19677734375 6267.2255859375 5952.95361328125 5708.572265625 5527.31396484375 5242.77099609375 4758.25634765625 4100.19091796875 3320.593994140625 2630.8623046875 2174.127685546875 2070.823974609375 2267.450927734375 2358.1787109375 1665.474365234375 743.86163330078125 308.479278564453125 398.41949462890625 330.8271484375 671.24365234375 685.1927490234375 565.666259765625 544.1864013671875 217.4892120361328125 297.488677978515625 1033.2530517578125 1751.1021728515625 1906.0750732421875 1538.2655029296875 1080.6839599609375 906.797119140625 1199.3302001953125 1967.6343994140625 2717.66552734375 2372.44580078125 1507.300537109375 657.3011474609375 300.505706787109375 942.82135009765625 1406.1939697265625 1689.677001953125 2264.77587890625 2509.969970703125 1833.8507080078125 1157.368408203125 730.93310546875 713.35772705078125 320.838592529296875 99.9513702392578125 149.181854248046875 547.7442626953125 1436.7928466796875 2327.130859375 3028.15576171875 2623.873291015625 1729.2579345703125 940.50775146484375 546.23480224609375 797.28680419921875 511.842132568359375 231.790374755859375 890.17083740234375 1854.7974853515625 2839.0322265625 3783.798095703125 4058.4716796875 3233.1875 2310.891845703125 1494.7142333984375 1054.394775390625 827.01171875 387.964202880859375 665.10223388671875 310.38006591796875 412.556884765625 885.00732421875 1516.24365234375 2266.5234375 3111.720947265625 4020.21630859375 4932.453125 5612.4443359375 6101.88623046875 6354.689453125 5971.08349609375 5616.74853515625 5427.0390625 nan 
nan 473.381683349609375 324.704193115234375 347.74761962890625 707.70526123046875 842.09002685546875 1353.585693359375 2182.84130859375 3107.38818359375 4067.627685546875 5037.63623046875 5997.037109375 6933.60693359375 7660.1171875 7168.44775390625 6181.4169921875 5193.12890625 4205.755859375 3219.73681640625 2237.165283203125 1270.6094970703125 512.878662109375 843.7032470703125 1786.095947265625 2772.558349609375 3766.254638671875 4762.67138671875 5760.4521484375 6758.84033203125 7757.5322265625 8756.654296875 9756.0078125 10755.341796875 11749.6240234375 12454.970703125 12428.369140625 12272.39453125 12194.8466796875 12196.8876953125 12278.611328125 12440.32421875 12679.1005859375 12990.6533203125 13245.1884765625 12702.859375 11747.798828125 10792.2607421875 9845.6845703125 8910.63671875 7991.31884765625 7094.05322265625 6228.2109375 5408.779296875 4660.59228515625 4023.67919921875 3557.9462890625 3333.479736328125 3377.62060546875 3685.823974609375 4168.84228515625 4637.4951171875 4280.578125 3378.8271484375 2516.830078125 1805.5318603515625 1476.794921875 1742.8787841796875 2425.6357421875 3276.740234375 4194.412109375 5143.05224609375 5972.90234375 5774.849609375 5044.74560546875 4405.74609375 3920.864990234375 3651.369140625 3638.586181640625 3884.27392578125 4350.9150390625 4977.33251953125 5710.82861328125 6435.5146484375 6601.666015625 6078.2392578125 5385.65185546875 4700.26220703125 4130.89404296875 3615.370361328125 2842.8828125 2000.9647216796875 1373.1444091796875 1316.260009765625 1884.3839111328125 2481.70703125 2011.9346923828125 1254.785400390625 848.65789794921875 535.9571533203125 186.2759246826171875 357.9566650390625 395.0174560546875 702.81317138671875 552.10260009765625 307.274261474609375 487.339385986328125 1031.68408203125 1117.828369140625 1230.7669677734375 1047.90771484375 504.193206787109375 966.511474609375 1531.10107421875 2144.189697265625 2653.451904296875 2004.119140625 1087.7921142578125 333.99371337890625 426.118896484375 903.9541015625 736.82989501953125 987.1475830078125 1809.64892578125 2601.76171875 2428.4130859375 1886.713134765625 1543.6021728515625 1427.0648193359375 1001.12603759765625 495.90289306640625 116.57867431640625 364.596771240234375 1069.3299560546875 1869.653076171875 2686.4482421875 2450.708251953125 1484.943115234375 618.717041015625 610.44970703125 678.25885009765625 248.873504638671875 538.012451171875 1287.321044921875 2097.963623046875 2844.340087890625 3401.25341796875 3609.234130859375 3006.548583984375 2062.1015625 1117.507568359375 473.261932373046875 773.28033447265625 720.7733154296875 690.9710693359375 299.6558837890625 252.1440582275390625 325.560211181640625 961.6893310546875 1857.2310791015625 2815.12744140625 3763.73583984375 4430.07470703125 4845.59033203125 5355.78857421875 5627.07568359375 5182.89208984375 4770.47900390625 4545.68896484375 nan 
nan 299.338836669921875 435.3140869140625 763.707275390625 553.12420654296875 761.28515625 1643.624755859375 2549.698486328125 3379.764404296875 4156.1259765625 4939.458984375 5743.83251953125 6579.255859375 7346.63232421875 7043.16259765625 6062.349609375 5070.55078125 4079.572509765625 3090.045654296875 2102.94775390625 1124.03955078125 398.633087158203125 879.00909423828125 1843.598388671875 2826.8046875 3814.143310546875 4804.048828125 5795.95849609375 6789.41064453125 7784.1962890625 8780.2822265625 9777.21875 10773.533203125 11638.6787109375 11792.654296875 11559.115234375 11389.4462890625 11305.84765625 11308.0478515625 11396.14453125 11570.19140625 11826.541015625 12159.96875 12543.0458984375 12392.080078125 11511.5068359375 10552.3544921875 9584.0546875 8620.6650390625 7666.625 6726.1416015625 5805.62548828125 4916.17236328125 4078.513916015625 3332.157958984375 2752.201904296875 2455.8173828125 2515.199462890625 2896.347900390625 3439.746826171875 4117.87548828125 4460.54541015625 3839.0625 3108.311767578125 2566.073486328125 2344.56640625 2522.19677734375 3034.95361328125 3750.04931640625 4573.53173828125 5414.662109375 5764.103515625 5257.0205078125 4454.64501953125 3715.530517578125 3125.62353515625 2780.61328125 2763.841796875 3079.643310546875 3650.35791015625 4378.1552734375 5197.55322265625 6068.5107421875 6445.37646484375 5701.89013671875 4847.57861328125 4060.489501953125 3387.955810546875 2902.533447265625 2452.82666015625 1625.012939453125 757.51806640625 670.33453369140625 1495.936767578125 2413.913818359375 2521.4775390625 1990.36767578125 1591.173828125 1005.14788818359375 655.41925048828125 330.243438720703125 335.354400634765625 905.97314453125 803.43780517578125 421.254425048828125 684.4483642578125 1126.078369140625 564.3682861328125 749.1888427734375 1068.6051025390625 627.78436279296875 699.059326171875 974.50103759765625 1749.488037109375 2424.0478515625 1831.411865234375 843.336669921875 273.085723876953125 408.05157470703125 716.94580078125 508.6749267578125 815.22369384765625 1719.693603515625 2517.6328125 2394.39453125 1999.0438232421875 1872.8155517578125 1846.99072265625 1662.183349609375 960.08203125 210.94757080078125 256.869659423828125 718.9173583984375 1590.15234375 2400.030517578125 2499.099853515625 1715.172119140625 1039.6331787109375 791.62158203125 304.928497314453125 199.5683746337890625 796.6090087890625 1633.6297607421875 2057.73876953125 2245.97998046875 2616.5810546875 2867.951171875 2648.7177734375 1788.5782470703125 955.53424072265625 598.67413330078125 1009.1470947265625 802.0926513671875 433.941375732421875 279.853363037109375 256.25506591796875 206.2088165283203125 818.36871337890625 1780.9549560546875 2737.844970703125 3364.046630859375 3646.062744140625 4067.36572265625 4655.96044921875 4951.68115234375 4433.2490234375 3943.42578125 3668.511962890625 nan 
nan 749.50714111328125 961.08502197265625 1111.1312255859375 832.47149658203125 996.87109375 1770.0235595703125 2478.14892578125 3025.69091796875 3660.29931640625 4425.20849609375 5269.4208984375 6159.7841796875 7025.40771484375 6940.52978515625 5977.1279296875 4980.03662109375 3983.758056640625 2988.79248046875 1995.719482421875 1008.7579345703125 341.32244873046875 953.39813232421875 1940.3966064453125 2933.3125 3926.51220703125 4919.26416015625 5911.32958984375 6902.43310546875 7892.57666015625 8882.44140625 9872.193359375 10775.482421875 11121.7802734375 10955.7333984375 10691.490234375 10507.830078125 10417.1630859375 10419.55078125 10515.08984375 10703.4638671875 10980.0576171875 11338.39453125 11768.9423828125 11901.4169921875 11165.6513671875 10279.64453125 9364.732421875 8410.1484375 7434.86669921875 6460.80615234375 5495.95703125 4546.197265625 3623.80419921875 2756.714599609375 2017.9129638671875 1592.5028076171875 1676.5528564453125 2140.215087890625 2795.21533203125 3605.087158203125 4407.48388671875 4398.50439453125 3817.0888671875 3389.730224609375 3224.809814453125 3356.5634765625 3757.568603515625 4355.6689453125 5057.78662109375 5399.99755859375 5077.29541015625 4662.65673828125 3969.334716796875 3127.78662109375 2397.55029296875 1927.75537109375 1903.6317138671875 2337.36181640625 3050.07177734375 3891.92626953125 4795.2724609375 5727.9716796875 6126.98779296875 5337.845703125 4413.50244140625 3530.78173828125 2730.68359375 2110.05615234375 1829.1572265625 1566.526611328125 894.90093994140625 825.530517578125 1577.669677734375 2511.36376953125 3084.91015625 2787.70166015625 2288.572998046875 1711.03955078125 1103.18115234375 369.31951904296875 148.775970458984375 792.76361083984375 880.2789306640625 425.769805908203125 825.52471923828125 1227.725341796875 867.1700439453125 1003.90875244140625 1354.5404052734375 717.2249755859375 383.23187255859375 721.1552734375 1617.04345703125 2362.224853515625 1808.670654296875 812.337158203125 339.730926513671875 885.1949462890625 1241.229736328125 1196.6343994140625 1379.82958984375 1971.0848388671875 2164.242431640625 1673.1336669921875 1224.6407470703125 1135.076171875 1240.1025390625 1554.3221435546875 986.74066162109375 285.307769775390625 302.494354248046875 619.08514404296875 1172.98974609375 1828.67626953125 2471.21240234375 2279.73486328125 1801.72705078125 1258.2864990234375 559.72991943359375 502.799041748046875 1251.4599609375 1641.10400390625 1331.9176025390625 1426.9134521484375 1789.7677001953125 2070.6953125 2239.827880859375 1467.9287109375 577.466796875 310.27386474609375 826.964599609375 1054.4993896484375 759.46087646484375 315.98089599609375 214.3392181396484375 255.4684906005859375 876.86358642578125 1782.4598388671875 2487.535888671875 2585.691650390625 2820.928466796875 3339.199462890625 4029.6572265625 4348.2099609375 3743.107666015625 3150.829345703125 2799.666259765625 nan 
nan 1358.359375 809.1485595703125 741.92205810546875 1316.64111328125 1599.2705078125 1663.4635009765625 1810.223876953125 2336.259033203125 3104.51171875 3975.5703125 4890.7431640625 5827.5556640625 6756.8232421875 6901.23046875 5998.30908203125 5007.0693359375 4019.1171875 3039.33984375 2079.16796875 1190.3519287109375 728.96209716796875 1225.500732421875 2111.260009765625 3063.293212890625 4037.111083984375 5020.89892578125 6009.71484375 7001.13916015625 7993.9873046875 8987.7294921875 9939.0517578125 10377.1005859375 10280.453125 10102.28125 9827.716796875 9627.603515625 9528.5703125 9531.181640625 9635.5263671875 9840.740234375 10140.8779296875 10527.8046875 10992.2578125 11337.3173828125 10760.1611328125 9866.224609375 8991.6298828125 8126.37939453125 7237.2802734375 6297.14208984375 5318.29345703125 4330.404296875 3348.865234375 2383.228759765625 1465.9964599609375 796.2679443359375 882.94769287109375 1480.55712890625 2318.09326171875 3249.560791015625 4209.25341796875 4851.6142578125 4586.45361328125 4233.89013671875 4093.18359375 4181.42529296875 4484.63427734375 4956.38720703125 5284.32177734375 4859.87939453125 4290.58642578125 3889.1650390625 3503.518798828125 2708.070556640625 1818.5791015625 1133.22412109375 1092.762939453125 1738.4375 2619.962158203125 3565.212890625 4534.29541015625 5511.45458984375 5925.56787109375 5104.76708984375 4128.4345703125 3166.96923828125 2239.96826171875 1418.839111328125 1007.39691162109375 1331.0999755859375 1537.02685546875 1577.3233642578125 2077.23388671875 2853.543212890625 3480.918701171875 3212.9033203125 2732.94775390625 2161.1591796875 1410.3826904296875 669.78497314453125 246.2762603759765625 544.41802978515625 542.044189453125 454.445709228515625 551.7666015625 963.79925537109375 1476.1177978515625 1719.2568359375 1625.9189453125 836.1925048828125 459.59490966796875 933.50299072265625 1792.678466796875 2427.71923828125 1769.5396728515625 778.49798583984375 351.9676513671875 1163.982666015625 1916.89013671875 2051.9619140625 2062.55078125 1847.1063232421875 1472.408447265625 999.1800537109375 463.14996337890625 429.3837890625 595.5189208984375 1173.38134765625 678.19635009765625 321.5262451171875 211.75909423828125 293.98095703125 600.0657958984375 1371.29345703125 2312.71337890625 2852.830078125 2456.932373046875 1621.544921875 702.8560791015625 490.838409423828125 1291.150390625 1360.2242431640625 630.66180419921875 645.53173828125 941.61724853515625 1345.62353515625 1943.142822265625 1484.8004150390625 657.86871337890625 446.83282470703125 858.58148193359375 1455.7686767578125 1006.50860595703125 331.45111083984375 163.4877777099609375 190.5896148681640625 712.26580810546875 1614.7486572265625 1859.9290771484375 1715.859130859375 2043.5125732421875 2702.906005859375 3518.338134765625 3851.719970703125 3143.24072265625 2423.366943359375 1949.8624267578125 nan 
nan 1622.1982421875 814.0777587890625 729.06304931640625 1482.8193359375 1579.6846923828125 966.45355224609375 1054.363037109375 1803.1466064453125 2710.552978515625 3656.8427734375 4621.34912109375 5597.6845703125 6518.47607421875 6613.83740234375 5979.830078125 5162.76171875 4242.2060546875 3329.608642578125 2484.8857421875 1808.3629150390625 1534.9310302734375 1838.2174072265625 2528.19873046875 3374.584228515625 4282.7314453125 5221.9501953125 6179.96435546875 7149.451171875 8126.23388671875 9095.25390625 9693.4482421875 9581.837890625 9399.5634765625 9246.7138671875 8969.26953125 8749.5615234375 8640.48046875 8643.3583984375 8758.2783203125 8983.5380859375 9311.3291015625 9731.2783203125 10231.955078125 10727.2470703125 10398.83984375 9485.8701171875 8574.474609375 7685.017578125 6825.4091796875 5993.2607421875 5153.216796875 4254.34814453125 3292.018798828125 2306.468505859375 1337.191162109375 535.82861328125 432.85650634765625 1155.906494140625 2125.086669921875 3115.123779296875 4109.99560546875 4996.73779296875 4965.056640625 4526.51123046875 4256.79150390625 4196.89892578125 4353.5751953125 4676.3935546875 4821.46875 4225.47216796875 3550.193603515625 3058.59423828125 2822.779541015625 2453.843994140625 1562.4437255859375 667.5074462890625 609.86956787109375 1472.9334716796875 2452.400634765625 3444.1669921875 4439.83740234375 5434.046875 5853.4443359375 5020.416015625 4023.60400390625 3028.88818359375 2039.6402587890625 1075.117919921875 474.777923583984375 1035.981689453125 1917.8316650390625 2394.322265625 2778.882568359375 3340.052490234375 3307.947998046875 2656.390380859375 2178.556396484375 1807.36083984375 1067.4906005859375 484.63726806640625 305.81085205078125 147.841949462890625 153.1714019775390625 245.913665771484375 225.1672515869140625 779.0250244140625 1655.255615234375 2211.491455078125 2006.8575439453125 1165.0560302734375 525.35552978515625 910.3736572265625 1833.82568359375 2420.016845703125 1696.671142578125 711.1943359375 349.718902587890625 1206.6456298828125 2188.583984375 2728.024169921875 2238.699951171875 1358.229248046875 707.59979248046875 467.456634521484375 274.2801513671875 350.692474365234375 742.0689697265625 1250.5511474609375 709.50384521484375 183.0091705322265625 257.766632080078125 560.06201171875 612.18865966796875 1347.6925048828125 2273.625732421875 3070.309326171875 2716.82275390625 1745.3416748046875 788.12860107421875 308.3408203125 909.58917236328125 1246.0230712890625 630.717041015625 287.28924560546875 324.597076416015625 904.913330078125 1761.336669921875 1871.509033203125 1312.2225341796875 1212.0638427734375 1511.5142822265625 1773.7613525390625 1076.8131103515625 380.812652587890625 195.0167694091796875 416.49359130859375 1032.40283203125 1622.5816650390625 1204.0059814453125 883.03619384765625 1390.9473876953125 2244.197021484375 3178.68017578125 3512.7314453125 2699.222412109375 1826.026123046875 1157.6971435546875 nan 
nan 2049.571533203125 1482.3946533203125 1433.180419921875 1840.0279541015625 1428.700927734375 546.44140625 624.5352783203125 1537.7203369140625 2518.724609375 3510.003662109375 4505.103515625 5501.79052734375 6242.890625 5938.00830078125 5397.0146484375 4946.916015625 4447.9931640625 3788.42041015625 3099.926513671875 2589.051025390625 2404.498779296875 2610.083251953125 3135.56201171875 3854.084228515625 4676.6875 5555.25048828125 6465.97412109375 7398.25244140625 8343.5341796875 9076.623046875 9021.3154296875 8720.7451171875 8518.9931640625 8385.7587890625 8117.2841796875 7874.0849609375 7752.70849609375 7755.91650390625 7883.767578125 8133.26123046875 8493.904296875 8952.259765625 9494.0927734375 10086.6455078125 10064.861328125 9176.31640625 8230.69140625 7299.4296875 6388.98828125 5509.9208984375 4679.46630859375 3914.78466796875 3195.784912109375 2459.44775390625 1711.0921630859375 1143.617431640625 934.32586669921875 1428.630126953125 2284.720947265625 3225.8837890625 4192.66015625 4827.4169921875 4407.67919921875 3836.404296875 3463.25537109375 3352.84423828125 3519.8857421875 3854.973876953125 4164.7626953125 3689.07763671875 2894.844482421875 2265.8369140625 1971.377197265625 2049.708984375 1720.672607421875 1043.638916015625 1010.70953369140625 1699.3822021484375 2598.3232421875 3549.97509765625 4522.3515625 5501.56005859375 5913.8388671875 5089.7529296875 4109.8447265625 3142.673583984375 2205.4228515625 1363.5369873046875 929.77777099609375 1332.888916015625 2166.217041015625 3011.564208984375 3545.242431640625 3644.08154296875 2913.343017578125 2049.302490234375 1384.388916015625 1196.765625 876.2154541015625 554.3756103515625 666.18328857421875 234.54510498046875 238.474609375 98.01061248779296875 192.750946044921875 727.26177978515625 1248.4591064453125 1680.76611328125 1971.3770751953125 1502.336669921875 990.189453125 1218.984375 1990.871337890625 2441.33935546875 1651.3321533203125 662.39605712890625 348.069183349609375 1222.7686767578125 2221.014892578125 2883.91162109375 2221.2568359375 1258.8875732421875 510.883544921875 457.39129638671875 494.6317138671875 690.6458740234375 1327.1954345703125 1715.9117431640625 1123.8284912109375 436.98541259765625 180.743865966796875 362.451385498046875 510.310089111328125 1200.5872802734375 2017.9971923828125 2878.90185546875 2894.1923828125 2026.782958984375 1157.7989501953125 424.418426513671875 431.606170654296875 1006.06268310546875 1165.574951171875 886.1470947265625 453.052215576171875 636.0782470703125 1534.517822265625 2251.18994140625 2119.345947265625 2071.940673828125 2314.994873046875 2267.23486328125 1569.944580078125 868.88330078125 263.5982666015625 315.329132080078125 1101.69287109375 1556.7540283203125 910.62646484375 442.045501708984375 1117.305908203125 2084.72412109375 3066.90087890625 3378.51416015625 2504.80859375 1525.85400390625 653.26220703125 nan 
nan 2707.255615234375 2307.26513671875 2274.443603515625 2330.94189453125 1621.700927734375 891.8277587890625 931.27008056640625 1689.4779052734375 2615.279541015625 3580.03662109375 4559.82958984375 5531.17041015625 5872.6494140625 5257.11376953125 4638.08251953125 4169.67333984375 3901.624755859375 3796.360595703125 3652.65478515625 3407.15185546875 3285.16796875 3437.694580078125 3847.750244140625 4443.43115234375 5158.5302734375 5948.314453125 6784.50537109375 7648.9482421875 8477.4599609375 8613.5185546875 8205.7021484375 7864.91064453125 7640.6181640625 7518.08154296875 7272.65283203125 7002.41748046875 6865.67041015625 6869.29150390625 7013.30224609375 7292.6025390625 7692.72412109375 8195.982421875 8784.5712890625 9440.755859375 9731.0341796875 8945.029296875 7971.99853515625 7006.400390625 6051.97998046875 5115.23291015625 4207.80712890625 3353.566162109375 2605.921875 2071.198974609375 1838.498291015625 1790.6864013671875 1763.606689453125 2079.9990234375 2738.6669921875 3543.060791015625 4342.28076171875 4481.03125 3770.3759765625 3094.25634765625 2619.0859375 2471.645263671875 2676.52001953125 3043.179443359375 3525.167236328125 3290.610107421875 2395.766357421875 1578.9886474609375 1121.4051513671875 1360.119140625 1847.40625 1803.7442626953125 1802.6011962890625 2266.9296875 3004.935791015625 3861.5947265625 4772.36376953125 5708.87646484375 6104.1171875 5308.8447265625 4378.36962890625 3486.743408203125 2673.46728515625 2035.525390625 1769.031005859375 2015.0477294921875 2641.91650390625 3448.3876953125 4113.05908203125 3664.281005859375 2687.495361328125 1710.7132568359375 808.43341064453125 491.816741943359375 905.9556884765625 1206.839599609375 1111.618896484375 527.16143798828125 483.202056884765625 316.566436767578125 196.3350830078125 211.5765228271484375 508.903045654296875 912.86285400390625 1402.5511474609375 1265.626220703125 607.997314453125 905.6651611328125 1807.326171875 2354.767578125 1617.429931640625 632.84564208984375 377.586181640625 1268.4136962890625 2261.93017578125 2895.4677734375 2387.613525390625 1665.669921875 1199.623046875 979.3507080078125 477.004302978515625 851.78082275390625 1591.0731201171875 2075.426513671875 1549.2484130859375 705.09588623046875 176.4418487548828125 408.87664794921875 315.164459228515625 779.2939453125 1722.0848388671875 2693.11865234375 3148.553466796875 2475.151611328125 1679.5162353515625 904.6707763671875 330.550323486328125 440.453857421875 1096.9337158203125 1183.08935546875 479.355560302734375 701.1820068359375 1599.86962890625 2530.04345703125 2923.369873046875 2942.640869140625 3135.44287109375 2872.106201171875 2130.082763671875 1324.6419677734375 556.06915283203125 290.540008544921875 656.0552978515625 1248.7198486328125 1254.4921875 974.30743408203125 1450.541748046875 2284.0029296875 3203.731689453125 3472.189208984375 2617.856689453125 1705.4664306640625 995.846923828125 nan 
nan 3469.91943359375 3167.52001953125 3125.706298828125 2862.65087890625 2148.015625 1662.3792724609375 1685.937744140625 2204.0751953125 2978.9912109375 3857.1484375 4781.326171875 5618.81884765625 5434.64892578125 4645.72509765625 3931.6220703125 3366.562744140625 3034.71240234375 3013.075927734375 3298.764892578125 3710.096923828125 3824.635986328125 3840.602783203125 4076.338134765625 4510.361328125 5095.13134765625 5787.2529296875 6554.38525390625 7374.31689453125 8079.88671875 7885.0986328125 7397.49755859375 7017.60595703125 6765.318359375 6643.9423828125 6434.90625 6136.04833984375 5979.55712890625 5983.7138671875 6148.46484375 6465.181640625 6913.31103515625 7469.240234375 8110.7265625 8819.23828125 9368.7509765625 8796.482421875 7806.81298828125 6817.83056640625 5832.58544921875 4853.58837890625 3885.35693359375 2938.48388671875 2043.8201904296875 1315.85205078125 1110.966552734375 1599.994140625 2281.103271484375 2759.6806640625 3094.122802734375 3463.99658203125 3924.841796875 4013.18994140625 3239.14501953125 2439.758056640625 1817.63427734375 1600.4378662109375 1844.316650390625 2278.762939453125 2937.21435546875 3055.82177734375 2164.9072265625 1199.2791748046875 480.003509521484375 781.9287109375 1670.1448974609375 2407.546142578125 2652.34912109375 2992.9951171875 3584.932373046875 4329.88037109375 5161.73291015625 6040.5048828125 6413.173828125 5661.04052734375 4799.4501953125 4002.90087890625 3318.724365234375 2829.638916015625 2643.39501953125 2814.89501953125 3293.358642578125 3970.94775390625 4425.0888671875 3716.45068359375 2741.237060546875 1794.1646728515625 954.42852783203125 509.217803955078125 943.84429931640625 1703.668701171875 1433.891357421875 659.42779541015625 420.82171630859375 290.6368408203125 336.30023193359375 354.27276611328125 144.2571868896484375 309.32647705078125 665.32440185546875 815.2593994140625 531.43719482421875 784.22332763671875 1526.60888671875 2146.89208984375 1575.0382080078125 598.09698486328125 419.28436279296875 1332.2015380859375 2293.1630859375 2517.529296875 1988.0052490234375 1699.4833984375 1716.585205078125 1482.8299560546875 923.1812744140625 690.9056396484375 1122.791748046875 1911.0181884765625 1747.5703125 839.69219970703125 180.3751068115234375 258.66009521484375 285.795684814453125 657.6832275390625 1564.032470703125 2511.031005859375 3295.53369140625 3007.258544921875 2235.523193359375 1509.8746337890625 869.52435302734375 316.015777587890625 618.3218994140625 1091.1116943359375 1004.54132080078125 1248.755859375 1928.6494140625 2648.71630859375 3149.932861328125 3408.975830078125 3556.3623046875 3310.409423828125 2610.62255859375 1749.197265625 888.57135009765625 311.81719970703125 317.609375 1106.7886962890625 1721.0047607421875 1799.1480712890625 2119.53955078125 2767.22705078125 3563.67041015625 3778.042724609375 3003.46240234375 2253.653564453125 1775.0714111328125 nan 
nan 4282.0791015625 4040.83447265625 3941.80126953125 3464.501953125 2859.788818359375 2514.09130859375 2529.867919921875 2902.2138671875 3527.685791015625 4297.49658203125 5145.08837890625 5665.27587890625 5023.50341796875 4136.5986328125 3314.455322265625 2619.710205078125 2177.923583984375 2147.8251953125 2543.6533203125 3143.801025390625 3218.701416015625 3130.003173828125 3343.313232421875 3815.2353515625 4464.80810546875 5226.3818359375 6057.90673828125 6933.89111328125 7543.17431640625 7153.380859375 6610.2060546875 6182.18017578125 5894.30126953125 5764.12744140625 5603.048828125 5277.421875 5094.68896484375 5099.5654296875 5291.8486328125 5656.64892578125 6163.78369140625 6781.40869140625 7482.09423828125 8244.8212890625 8972.443359375 8719.3896484375 7741.1416015625 6742.521484375 5744.35009765625 4747.1455078125 3751.44140625 2758.729248046875 1774.989990234375 844.9759521484375 517.472412109375 1246.69677734375 2126.038818359375 2564.876220703125 2492.710205078125 2696.916015625 3211.729248046875 3587.410888671875 2886.625732421875 1953.9903564453125 1129.5572509765625 767.39080810546875 1041.2113037109375 1630.6630859375 2466.416015625 2954.458984375 2282.138427734375 1397.2593994140625 760.93145751953125 935.42022705078125 1750.397216796875 2684.87939453125 3405.864013671875 3788.306884765625 4272.59765625 4914.4130859375 5661.30322265625 6474.0048828125 6824.0078125 6123.45654296875 5337.10595703125 4633.953125 4057.523193359375 3667.94091796875 3525.9599609375 3656.5595703125 4036.7939453125 4601.67822265625 4770.98046875 3959.131103515625 3062.4677734375 2254.150634765625 1629.529541015625 1292.4625244140625 1511.54345703125 2106.171875 1900.5789794921875 1345.638916015625 933.29510498046875 394.057952880859375 275.27642822265625 318.8568115234375 179.4155426025390625 169.0631103515625 235.1370697021484375 296.05706787109375 206.059173583984375 355.326141357421875 1091.5355224609375 1849.2645263671875 1535.0543212890625 575.9814453125 450.468963623046875 1371.3170166015625 2092.3984375 1995.543212890625 1278.482177734375 916.55999755859375 1275.2384033203125 1682.0286865234375 1131.7396240234375 534.4178466796875 974.53326416015625 1881.1612548828125 1982.72705078125 1111.942626953125 417.675445556640625 179.51739501953125 155.0396728515625 449.601837158203125 1335.60205078125 2311.646484375 3258.645751953125 3471.280029296875 2834.701904296875 2173.411376953125 1430.23388671875 656.96746826171875 279.962799072265625 560.27459716796875 965.60528564453125 1302.0335693359375 1697.279296875 2070.412841796875 2426.723388671875 2749.4404296875 2867.9208984375 2897.14013671875 2792.20751953125 2181.968994140625 1440.2174072265625 656.50103759765625 267.99591064453125 777.90826416015625 1499.646240234375 2097.283203125 2614.630859375 3277.8701171875 4027.7333984375 4188.76025390625 3536.502197265625 2957.47900390625 2622.97216796875 nan 
nan 5120.07666015625 4918.76611328125 4706.140625 4144.8720703125 3650.11328125 3385.563232421875 3397.327880859375 3683.482421875 4194.220703125 4859.61279296875 5595.6748046875 5626.96337890625 4728.083984375 3771.690185546875 2845.656005859375 1993.3465576171875 1364.44921875 1316.6968994140625 1892.3004150390625 2537.955810546875 2383.92724609375 2253.19873046875 2540.4072265625 3135.178955078125 3899.726318359375 4752.81884765625 5654.49951171875 6580.2880859375 7019.29736328125 6459.75732421875 5852.5595703125 5364.49853515625 5030.13916015625 4880.5869140625 4775.79248046875 4431.3759765625 4212.22802734375 4218.12060546875 4448.53955078125 4876.701171875 5456.736328125 6145.81201171875 6911.2470703125 7730.5205078125 8544.046875 8545.9599609375 7728.470703125 6780.5947265625 5793.298828125 4806.291015625 3826.067626953125 2859.528564453125 1928.3143310546875 1127.5352783203125 827.45556640625 1097.796875 1602.53955078125 1814.060546875 1622.1795654296875 1918.425537109375 2592.557373046875 3253.2421875 2777.179443359375 1792.583740234375 837.8416748046875 322.9271240234375 495.728912353515625 1260.244873046875 2062.0380859375 2557.82373046875 2355.24609375 1905.291259765625 1559.8399658203125 1647.77099609375 2216.2275390625 3019.089111328125 3894.29736328125 4562.93408203125 5008.3349609375 5541.4052734375 6173.26806640625 6870.28466796875 7242.67724609375 6672.02294921875 5959.66357421875 5339.11572265625 4847.17236328125 4525.8291015625 4408.70703125 4497.2265625 4765.11865234375 5154.421875 5135.689453125 4372.611328125 3581.46728515625 2909.052734375 2383.160888671875 2037.071044921875 2020.0806884765625 2319.710693359375 2435.82080078125 2130.52490234375 1610.3551025390625 1069.557373046875 684.295654296875 503.17828369140625 732.9503173828125 839.56707763671875 806.22625732421875 746.2052001953125 524.9156494140625 399.392486572265625 705.0321044921875 1356.803955078125 1362.7908935546875 596.12005615234375 406.2742919921875 1200.0430908203125 1406.832763671875 1479.926513671875 904.84765625 345.45184326171875 806.7501220703125 1155.8228759765625 811.9371337890625 764.71002197265625 1387.122314453125 2188.53515625 2326.885498046875 1614.0458984375 955.16748046875 351.73687744140625 145.310699462890625 331.879791259765625 1205.2452392578125 2157.118896484375 2952.3720703125 3310.416259765625 3261.929931640625 2736.346435546875 1966.0682373046875 1301.734130859375 704.27740478515625 308.401092529296875 317.016510009765625 549.98126220703125 889.7518310546875 1241.7147216796875 1596.9210205078125 1888.492431640625 1981.3385009765625 2036.98046875 2273.534912109375 2430.99853515625 1880.6729736328125 1081.0235595703125 432.091888427734375 322.972991943359375 927.487548828125 1504.479736328125 2256.819580078125 3136.24560546875 3993.4248046875 3976.596923828125 3432.064697265625 3077.988525390625 2980.551025390625 nan 
nan 5963.58740234375 5785.55224609375 5436.80810546875 4889.90234375 4478 4264.8984375 4274.2548828125 4505.2607421875 4931.78369140625 5508.8447265625 6044.44921875 5576.81884765625 4588.482421875 3594.9970703125 2606.570556640625 1632.9891357421875 758.40155029296875 677.9508056640625 1506.4775390625 2056.586181640625 1595.5513916015625 1394.0035400390625 1819.2193603515625 2585.42919921875 3473.44677734375 4409.966796875 5369.4755859375 6317.677734375 6520.0625 5819.62158203125 5137.34326171875 4573.69091796875 4176.67138671875 3995.9580078125 3950.235107421875 3606.09912109375 3333.65576171875 3341.089111328125 3627.376220703125 4141.11865234375 4810.6162109375 5580.072265625 6413.4208984375 7288.900390625 8102.17041015625 7988.66357421875 7335.46923828125 6672.67578125 5906.57373046875 5019.43505859375 4097.80712890625 3214.392822265625 2418.356201171875 1726.75341796875 1011.3197021484375 543.02996826171875 1084.353515625 1180.9747314453125 802.4073486328125 1290.716796875 2169.955322265625 3048.567138671875 2910.40673828125 2013.9366455078125 1225.31494140625 855.9835205078125 825.02008056640625 1069.92724609375 1409.1544189453125 1848.2418212890625 1676.7650146484375 1719.4139404296875 2072.926025390625 2428.02099609375 2887.14599609375 3533.488525390625 4252.99609375 4837.30224609375 5115.20263671875 5449.818359375 5920.12744140625 6501.677734375 7117.2939453125 7195.4052734375 6632.99462890625 6051.54248046875 5551.68408203125 5139.505859375 4824.47021484375 4633.74609375 4600.00927734375 4737.875 4980.30322265625 4811.26220703125 4105.06298828125 3312.410888671875 2517.97509765625 1822.2391357421875 1458.9759521484375 1676.807373046875 2313.087158203125 2690.676025390625 2324.52978515625 1871.88330078125 1502.5146484375 1337.10595703125 1534.312744140625 1544.215576171875 1214.854736328125 937.8502197265625 468.847503662109375 340.65887451171875 323.911712646484375 796.14215087890625 806.71807861328125 588.4237060546875 348.646484375 900.2896728515625 634.90325927734375 891.70208740234375 880.12408447265625 720.8358154296875 664.70318603515625 532.649658203125 534.22265625 685.00433349609375 1570.921875 2511.857177734375 2817.76904296875 2141.811279296875 1274.027587890625 533.572998046875 314.904388427734375 236.9393157958984375 970.1346435546875 1735.2113037109375 2249.16796875 2501.175048828125 2845.082275390625 3066.60107421875 2611.373779296875 2007.3216552734375 1414.477783203125 956.298095703125 617.40399169921875 353.689056396484375 286.4957275390625 455.6578369140625 768.0533447265625 1019.23486328125 1095.5074462890625 1164.643798828125 1473.946533203125 2003.3924560546875 2212.021728515625 1581.0943603515625 704.9580078125 186.0847015380859375 341.497039794921875 987.12677001953125 1922.9490966796875 2899.75830078125 3697.072265625 3360.1533203125 2696.2890625 2288.142333984375 2249.484130859375 nan 
nan 6192.51904296875 6205.3603515625 6011.4169921875 5646.15478515625 5297.8642578125 5097.5498046875 5075.732421875 5231.626953125 5551.78955078125 6009.62890625 6310.35986328125 5606.94677734375 4616.67626953125 3630.946533203125 2656.020263671875 1711.0491943359375 908.1546630859375 838.33953857421875 1578.13134765625 1793.0452880859375 993.88043212890625 648.3310546875 1315.9595947265625 2254.89306640625 3228.397216796875 4211.5380859375 5198.63232421875 6122.6953125 6064.75830078125 5252.89208984375 4485.20166015625 3826.767822265625 3342.47998046875 3114.044921875 3126.624755859375 2817.19873046875 2463.6484375 2473.66796875 2847.85498046875 3478.442138671875 4253.576171875 5107.7275390625 6007.03271484375 6934.0634765625 7700.67724609375 7377.04345703125 6667.42431640625 6038.392578125 5506.80615234375 5014.75048828125 4431.95361328125 3722.005859375 2914.9736328125 2010.8043212890625 1108.2705078125 639.4581298828125 1120.0421142578125 1002.688232421875 494.736480712890625 1102.9698486328125 2063.8720703125 3028.499755859375 3221.76123046875 2464.472900390625 1779.4805908203125 1388.635986328125 1125.9163818359375 555.02349853515625 773.5626220703125 1260.0074462890625 880.144287109375 1008.2852783203125 1787.228759765625 2670.521484375 3345.018798828125 3680.17138671875 3921.121337890625 4152.43115234375 4319.666015625 4669.04541015625 5190.42919921875 5837.953125 6566.85107421875 7128.76025390625 6864.48095703125 6104.69091796875 5367.05908203125 4705.5615234375 4174.15478515625 3834.240966796875 3733.818115234375 3882.267578125 4263.56591796875 4659.3662109375 4126.2763671875 3148.366943359375 2179.845947265625 1264.0838623046875 672.8458251953125 1053.7545166015625 1865.87060546875 2404.23974609375 2729.703857421875 2643.626708984375 2339.149658203125 2216.32568359375 2167.05908203125 1524.6163330078125 704.70892333984375 531.1600341796875 589.92706298828125 355.41961669921875 281.80133056640625 448.8770751953125 225.16668701171875 253.6024017333984375 368.388885498046875 696.27294921875 391.24371337890625 323.473663330078125 480.859283447265625 1005.54052734375 576.93365478515625 489.944366455078125 733.7191162109375 922.41082763671875 1676.72509765625 2586.050537109375 2899.513916015625 2104.648681640625 1218.7906494140625 527.24114990234375 533.12286376953125 214.121795654296875 497.936981201171875 1054.43505859375 1473.6990966796875 1656.002685546875 2146.17919921875 2827.75537109375 3139.666748046875 2712.418701171875 2176.50927734375 1782.7257080078125 1436.8668212890625 1078.482421875 723.71868896484375 419.202423095703125 282.234161376953125 302.171661376953125 329.2987060546875 380.143035888671875 724.37969970703125 1387.8267822265625 2056.4609375 1818.2015380859375 908.00030517578125 205.8701171875 260.0721435546875 936.55780029296875 1892.9930419921875 2861.81787109375 3432.752685546875 2858.8583984375 2037.97314453125 1458.12451171875 1389.569091796875 nan 
nan 5403.73583984375 5510.70068359375 5602.849609375 5683.60400390625 5367.68505859375 5035.50537109375 4879.93896484375 4911.93505859375 5131.98779296875 5524.43359375 5961.8232421875 5679.86181640625 4808.99951171875 3874.789794921875 2981.091064453125 2182.559814453125 1627.582275390625 1587.418701171875 2036.8834228515625 1839.775634765625 904.295654296875 437.566680908203125 1161.64794921875 2141.56494140625 3133.163818359375 4128.357421875 5125.4697265625 5988.22314453125 5683.82177734375 4785.5283203125 3927.41064453125 3154.60595703125 2545.978515625 2238.60791015625 2313.7890625 2097.41845703125 1615.6087646484375 1630.703125 2154.825439453125 2938.1259765625 3824.5966796875 4756.56494140625 5711.5224609375 6679.537109375 7342.9462890625 6818.8955078125 6042.15869140625 5340.12646484375 4746.28076171875 4305.53076171875 4052.935546875 3846.406494140625 3229.519287109375 2389.637451171875 1695.7042236328125 1421.239990234375 1673.844970703125 1454.5064697265625 1124.447265625 1517.4912109375 2311.736328125 3203.060546875 3359.548828125 2485.2255859375 1571.90625 862.67919921875 823.75750732421875 666.56243896484375 704.05938720703125 717.8443603515625 499.30218505859375 720.78216552734375 1600.7615966796875 2323.006591796875 2817.64990234375 2927.381591796875 3082.676025390625 3281.640380859375 3469.3935546875 3895.522216796875 4507.17236328125 5238.53564453125 5950.47216796875 6429.65185546875 6419.42431640625 5626.76806640625 4794.68408203125 4038.433837890625 3405.94580078125 2980.127685546875 2849.983642578125 3041.583251953125 3515.238525390625 4141.62353515625 4060.30419921875 3123.391845703125 2143.540771484375 1200.648193359375 573.595458984375 929.80865478515625 1315.073974609375 1671.50830078125 2331.10888671875 2622.026123046875 2742.977783203125 2900.949462890625 2454.43115234375 1559.5357666015625 751.124755859375 369.193267822265625 660.7679443359375 708.3890380859375 301.04754638671875 141.4148406982421875 66.8250732421875 93.42865753173828125 181.08837890625 279.34246826171875 353.416046142578125 458.883209228515625 793.93658447265625 1215.4306640625 938.564697265625 881.522216796875 510.353546142578125 589.744140625 1483.3072509765625 2421.26171875 2576.490234375 1798.1727294921875 922.7918701171875 362.8260498046875 597.24755859375 496.214202880859375 165.0554351806640625 397.10198974609375 772.359130859375 878.38909912109375 1520.0113525390625 2294.6669921875 3081.158935546875 3145.095703125 2780.599853515625 2532.4228515625 2187.780517578125 1800.954833984375 1495.1285400390625 1188.0880126953125 880.06195068359375 681.2904052734375 628.49786376953125 492.615509033203125 296.288665771484375 812.87811279296875 1553.2388916015625 1809.5997314453125 1111.2950439453125 325.5601806640625 364.746917724609375 1030.4854736328125 1945.3028564453125 2676.484619140625 2826.574462890625 2454.2607421875 1612.7921142578125 775.1846923828125 612.3621826171875 nan 
nan 4520.06982421875 4628.14501953125 4734.5458984375 4919.1533203125 4624.5537109375 4211.8515625 4008.810546875 4038.451416015625 4298.9443359375 4759.13818359375 5241.04736328125 5260.42919921875 4969.71826171875 4285.216796875 3507.80712890625 2860.375732421875 2461.766357421875 2435.115234375 2634.933349609375 2099.20751953125 1289.16943359375 956.748046875 1452.6043701171875 2307.9541015625 3247.9609375 4215.84375 5173.33447265625 5845.955078125 5402.06640625 4449.1650390625 3509.518798828125 2615.675537109375 1836.46484375 1382.9249267578125 1542.0576171875 1537.5186767578125 861.08074951171875 887.48699951171875 1660.8040771484375 2598.264892578125 3570.472412109375 4554.8837890625 5539.4228515625 6465.48974609375 6964.60302734375 6335.28466796875 5490.46630859375 4706.830078125 4020.56884765625 3489.70166015625 3192.093017578125 3188.045166015625 3291.315673828125 2957.969482421875 2436.84619140625 2162.783447265625 2176.822509765625 2076.8134765625 1967.747314453125 2212.90283203125 2724.430908203125 3283.3271484375 3287.532958984375 2403.578369140625 1430.072265625 601.99578857421875 704.7523193359375 1254.5001220703125 1003.610595703125 522.46795654296875 871.9638671875 1108.93115234375 1340.73974609375 1623.1435546875 2060.968994140625 2050.54931640625 2244.502685546875 2410.843505859375 2645.309814453125 3183.26611328125 3907.912109375 4685.9384765625 5214.7763671875 5655.23876953125 5900.38037109375 5228.29248046875 4324.6689453125 3468.77783203125 2711.352294921875 2155.11279296875 1972.095458984375 2239.12353515625 2848.944580078125 3633.90869140625 4060.946533203125 3344.77001953125 2455.49072265625 1696.418701171875 1268.46044921875 958.814697265625 596.68206787109375 1111.10791015625 1753.14990234375 1803.1995849609375 2141.902587890625 2679.63037109375 2270.876953125 1425.6168212890625 901.9827880859375 939.0162353515625 1166.5679931640625 1039.2086181640625 521.357421875 226.5226287841796875 436.023681640625 382.472900390625 215.2646484375 483.05712890625 262.290557861328125 405.83331298828125 691.3448486328125 942.91363525390625 998.53448486328125 1260.4669189453125 838.279052734375 843.677001953125 1586.0211181640625 2114.912109375 2059.4453125 1348.7083740234375 760.88201904296875 539.00823974609375 293.507659912109375 463.811004638671875 312.646209716796875 130.973480224609375 395.092010498046875 358.497711181640625 996.33929443359375 1896.6134033203125 2705.027587890625 2599.271728515625 2300.3291015625 2353.7060546875 2086.461181640625 1533.8966064453125 1449.8197021484375 1706.3226318359375 1713.3182373046875 1556.6015625 1502.3812255859375 1190.1888427734375 508.599884033203125 351.744903564453125 901.914794921875 1200.565185546875 990.80706787109375 460.68341064453125 191.1218414306640625 788.519775390625 1677.5859375 2002.965087890625 1978.09326171875 1817.9195556640625 1344.200439453125 531.94366455078125 414.836212158203125 nan 
nan 3638.87890625 3746.5302734375 3866.21923828125 4128.2060546875 3880.883544921875 3384.444091796875 3128.478515625 3166.317626953125 3492.144287109375 4042.844482421875 4461.44775390625 4406.5751953125 4464.2041015625 4495.8583984375 4081.3154296875 3584.78955078125 3301.18359375 3292.283203125 3247.6484375 2593.280029296875 1993.6214599609375 1791.776123046875 2103.40576171875 2759.886474609375 3562.34423828125 4382.6884765625 4938.20263671875 5263.5126953125 5160.515625 4274.92529296875 3285.641357421875 2306.076904296875 1358.59326171875 654.4793701171875 947.0203857421875 1334.1783447265625 678.7838134765625 703.96917724609375 1564.8846435546875 2538.2109375 3525.7412109375 4476.77099609375 5279.75732421875 5958.07861328125 6469.3916015625 5944.970703125 5036.60205078125 4168.3916015625 3374.289794921875 2720.38818359375 2327.277099609375 2328.35791015625 2719.99072265625 3084.287353515625 2567.957763671875 1920.4443359375 1627.1656494140625 1857.951171875 2287.889892578125 2380.8486328125 2370.558349609375 2649.16357421875 3042.994384765625 2555.321044921875 1631.142333984375 864.55413818359375 832.29937744140625 1311.2568359375 1126.0257568359375 1005.99493408203125 1149.909912109375 986.398681640625 607.084716796875 958.7862548828125 1381.35498046875 1191.2109375 1447.9505615234375 1547.7203369140625 1881.577880859375 2583.306640625 3419.508056640625 4037.38671875 4407.931640625 4903.13232421875 5203.291015625 4855.6767578125 3999.516357421875 3054.488037109375 2158.712158203125 1407.881591796875 1115.8115234375 1535.0506591796875 2336.430419921875 3251.019775390625 4050.412353515625 3761.947265625 3006.0625 2389.824951171875 1797.87548828125 973.36334228515625 530.109619140625 1055.86279296875 1184.10400390625 969.6473388671875 1503.12109375 2284.28515625 2063.80908203125 1113.214111328125 485.469329833984375 1005.44677734375 1320.98876953125 628.42401123046875 263.01361083984375 558.95355224609375 1097.7337646484375 874.88348388671875 270.938720703125 403.922271728515625 364.455780029296875 329.6075439453125 214.712738037109375 408.283172607421875 546.1209716796875 1212.373779296875 1423.23486328125 1460.556396484375 1601.0177001953125 1374.037109375 1398.2794189453125 1028.1212158203125 469.408721923828125 861.42059326171875 710.071044921875 302.453277587890625 333.872650146484375 129.7262115478515625 388.35711669921875 448.745758056640625 771.058349609375 1611.4404296875 2285.47705078125 1882.937744140625 1443.179931640625 1594.6572265625 1590.9024658203125 844.791015625 717.6986083984375 1401.100830078125 2143.68994140625 2409.873779296875 2334.660400390625 1798.576171875 1036.6092529296875 401.894561767578125 298.719512939453125 400.280059814453125 347.558380126953125 287.037445068359375 246.3238983154296875 458.471435546875 1124.9183349609375 1181.7198486328125 1119.1051025390625 1040.929443359375 779.4110107421875 409.413543701171875 363.571380615234375 nan 
nan 2761.85498046875 2866.91259765625 3009.084716796875 3370.3271484375 3205.97802734375 2598.282470703125 2255.702392578125 2307.713134765625 2736.933349609375 3394.8056640625 3669.396240234375 3522.1826171875 3610.44287109375 3919.619384765625 3843.046142578125 3496.764892578125 3384.0693359375 3514.10498046875 3387.138916015625 2838.974853515625 2472.9306640625 2429.93408203125 2605.47314453125 2930.86474609375 3450.697021484375 3958.474609375 4151.95166015625 4456.80224609375 4788.3583984375 4272.65283203125 3295.904541015625 2320.70654296875 1383.315185546875 699.2437744140625 983.86834716796875 1589.7440185546875 1297.670654296875 1283.981689453125 1856.061767578125 2660.91943359375 3476.261474609375 4075.7939453125 4643.541015625 5317.50341796875 5980.2177734375 5660.099609375 4708.9296875 3765.72412109375 2861.671142578125 2050.168212890625 1492.298095703125 1493.9627685546875 2053.942138671875 2672.61279296875 2179.835693359375 1300.7845458984375 803.89373779296875 1178.8653564453125 1641.552001953125 1630.9482421875 1516.61865234375 1906.691162109375 2601.364990234375 2558.3720703125 1626.230712890625 720.796630859375 581.64434814453125 892.88763427734375 555.151611328125 712.76324462890625 585.70147705078125 718.962158203125 400.208953857421875 833.559814453125 982.59912109375 515.77862548828125 825.00018310546875 745.14324951171875 1289.1312255859375 2186.26220703125 2932.445556640625 3231.21728515625 3622.55712890625 4188.5517578125 4374.908203125 4242.18505859375 3798.853515625 2865.95458984375 1882.2095947265625 940.53033447265625 484.896575927734375 1133.8074951171875 2094.89892578125 3082.338134765625 4044.54833984375 4203.9609375 3431.26318359375 2583.340576171875 1741.123046875 1082.5723876953125 1023.53955078125 1364.8131103515625 861.34454345703125 491.92340087890625 1229.3453369140625 2162.627685546875 2199.390380859375 1390.287841796875 930.6600341796875 1262.8094482421875 1120.3489990234375 349.57373046875 613.37835693359375 1265.0443115234375 1549.5648193359375 975.19171142578125 343.960235595703125 299.1083984375 711.98260498046875 572.36602783203125 271.967315673828125 354.2647705078125 438.087371826171875 741.91998291015625 1089.79345703125 1165.821044921875 1157.6883544921875 615.5284423828125 628.94525146484375 848.8966064453125 838.8388671875 1013.56561279296875 1119.227783203125 664.46063232421875 311.014495849609375 102.89446258544921875 282.33697509765625 546.2557373046875 507.284423828125 1304.4384765625 1910.0557861328125 1344.853271484375 676.63140869140625 970.579833984375 1415.58642578125 712.9058837890625 324.716796875 1090.2869873046875 2059.212646484375 2893.76025390625 2855.873779296875 2049.74951171875 1257.5562744140625 769.28155517578125 434.66375732421875 300.4500732421875 472.7464599609375 772.5374755859375 672.87652587890625 220.450927734375 465.325469970703125 420.758087158203125 349.946685791015625 379.29827880859375 348.56695556640625 299.704132080078125 340.486968994140625 nan 
nan 1894.9996337890625 1993.185302734375 2175.951416015625 2677.6435546875 2650.839599609375 1905.001708984375 1405.5341796875 1486.58984375 2089.207275390625 2820.056884765625 2873.7353515625 2641.942138671875 2758.236083984375 3157.853759765625 3089.87109375 2669.87890625 2556.05908203125 2782.12548828125 2780.10009765625 2196.80322265625 1847.5 1931.4862060546875 2026.054931640625 2232.52978515625 2780.30810546875 3152.776123046875 3289.607666015625 3663.46044921875 4221.49267578125 4340.06640625 3538.198974609375 2654.119140625 1890.8631591796875 1453.9254150390625 1618.9693603515625 2000.111083984375 1603.44482421875 1297.7005615234375 1611.019287109375 2307.436767578125 2870.663818359375 3340.071044921875 3983.859130859375 4746.41650390625 5541.7236328125 5484.36962890625 4534.89892578125 3545.52001953125 2564.554443359375 1608.5286865234375 793.78631591796875 796.68939208984375 1613.34521484375 2430.798095703125 2071.81005859375 1115.9886474609375 474.493408203125 810.864990234375 866.2501220703125 882.72088623046875 727.463623046875 1353.6126708984375 2258.907958984375 2604.54931640625 1906.789794921875 1216.26123046875 1104.6881103515625 1043.1971435546875 637.130859375 660.2540283203125 485.700653076171875 1023.02215576171875 1116.4520263671875 1303.8741455078125 1091.3021240234375 485.598114013671875 641.60260009765625 523.5928955078125 1159.023193359375 1994.1810302734375 2228.388916015625 2394.328857421875 2898.110595703125 3521.953369140625 3532.392578125 3396.225830078125 3425.2421875 2922.86279296875 2004.3489990234375 1164.945556640625 825.049072265625 1344.0921630859375 2215.954833984375 3165.693359375 4121.6484375 4293.79638671875 3378.328857421875 2388.91064453125 1415.9736328125 588.8853759765625 669.88018798828125 1382.983154296875 1217.8233642578125 982.078125 1523.299560546875 2365.991943359375 2623.039794921875 2051.06640625 1760.11767578125 1671.7716064453125 947.4453125 284.541717529296875 892.06427001953125 1702.6107177734375 1507.8292236328125 638.24755859375 151.8252716064453125 355.183868408203125 1058.406005859375 1092.6986083984375 613.2193603515625 293.82958984375 341.45391845703125 233.2922515869140625 411.017578125 560.28564453125 859.5643310546875 425.481231689453125 261.782928466796875 327.932373046875 573.5653076171875 512.07061767578125 1061.8511962890625 1298.0550537109375 790.23028564453125 257.260467529296875 224.320587158203125 473.8013916015625 293.119720458984375 854.6097412109375 1466.598388671875 1193.05126953125 509.417388916015625 898.5003662109375 1508.330078125 886.3033447265625 289.51507568359375 933.3524169921875 1914.7222900390625 2857.519775390625 2813.648681640625 1860.442138671875 911.241943359375 452.460357666015625 518.69964599609375 469.928131103515625 505.67669677734375 625.44476318359375 1002.26824951171875 567.64544677734375 313.10699462890625 251.707000732421875 188.2422332763671875 181.380279541015625 575.7969970703125 853.8294677734375 932.1763916015625 nan 
nan 1064.70263671875 1140.076904296875 1408.696533203125 2118.647216796875 2299.480712890625 1445.526611328125 685.08837890625 827.048583984375 1607.57861328125 2182.700439453125 2101.151611328125 1771.7237548828125 1939.793212890625 2480.077880859375 2413.056640625 1850.49072265625 1683.4888916015625 2019.291748046875 2225.278076171875 1532.8978271484375 1008.34942626953125 1132.702392578125 1173.1868896484375 1490.13623046875 2152.590087890625 2307.443359375 2445.588623046875 2923.04443359375 3614.943115234375 4265.419921875 3958.32666015625 3207.65869140625 2611.3896484375 2312.616455078125 2369.59912109375 2070.485107421875 1189.10595703125 601.3447265625 1061.5709228515625 1730.8516845703125 2081.017333984375 2655.19580078125 3422.051513671875 4283.74658203125 5131.42822265625 5276.72509765625 4517.9462890625 3533.5595703125 2547.9580078125 1581.8262939453125 741.5147705078125 744.56298828125 1586.7247314453125 2467.862548828125 2312.5751953125 1522.1241455078125 1092.7203369140625 949.45135498046875 471.379852294921875 665.89605712890625 585.684814453125 1268.9990234375 2008.6728515625 2269.234130859375 2282.984619140625 1996.7698974609375 1909.1031494140625 1683.874755859375 1413.8984375 1319.0157470703125 1192.9185791015625 1629.4425048828125 1685.756591796875 1170.365478515625 892.7628173828125 616.0296630859375 865.8570556640625 1176.986328125 1561.9368896484375 1688.3870849609375 1384.010009765625 1610.5374755859375 2292.536376953125 2918.46923828125 2700.283447265625 2515.130859375 2707.32080078125 2885.34228515625 2354.665283203125 1816.1900634765625 1650.4832763671875 1979.163330078125 2649.943115234375 3482.926025390625 4349.65673828125 4366.52880859375 3439.981689453125 2475.509521484375 1556.1048583984375 784.23004150390625 729.17376708984375 1500.53759765625 1890.108154296875 1816.1773681640625 2164.14306640625 2779.96044921875 3072.62890625 2795.362548828125 2423.235595703125 1696.6597900390625 745.88720703125 314.45794677734375 1098.0543212890625 1635.7144775390625 1042.3193359375 345.789825439453125 103.03641510009765625 601.10491943359375 1272.3555908203125 1193.7440185546875 932.97454833984375 724.26263427734375 817.52197265625 448.136749267578125 220.825531005859375 347.962310791015625 374.226226806640625 294.85980224609375 369.789794921875 223.4567718505859375 351.250701904296875 357.786163330078125 702.301513671875 1092.344970703125 1036.9686279296875 459.645965576171875 207.359649658203125 249.1994171142578125 226.3912200927734375 341.27886962890625 997.8546142578125 1367.376708984375 1105.07177734375 1409.7930908203125 1679.1029052734375 912.9459228515625 423.6728515625 1044.663818359375 1978.9561767578125 2909.080810546875 2884.28857421875 1969.0648193359375 1096.6912841796875 488.298553466796875 609.84130859375 1055.052001953125 714.0277099609375 531.716552734375 1195.2254638671875 1242.3724365234375 810.5902099609375 265.224212646484375 438.38983154296875 364.04473876953125 604.074462890625 1434.209228515625 1766.9656982421875 nan 
nan 477.3759765625 487.166961669921875 882.98590087890625 1727.0938720703125 2149.033935546875 1463.2066650390625 720.67431640625 773.0445556640625 1068.399169921875 1506.0067138671875 1457.289794921875 944.0501708984375 1224.0045166015625 1972.548583984375 1898.504638671875 1134.4005126953125 853.67889404296875 1400.5084228515625 1900.7401123046875 1198.87158203125 457.4798583984375 642.55096435546875 516.76348876953125 1017.92010498046875 1623.6533203125 1451.825927734375 1646.3466796875 2289.544677734375 3125.074462890625 4021.582275390625 4399.22216796875 3885.9306640625 3409.994384765625 3181.66552734375 2953.7451171875 2148.71923828125 1231.4647216796875 671.70947265625 968.50213623046875 1029.3541259765625 1347.944580078125 2115.969482421875 3019.429931640625 3962.2900390625 4593.43701171875 4622.05322265625 4447.08056640625 3724.158203125 2815.15625 1984.6378173828125 1401.3348388671875 1403.102294921875 1988.53662109375 2775.39013671875 2806.874267578125 2220.484619140625 1902.0311279296875 1454.69091796875 1039.902099609375 1233.227294921875 1292.7564697265625 1551.7589111328125 1447.6981201171875 1473.1968994140625 2019.013427734375 2573.77880859375 2735.427001953125 2470.834716796875 2274.974609375 2138.313720703125 2040.98779296875 2221.395751953125 1697.870849609375 782.7008056640625 546.48193359375 1120.7340087890625 1515.646484375 1925.601318359375 1959.66845703125 1267.74267578125 634.1419677734375 1018.794189453125 1919.7916259765625 2406.169189453125 1913.42138671875 1643.946533203125 1928.42529296875 2315.2529296875 1978.616455078125 1814.130126953125 2065.82861328125 2580.968994140625 3228.512451171875 3945.04736328125 4470.05126953125 4248.392578125 3624.743408203125 2844.013427734375 2078.961181640625 1504.3431396484375 1444.2186279296875 1970.0283203125 2578.932861328125 2666.8251953125 2701.84765625 2630.945068359375 2625.720458984375 2834.271484375 2462.514404296875 1512.8865966796875 565.65289306640625 418.95635986328125 1303.568359375 1595.832275390625 743.64080810546875 125.61466217041015625 309.140380859375 998.86944580078125 1235.572265625 600.61199951171875 499.276763916015625 478.917572021484375 1146.0526123046875 1170.16015625 668.8048095703125 304.5313720703125 344.042510986328125 671.07965087890625 845.4017333984375 341.589874267578125 168.550628662109375 245.026611328125 317.88336181640625 435.594268798828125 582.32147216796875 605.96185302734375 233.9959564208984375 172.802276611328125 350.439910888671875 187.2562255859375 693.9024658203125 1018.17584228515625 971.84527587890625 1546.05419921875 1832.8968505859375 1356.51708984375 1109.771240234375 1545.3865966796875 2319.757568359375 3162.74365234375 3195.185302734375 2386.840087890625 1558.03173828125 830.46893310546875 832.7186279296875 1482.1405029296875 1398.4383544921875 1200.3114013671875 1499.0201416015625 1469.105712890625 962.573974609375 270.716949462890625 597.8790283203125 364.926300048828125 688.209716796875 1612.96533203125 2298.549560546875 nan 
nan 322.02740478515625 351.44268798828125 545.57720947265625 1210.312744140625 1817.1636962890625 1849.36279296875 1417.8270263671875 931.5545654296875 507.84820556640625 1118.9453125 1186.187744140625 512.00274658203125 903.48150634765625 1748.51171875 1532.59521484375 677.24652099609375 445.96185302734375 1194.34423828125 1905.3173828125 1423.80859375 858.41265869140625 910.90472412109375 702.43878173828125 1108.4022216796875 1250.336669921875 682.33905029296875 1002.431884765625 1876.57958984375 2837.05126953125 3818.031005859375 4524.5615234375 4202.8515625 3764.010009765625 3547.749755859375 3247.8935546875 2510.140869140625 1792.44580078125 1422.6605224609375 1073.4322509765625 471.75860595703125 917.40338134765625 1862.65185546875 2847.70849609375 3720.347412109375 3852.90283203125 3746.46533203125 3873.06787109375 3885.32421875 3302.7431640625 2637.28076171875 2229.720458984375 2230.84765625 2640.21630859375 3291.5634765625 3451.48486328125 3019.51171875 2676.86767578125 2159.51318359375 1887.4822998046875 2039.2589111328125 2053.5234375 1549.3209228515625 773.9554443359375 781.5660400390625 1600.1065673828125 2552.05126953125 3314.395751953125 3299.04443359375 3147.7890625 2992.27587890625 2906.333251953125 2717.727294921875 1913.6048583984375 1161.0703125 1004.76007080078125 1577.409912109375 1897.5574951171875 1847.97412109375 1870.470947265625 1276.9012451171875 658.0302734375 1035.668701171875 1907.4952392578125 2053.4658203125 1262.0784912109375 821.98297119140625 1291.3067626953125 1763.2720947265625 1228.3133544921875 1024.70751953125 1574.0609130859375 2431.134521484375 3334.33642578125 3863.801513671875 3909.94775390625 3534.12109375 3216.86865234375 3017.387939453125 2680.154541015625 2280.923828125 2214.13916015625 2552.69677734375 3109.673828125 3033.20361328125 2373.294677734375 1843.6099853515625 1768.946533203125 2186.3447265625 2219.9921875 1334.032958984375 451.43212890625 591.31317138671875 1508.7413330078125 1671.851318359375 769.63037109375 153.162261962890625 378.088134765625 897.1348876953125 960.10052490234375 548.2142333984375 728.045654296875 854.15020751953125 1489.705078125 1682.9029541015625 932.86138916015625 301.00030517578125 268.427581787109375 460.74725341796875 988.3006591796875 628.4674072265625 313.15228271484375 341.4132080078125 543.01434326171875 628.0579833984375 315.118621826171875 303.752716064453125 222.221282958984375 174.095062255859375 264.2437744140625 205.2476654052734375 715.52276611328125 688.18609619140625 538.47003173828125 1022.04095458984375 1277.918212890625 1242.9334716796875 1542.2647705078125 2132.3896484375 2802.76416015625 3459.65185546875 3590.34228515625 2861.9501953125 2090.039794921875 1585.349365234375 1585.9967041015625 2056.4716796875 2167.79345703125 1891.8004150390625 1345.110595703125 804.53411865234375 735.16082763671875 307.146514892578125 417.4420166015625 347.08013916015625 810.57843017578125 1330.0941162109375 1902.183349609375 nan 
nan 287.371124267578125 366.70037841796875 243.54156494140625 616.798828125 1224.7239990234375 1818.6888427734375 1647.4976806640625 1172.087158203125 840.97186279296875 1331.761474609375 1488.8580322265625 1037.88037109375 1292.97412109375 1694.8486328125 1265.3416748046875 644.7705078125 756.37353515625 1530.00634765625 2247.728759765625 2040.1865234375 1618.629150390625 1130.6524658203125 581.30718994140625 1017.07989501953125 1197.9210205078125 594.177490234375 928.6405029296875 1836.78271484375 2810.964111328125 3787.66796875 4181.806640625 3608.532958984375 3081.771728515625 2822.0625 2862.328857421875 2874.619873046875 2535.98095703125 2108.187744140625 1379.9603271484375 859.34857177734375 1192.1256103515625 2013.281494140625 2889.006103515625 3299.7373046875 3018.089599609375 2863.462158203125 3046.392578125 3493.731201171875 3736.517578125 3395.591552734375 3092.648193359375 3093.46435546875 3401.20361328125 3937.832275390625 4177.77587890625 3846.3359375 3423.329833984375 2956.7001953125 2763.08935546875 2852.786376953125 2494.8671875 1591.855224609375 776.894287109375 777.18072509765625 1597.477294921875 2556.310791015625 3520.928955078125 4061.84912109375 4020.666015625 3838.98388671875 3683.67724609375 3195.268310546875 2449.2822265625 1918.2030029296875 1811.093017578125 1920.52294921875 1433.1488037109375 1032.864501953125 1374.70556640625 1659.7275390625 1421.0372314453125 1642.67333984375 2226.5439453125 1976.6783447265625 1039.8978271484375 491.362335205078125 1092.0997314453125 1546.9462890625 806.8919677734375 512.13653564453125 1279.854736328125 2246.46923828125 2996.369873046875 3070.875 3102.2236328125 2761.2138671875 2369.154541015625 2336.694091796875 2526.982421875 2240.53271484375 2034.4219970703125 2268.886962890625 2817.197021484375 2733.83740234375 1856.3927001953125 1092.281982421875 965.421630859375 1618.266357421875 1942.3092041015625 1124.6063232421875 369.387115478515625 797.13623046875 1725.8492431640625 1805.6507568359375 910.989990234375 211.12457275390625 120.041473388671875 532.98175048828125 584.160400390625 466.6160888671875 1203.16796875 1406.8232421875 1626.8367919921875 1713.9840087890625 955.73382568359375 404.413848876953125 324.51275634765625 373.185394287109375 864.372314453125 382.11895751953125 341.24505615234375 387.977752685546875 860.64764404296875 1288.5751953125 947.97412109375 642.48468017578125 531.07867431640625 278.997528076171875 129.585662841796875 88.84308624267578125 536.6688232421875 952.274169921875 824.6143798828125 497.6993408203125 660.38043212890625 558.62115478515625 1230.6444091796875 2103.3125 2580.304443359375 2997.857177734375 3519.6435546875 3376.8408203125 2790.701416015625 2434.32666015625 2434.75146484375 2779.730224609375 2868.799072265625 2152.791748046875 1204.329345703125 461.097412109375 285.71044921875 302.083740234375 434.172332763671875 362.649932861328125 519.73486328125 690.50311279296875 1459.6741943359375 nan 
nan 751.3505859375 709.406982421875 293.86810302734375 254.8683319091796875 869.78656005859375 1363.2520751953125 976.3306884765625 1124.48681640625 1532.3695068359375 1963.44970703125 2140.524169921875 1875.6689453125 1906.9935302734375 1452.4697265625 721.99951171875 736.388916015625 1215.61181640625 1938.855712890625 2544.1025390625 2521.5341796875 1881.8424072265625 1035.612060546875 545.7230224609375 1064.12646484375 1574.5927734375 1314.427734375 1509.455078125 2189.522705078125 3052.642822265625 3894.873291015625 3769.23974609375 2976.126708984375 2309.8095703125 1951.3238525390625 2049.817626953125 2546.017822265625 2990.773681640625 2584.1318359375 1890.102294921875 1550.53271484375 1766.9971923828125 2350.27490234375 2624.889404296875 2548.688720703125 2201.083251953125 1987.2130126953125 2241.739990234375 2845.995849609375 3602.917724609375 4045.904052734375 3965.53173828125 3968.169189453125 4212.767578125 4661.22705078125 4948.68115234375 4658.310546875 4182.50634765625 3794.915771484375 3636.00048828125 3472.921630859375 2764.29833984375 1958.136962890625 1406.1429443359375 1423.8304443359375 2007.120849609375 2832.85107421875 3726.2490234375 4522.85546875 4495.7724609375 4006.16845703125 3608.61328125 3313.16943359375 3011.922607421875 2629.438232421875 2157.530029296875 1673.248291015625 1035.1923828125 478.740997314453125 1018.59576416015625 1901.5634765625 2242.25146484375 2275.99560546875 2271.864013671875 2025.9287109375 1445.8812255859375 1107.6190185546875 1505.3406982421875 1788.557373046875 1156.9853515625 910.45770263671875 1359.810791015625 2065.972412109375 2390.3388671875 2194.86474609375 2294.20703125 2061.588134765625 1533.4901123046875 1484.3580322265625 1844.00390625 1527.4085693359375 1188.877685546875 1540.7584228515625 2292.45751953125 2540.08056640625 1680.52392578125 766.36187744140625 592.555908203125 1410.41552734375 1748.9261474609375 914.01263427734375 294.080291748046875 947.5982666015625 1902.8642578125 2088.001220703125 1339.5245361328125 691.2864990234375 184.225250244140625 250.2700653076171875 370.913665771484375 605.4622802734375 1278.162109375 967.9322509765625 977.04339599609375 1574.0908203125 1500.1885986328125 1129.5411376953125 862.75665283203125 785.138427734375 1061.0762939453125 576.8125 530.50640869140625 398.14398193359375 1029.5146484375 1733.803955078125 1740.26904296875 1491.392333984375 1317.225341796875 919.02191162109375 400.875701904296875 115.16753387451171875 277.281005859375 836.87225341796875 973.26214599609375 622.87786865234375 602.07666015625 464.72747802734375 1170.542724609375 1631.9368896484375 1773.9034423828125 2302.880126953125 3074.134033203125 3709.52978515625 3568.72412109375 3304.97998046875 3305.2255859375 3498.25439453125 3157.689453125 2267.460205078125 1392.43994140625 567.98541259765625 309.923583984375 861.81549072265625 806.3096923828125 322.17083740234375 328.643585205078125 704.1722412109375 1480.2957763671875 nan 
nan 465.19647216796875 826.2335205078125 652.60552978515625 274.459381103515625 829.391845703125 993.36614990234375 511.094482421875 826.6278076171875 1744.6678466796875 2578.1103515625 2909.593505859375 2724.579345703125 2327.776123046875 1448.1488037109375 650.71630859375 431.764862060546875 1032.687744140625 1685.6466064453125 1941.8983154296875 2098.36474609375 1669.8719482421875 793.4417724609375 495.324951171875 1246.8828125 2048.5341796875 2153.595703125 2293.849853515625 2790.517578125 3503.462646484375 4040.21142578125 3434.84375 2505.17578125 1659.03369140625 1112.856201171875 1274.5244140625 1991.765380859375 2744.19677734375 2408.208740234375 1623.0843505859375 1205.8656005859375 1463.4775390625 1999.5242919921875 1871.8062744140625 1723.5682373046875 1453.1767578125 1134.7664794921875 1532.81396484375 2328.803466796875 3241.180908203125 4162.6064453125 4725.02783203125 4847.384765625 5050.90380859375 5432.16845703125 5741.83642578125 5442.1318359375 4974.544921875 4632.77197265625 4229.16552734375 3461.31005859375 2560.805419921875 1752.948486328125 1259.3389892578125 1409.8939208984375 2072.7216796875 2840.318115234375 3573.047607421875 4276.05810546875 4054.087646484375 3347.705322265625 2814.296630859375 2573.98486328125 2681.650634765625 2589.9287109375 1767.2481689453125 997.11212158203125 781.71209716796875 870.15570068359375 1312.5570068359375 2138.8173828125 2622.677490234375 2089.0107421875 1545.960205078125 1496.5880126953125 1714.7291259765625 1882.6934814453125 2206.822021484375 2285.567138671875 1574.508056640625 899.0587158203125 882.0177001953125 1571.1036376953125 1696.51953125 1332.4583740234375 1471.1971435546875 1435.2838134765625 824.25042724609375 736.68634033203125 1367.975830078125 1051.8359375 493.37994384765625 1045.8287353515625 1982.232421875 2552.666259765625 1947.2471923828125 1241.60546875 1129.9443359375 1631.90283203125 1518.387451171875 706.68597412109375 349.02655029296875 1142.29736328125 2088.531494140625 2239.453857421875 1433.0125732421875 738.25164794921875 353.364471435546875 166.5262451171875 278.040313720703125 582.39892578125 1017.9088134765625 538.93731689453125 571.0513916015625 1448.748779296875 1851.847412109375 1275.948974609375 966.94677734375 1204.4100341796875 1075.6695556640625 495.610687255859375 402.38909912109375 699.50616455078125 884.13665771484375 1427.2615966796875 2079.70751953125 1942.278564453125 1470.240234375 1220.342529296875 771.45672607421875 180.108062744140625 224.1295928955078125 396.3160400390625 606.11651611328125 551.6361083984375 490.327301025390625 519.40997314453125 1018.88421630859375 915.927490234375 1021.82696533203125 1786.850341796875 2712.516845703125 3660.385009765625 4177.87646484375 4135.62548828125 4148.80126953125 3859.092041015625 2983.1416015625 2025.9151611328125 1109.8092041015625 362.204620361328125 551.33612060546875 1026.6192626953125 1016.734375 648.76422119140625 301.116943359375 844.8631591796875 1669.4013671875 nan 
nan 752.4490966796875 1069.0115966796875 824.5335693359375 262.95452880859375 417.2049560546875 402.99005126953125 633.69805908203125 1171.242919921875 1980.895263671875 2892.79248046875 3591.093505859375 3440.83056640625 2697.615478515625 1895.204345703125 1204.2467041015625 762.5147705078125 972.07611083984375 962.48388671875 1093.1500244140625 1408.257568359375 1296.3138427734375 665.20648193359375 787.2073974609375 1499.275390625 2103.037353515625 2330.857177734375 2628.361328125 3073.920166015625 3605.740478515625 3904.60009765625 3229.92578125 2288.5673828125 1325.3887939453125 543.89349365234375 798.116455078125 1722.581298828125 2545.6376953125 2140.181884765625 1186.03857421875 504.791229248046875 795.16943359375 1429.0755615234375 1131.55224609375 925.69195556640625 916.85693359375 498.941558837890625 1107.489013671875 2061.068115234375 3037.296142578125 4017.005126953125 4965.73046875 5608.28955078125 5901.57958984375 6233.74072265625 6532.5361328125 6216.96923828125 5760.373046875 5164.7734375 4264.2451171875 3274.6748046875 2289.967529296875 1330.2191162109375 592.55615234375 849.03875732421875 1584.000732421875 2266.161376953125 3062.33740234375 3839.31982421875 3565.625244140625 2733.948974609375 2046.9166259765625 1703.59814453125 1882.62890625 2106.25244140625 1558.41015625 731.0361328125 583.8388671875 1330.241943359375 1970.0465087890625 2583.547607421875 2537.9189453125 1645.9656982421875 836.24200439453125 695.287353515625 1209.2591552734375 2020.6031494140625 2741.16259765625 2513.96533203125 1576.0889892578125 694.90814208984375 574.1624755859375 1250.813720703125 1205.0655517578125 587.91229248046875 697.1434326171875 838.18017578125 712.94427490234375 676.8046875 1364.000244140625 1171.9056396484375 655.40179443359375 1064.2900390625 1738.2789306640625 2362.93115234375 2442.791015625 2021.3619384765625 1871.10205078125 1663.2003173828125 1002.9361572265625 369.237823486328125 575.394287109375 1397.921630859375 2237.498779296875 2144.442626953125 1193.9573974609375 366.60504150390625 228.6462554931640625 157.6851348876953125 247.1926422119140625 293.871917724609375 435.082366943359375 293.053131103515625 516.9979248046875 1304.099853515625 1644.7059326171875 921.7528076171875 470.4931640625 743.24609375 573.5697021484375 513.50799560546875 702.2178955078125 825.5648193359375 464.408843994140625 1083.02197265625 1892.912841796875 1604.0081787109375 820.61126708984375 725.74468994140625 596.7431640625 78.39521026611328125 422.61572265625 568.75616455078125 376.582427978515625 852.097412109375 934.7637939453125 579.9873046875 678.79443359375 529.47320556640625 712.59808349609375 1629.855224609375 2610.576904296875 3458.83837890625 3839.330078125 4126.5537109375 4426.654296875 3885.11669921875 2896.69384765625 1899.451171875 906.03271484375 282.7772216796875 730.25714111328125 524.49786376953125 834.72503662109375 1121.3441162109375 440.968658447265625 523.6864013671875 1329.9073486328125 nan 
nan 1067.9921875 1026.500244140625 1091.61669921875 487.912200927734375 166.7142333984375 280.747650146484375 416.1759033203125 1268.7747802734375 2209.016357421875 3149.79052734375 4021.620849609375 3956.35400390625 3200.8447265625 2500.56787109375 1864.423828125 1499.3228759765625 1000.13720703125 462.41845703125 475.1641845703125 974.26275634765625 1134.32763671875 528.5244140625 898.73760986328125 1577.9146728515625 1484.8145751953125 1560.9769287109375 1952.275146484375 2422.32861328125 2925.12841796875 3335.7353515625 2842.18408203125 2052.104248046875 1355.3729248046875 872.674560546875 1089.7415771484375 1879.2576904296875 2639.198486328125 2211.999755859375 1275.3074951171875 451.29083251953125 485.56732177734375 1169.3485107421875 709.53692626953125 358.71673583984375 683.67254638671875 439.78436279296875 950.3585205078125 1909.4049072265625 2893.517578125 3884.2890625 4878.65283203125 5856.76953125 6619.06982421875 7051.73583984375 7313.2158203125 6953.23876953125 6233.58203125 5286.61767578125 4297.85693359375 3315.11669921875 2347.5546875 1427.2078857421875 740.03790283203125 604.33294677734375 972.46087646484375 1784.7576904296875 2723.78369140625 3558.42333984375 3238.322265625 2307.25390625 1427.718994140625 877.404541015625 1150.577880859375 1412.6689453125 1183.81640625 1130.0496826171875 1171.4853515625 1745.7930908203125 2550.26220703125 3095.413818359375 2570.384765625 1611.3494873046875 758.39788818359375 414.9129638671875 957.3961181640625 1907.650146484375 2659.999755859375 2347.09375 1723.786376953125 1055.751220703125 494.605804443359375 900.108154296875 1172.6988525390625 625.16961669921875 406.575927734375 364.092864990234375 906.10809326171875 1337.6636962890625 1831.8280029296875 1751.6812744140625 1243.9989013671875 888.39520263671875 1125.44873046875 1905.85400390625 2668.461669921875 2535.02734375 1931.6510009765625 1184.3658447265625 472.692718505859375 345.94329833984375 748.48187255859375 1289.7919921875 2024.196533203125 2010.8465576171875 1303.883544921875 469.718170166015625 143.1949005126953125 438.991943359375 318.601654052734375 246.4638519287109375 258.724395751953125 247.8273773193359375 443.375335693359375 799.843505859375 1356.9744873046875 1207.3382568359375 806.4051513671875 476.856414794921875 448.514862060546875 424.891510009765625 922.21502685546875 1176.1336669921875 824.08966064453125 1071.69970703125 1506.0194091796875 1238.5009765625 659.65826416015625 391.115753173828125 303.38885498046875 69.90935516357421875 614.17572021484375 740.1865234375 356.80682373046875 1073.7235107421875 1372.5350341796875 759.53314208984375 656.0018310546875 538.27581787109375 970.25482177734375 1847.0892333984375 2652.634521484375 2888.447021484375 2993.0322265625 3373.488037109375 3920.235107421875 3706.30859375 2802.23974609375 1882.399169921875 951.91729736328125 267.345458984375 556.5899658203125 482.686248779296875 782.67840576171875 1346.439208984375 771.72418212890625 299.98797607421875 803.0003662109375 nan 
nan 723.830322265625 480.139373779296875 1035.2392578125 856.27862548828125 636.82745361328125 620.76287841796875 340.198760986328125 1155.06396484375 2150.98681640625 3147.209716796875 4039.71240234375 3918.428466796875 3217.447265625 2548.603271484375 1945.939697265625 1590.02099609375 1151.085205078125 581.059814453125 559.18914794921875 1182.2431640625 1532.5411376953125 1211.7041015625 1393.0125732421875 1356.4620361328125 728.11602783203125 740.79638671875 1164.8612060546875 1649.89599609375 2190.9716796875 2752.499755859375 2449.7626953125 1552.423095703125 870.24407958984375 953.103515625 1595.5740966796875 2343.730224609375 2954.525390625 2438.828857421875 1486.194580078125 636.82586669921875 622.036376953125 1166.2943115234375 631.61517333984375 482.738922119140625 865.3160400390625 717.986572265625 1104.7730712890625 1981.671630859375 2939.1767578125 3918.1474609375 4905.63916015625 5897.51171875 6882.9931640625 7720.22802734375 8028.41943359375 7380.3115234375 6425.3818359375 5459.525390625 4508.3291015625 3583.992431640625 2714.5048828125 1955.3515625 1248.9461669921875 550.98907470703125 768.6370849609375 1673.317138671875 2652.11083984375 3348.968994140625 2869.180908203125 2060.586669921875 1185.9345703125 460.967620849609375 775.75238037109375 920.7305908203125 545.200439453125 1172.1171875 1859.5089111328125 2386.10791015625 3062.218994140625 3447.696044921875 2717.628662109375 1827.09423828125 1138.0904541015625 918.70758056640625 1317.83251953125 2095.545654296875 2414.063232421875 1732.50634765625 1197.8543701171875 977.61407470703125 737.9593505859375 1083.7379150390625 1539.519775390625 967.6883544921875 421.05126953125 527.51727294921875 923.1278076171875 1400.4085693359375 2032.1502685546875 2164.9365234375 1338.1357421875 547.73406982421875 799.96771240234375 1726.1531982421875 2500.383544921875 2159.16064453125 1394.6053466796875 651.03826904296875 231.0878448486328125 560.12005615234375 449.94683837890625 900.0111083984375 1651.177490234375 1396.41259765625 1093.3199462890625 620.98248291015625 142.4868621826171875 330.303680419921875 284.11541748046875 187.79327392578125 277.550140380859375 516.63818359375 463.516143798828125 495.6209716796875 1256.90576171875 1544.8876953125 1379.5526123046875 1048.3267822265625 907.50384521484375 517.76483154296875 822.1055908203125 1359.89404296875 799.61260986328125 603.28564453125 944.67218017578125 604.46185302734375 595.14422607421875 376.789764404296875 138.5872650146484375 88.9472808837890625 388.172027587890625 479.95941162109375 509.17315673828125 1197.6358642578125 1774.87451171875 1380.867919921875 661.71282958984375 313.330657958984375 1055.6300048828125 1987.0093994140625 2296.0439453125 2041.0291748046875 2150.744140625 2653.989501953125 3364.55908203125 3408.979736328125 2507.0576171875 1581.607177734375 798.08905029296875 296.770355224609375 235.2248687744140625 319.678985595703125 576.662109375 1204.1993408203125 1095.4342041015625 485.01708984375 357.2696533203125 nan 
nan 973.5328369140625 452.15478515625 615.614501953125 1027.243896484375 1158.9525146484375 609.41217041015625 343.090850830078125 1145.0484619140625 2084.86962890625 3024.442138671875 3795.481689453125 3415.55224609375 2622.66552734375 1922.8094482421875 1277.7520751953125 826.01641845703125 630.599853515625 335.579376220703125 710.71356201171875 1571.0765380859375 2166.351806640625 2063.515869140625 1875.2628173828125 1116.3790283203125 345.954986572265625 273.769561767578125 442.88836669921875 895.84661865234375 1505.7137451171875 2216.060546875 2285.771728515625 1399.300537109375 587.58453369140625 754.2811279296875 1625.0755615234375 2410.248779296875 2986.984375 2693.943359375 1871.9383544921875 1252.4056396484375 1254.40771484375 1574.004150390625 1160.3641357421875 1155.58203125 1550.9569091796875 1508.289794921875 1741.2303466796875 2400.463134765625 3236.474365234375 4145.59912109375 5089.037109375 6050.86572265625 7023.38720703125 7996.5947265625 8415.498046875 7629.17236328125 6687.58203125 5765.81103515625 4874.86572265625 4035.527099609375 3273.02783203125 2519.703857421875 1736.6883544921875 1197.2086181640625 1321.3079833984375 1995.078125 2854.997314453125 3175.885009765625 2399.9462890625 1574.1280517578125 1013.42486572265625 872.7720947265625 1154.98974609375 1067.5625 704.6160888671875 1281.3272705078125 2186.16650390625 2988.677978515625 3496.98193359375 3442.71044921875 2589.185791015625 1624.106201171875 763.4769287109375 622.518798828125 1174.7283935546875 1981.4105224609375 2192.225830078125 1323.42724609375 540.36163330078125 573.988037109375 1207.5362548828125 1547.8507080078125 1755.3988037109375 1093.3170166015625 413.623626708984375 595.59332275390625 547.3284912109375 819.531982421875 1599.2144775390625 2133.601806640625 1645.1055908203125 1091.510498046875 1251.84326171875 1963.0439453125 2254.555908203125 1594.081298828125 836.7899169921875 295.100372314453125 573.8980712890625 984.13616943359375 894.8477783203125 1180.8924560546875 1516.7208251953125 855.94000244140625 535.83544921875 892.16998291015625 501.078948974609375 133.7115020751953125 89.184539794921875 156.0307464599609375 535.22625732421875 806.29339599609375 344.703826904296875 614.65386962890625 1138.294189453125 954.28436279296875 1263.4439697265625 1599.2266845703125 1316.9500732421875 983.98828125 890.13909912109375 1122.4547119140625 949.166015625 788.07806396484375 967.61187744140625 561.954345703125 520.556640625 501.662506103515625 213.00897216796875 80.3131103515625 179.4883880615234375 191.703155517578125 530.69573974609375 1175.8612060546875 1877.5848388671875 1696.7969970703125 847.8968505859375 562.83209228515625 1290.4185791015625 2034.6395263671875 1690.766845703125 1192.797119140625 1369.353759765625 2070.810302734375 2945.93115234375 3266.617431640625 2416.138671875 1437.5789794921875 539.500244140625 258.717926025390625 222.2470550537109375 337.291839599609375 319.197113037109375 585.478759765625 911.13690185546875 662.45782470703125 243.10791015625 nan 
nan 1501.860595703125 887.138916015625 356.437835693359375 817.7156982421875 897.9417724609375 265.838531494140625 278.626983642578125 902.1805419921875 1811.387939453125 2757.63037109375 3450.4970703125 3027.928466796875 2123.5859375 1298.4176025390625 631.75274658203125 260.71099853515625 298.92059326171875 473.55084228515625 1180.05859375 1989.066162109375 2740.739501953125 2794.448974609375 2086.75048828125 1149.124267578125 554.7010498046875 681.60882568359375 413.842742919921875 337.953704833984375 907.68646240234375 1686.43359375 2210.5029296875 1747.7091064453125 1182.49169921875 1137.680908203125 1349.395751953125 1813.7845458984375 2558.2509765625 2989.009033203125 2500.969970703125 2068.2705078125 2069.424560546875 2232.251953125 1899.39892578125 1837.5977783203125 2150.520751953125 2312.737060546875 2528.455810546875 3026.650390625 3727.4892578125 4539.43603515625 5414.5654296875 6327.029296875 7262.62109375 8211.9384765625 8684.15234375 7951.544921875 7053.1611328125 6186.16357421875 5365.177734375 4599.44921875 3827.29638671875 3034.32568359375 2349.543701171875 1933.973388671875 1960.9522705078125 2407.71923828125 3012.865234375 2880.03759765625 2131.781005859375 1204.1827392578125 503.9139404296875 909.73681640625 1685.55517578125 1709.3358154296875 1495.15966796875 1847.6834716796875 2499.219482421875 2883.27978515625 3011.130859375 2911.861328125 2377.15966796875 1616.611328125 754.56463623046875 382.01922607421875 886.68658447265625 1818.254150390625 2147.881103515625 1411.1802978515625 759.587646484375 855.80364990234375 1103.9761962890625 1060.2144775390625 1444.5263671875 1186.76806640625 629.415283203125 524.8123779296875 318.684783935546875 462.26324462890625 1163.5294189453125 1745.1839599609375 1795.0262451171875 1830.9566650390625 2018.3370361328125 2350.27490234375 1893.544921875 1054.980712890625 363.802825927734375 468.358245849609375 1182.1947021484375 1729.6427001953125 1726.9075927734375 1732.523681640625 1247.757568359375 589.94940185546875 616.42303466796875 1230.6180419921875 1107.8734130859375 559.0478515625 242.7966766357421875 95.4440765380859375 244.392974853515625 548.1798095703125 442.347412109375 410.255035400390625 578.75054931640625 400.129119873046875 810.21417236328125 1218.24853515625 850.73095703125 564.34954833984375 462.968414306640625 804.4742431640625 1440.5230712890625 1562.8599853515625 1587.59326171875 1337.2962646484375 1250.3525390625 1114.614013671875 509.466339111328125 88.18994903564453125 65.71660614013671875 160.507568359375 194.8229217529296875 688.65771484375 1351.663330078125 1788.4820556640625 1443.8797607421875 1260.503173828125 1732.8006591796875 2069.1494140625 1302.32373046875 547.24761962890625 841.34033203125 1764.3193359375 2707.6708984375 3026.733642578125 2371.865478515625 1430.3348388671875 538.17144775390625 305.46893310546875 353.04949951171875 353.393585205078125 426.181915283203125 558.3743896484375 856.1761474609375 835.2562255859375 441.408050537109375 nan 
nan 2048.78271484375 1215.867431640625 564.820068359375 886.2628173828125 834.97357177734375 317.11456298828125 202.0164642333984375 726.78424072265625 1651.8411865234375 2374.98388671875 2806.518798828125 2588.144287109375 1868.8720703125 960.0321044921875 319.55084228515625 477.9268798828125 928.6832275390625 1148.7032470703125 1700.2777099609375 2469.035400390625 3052.300537109375 2976.344970703125 2097.202880859375 1128.2684326171875 440.278778076171875 840.3394775390625 1024.10205078125 453.069671630859375 430.94549560546875 1135.8201904296875 1899.7474365234375 2155.326171875 1674.7957763671875 1000.6539306640625 656.80474853515625 1294.8797607421875 2229.001953125 3116.696044921875 3221.750732421875 2926.288818359375 2825.0849609375 2450.97705078125 1807.4017333984375 1491.4752197265625 1755.0482177734375 2400.527099609375 3092.43896484375 3709.916015625 4339.4013671875 5060.15771484375 5858.421875 6710.74658203125 7599.13525390625 8508.8779296875 9018.111328125 8355.3544921875 7493.58740234375 6641.27197265625 5781.33154296875 4894.1806640625 3981.49951171875 3096.6083984375 2296.298583984375 1706.1474609375 1565.4600830078125 1983.339111328125 2561.27880859375 2243.329833984375 1714.8902587890625 1267.1964111328125 833.56402587890625 1161.4925537109375 1985.854248046875 2433.1982421875 2361.074462890625 2495.5966796875 2396.80078125 2111.935546875 2154.3740234375 2172.62744140625 1716.9207763671875 1398.7059326171875 732.229736328125 516.26318359375 1195.8155517578125 1846.285888671875 1787.0997314453125 1363.674072265625 1306.46875 1195.675537109375 667.81878662109375 384.934722900390625 957.63543701171875 960.65936279296875 336.791290283203125 378.569915771484375 495.3316650390625 589.91107177734375 979.23004150390625 1041.235107421875 1170.2850341796875 1870.676513671875 2518.295166015625 2461.489501953125 1605.0521240234375 662.06427001953125 331.161041259765625 984.99993896484375 1755.7177734375 2415.632568359375 2468.149169921875 2045.234375 1151.9930419921875 462.05255126953125 570.3822021484375 1125.43896484375 1113.0997314453125 852.12628173828125 451.8616943359375 133.6982269287109375 132.4245452880859375 327.475433349609375 468.123138427734375 416.1632080078125 377.344329833984375 507.642059326171875 404.420196533203125 749.11260986328125 811.64691162109375 623.287109375 740.31011962890625 857.48748779296875 1478.8331298828125 2009.5968017578125 2111.798583984375 2130.686279296875 2037.2603759765625 1533.9599609375 682.9954833984375 270.589080810546875 71.04308319091796875 80.73177337646484375 165.488861083984375 287.8818359375 767.91339111328125 1557.304931640625 2049.88427734375 2071.99365234375 2239.881591796875 2189.13134765625 1432.43896484375 790.26922607421875 1030.6148681640625 1859.9539794921875 2483.8916015625 2319.4609375 2060.667236328125 1360.9896240234375 476.331298828125 190.6033172607421875 274.999420166015625 555.69403076171875 1012.3763427734375 1216.14404296875 850.01025390625 513.44427490234375 369.47308349609375 nan 
nan 2449.372802734375 1706.046142578125 1293.5447998046875 1402.239990234375 1043.6510009765625 367.383697509765625 287.10137939453125 741.00311279296875 1207.740234375 1652.2320556640625 2037.62548828125 1908.662841796875 1439.0594482421875 886.95501708984375 350.989532470703125 885.66632080078125 1628.551513671875 1973.9486083984375 2291.20556640625 2472.550048828125 2465.2392578125 2608.818359375 2200.62060546875 1306.448486328125 533.9281005859375 673.96905517578125 1292.543701171875 925.65447998046875 325.274627685546875 610.70257568359375 1373.885009765625 1809.81201171875 1296.279296875 697.6151123046875 579.481201171875 1283.087158203125 2203.481689453125 3089.7177734375 3659.44921875 3660.703369140625 3059.15771484375 2133.958251953125 1232.06396484375 699.5767822265625 1142.541259765625 2033.2064208984375 2963.779541015625 3829.999755859375 4629.748046875 5445.56884765625 6281.318359375 7092.97802734375 7835.60107421875 8557.291015625 9111.4638671875 8665.53125 7715.08984375 6735.43994140625 5744.8857421875 4754.5693359375 3769.555419921875 2795.241943359375 1849.163818359375 1017.62042236328125 775.04193115234375 1420.2933349609375 2121.108154296875 1690.2845458984375 983.59588623046875 973.10723876953125 1427.2281494140625 1836.2105712890625 2420.136474609375 2925.60302734375 3005.2998046875 2577.402099609375 1801.21630859375 1268.7298583984375 1304.511962890625 1519.426025390625 997.70428466796875 800.45245361328125 868.0787353515625 847.81451416015625 1130.3350830078125 1345.2703857421875 1223.35693359375 670.289794921875 1020.64459228515625 925.0953369140625 378.921478271484375 346.969512939453125 499.531768798828125 916.34771728515625 398.370574951171875 544.1966552734375 884.34136962890625 565.955322265625 533.5146484375 537.7838134765625 746.943603515625 1630.8214111328125 2079.7900390625 2048.357421875 1514.1414794921875 568.9547119140625 456.8819580078125 1351.212158203125 2228.07177734375 2527.584716796875 2203.434814453125 1977.90966796875 1550.568115234375 875.97967529296875 368.40045166015625 637.6513671875 455.33447265625 395.682281494140625 254.182952880859375 159.049652099609375 129.0375213623046875 124.4366607666015625 474.563079833984375 1055.977294921875 1064.6597900390625 971.254150390625 560.155517578125 889.9168701171875 1375.73095703125 1305.7406005859375 858.5001220703125 428.089080810546875 1022.32568359375 1451.9739990234375 1588.6419677734375 2089.484375 2030.7080078125 1359.5115966796875 556.75543212890625 353.888031005859375 255.6124114990234375 46.35709381103515625 137.7952117919921875 249.388397216796875 411.832672119140625 1254.58642578125 2000.13818359375 2112.2373046875 1809.94921875 1810.0716552734375 1830.6419677734375 1575.117431640625 1724.854736328125 2221.905029296875 2059.6259765625 1499.640625 1404.3416748046875 1373.3841552734375 850.57586669921875 322.80560302734375 364.1383056640625 609.6942138671875 843.55303955078125 1432.6756591796875 1050.17138671875 716.246337890625 525.33355712890625 nan 
nan 2850.33154296875 2361.186767578125 2125.44189453125 1839.2510986328125 977.64373779296875 274.220001220703125 447.17877197265625 464.205047607421875 512.63372802734375 884.56854248046875 1377.830322265625 1333.742919921875 705.2286376953125 465.511474609375 367.257232666015625 1064.7257080078125 1991.4527587890625 2367.455078125 2235.69189453125 1792.654296875 1600.09228515625 1955.291015625 2135.922607421875 1404.4083251953125 619.28948974609375 546.839111328125 1289.5665283203125 1073.04248046875 344.728790283203125 242.54156494140625 757.53466796875 1223.946533203125 946.9990234375 384.6099853515625 796.51385498046875 1427.20703125 1990.55126953125 2592.442626953125 3266.04150390625 3737.246337890625 3056.6943359375 2074.504638671875 1127.508544921875 535.7705078125 990.85943603515625 1772.33984375 2556.781982421875 3400.7392578125 4304.00146484375 5239.42724609375 6121.4072265625 6767.3583984375 7334.63037109375 7973.759765625 8653.873046875 8639.8330078125 7710.89306640625 6712.783203125 5715.1171875 4718.4697265625 3723.880859375 2733.23291015625 1753.7271728515625 835.7188720703125 523.61700439453125 1252.909912109375 1726.9840087890625 1280.9315185546875 523.758544921875 639.32586669921875 1545.4061279296875 2261.234619140625 2325.822265625 2409.91455078125 2580.739990234375 2274.8203125 1400.556396484375 600.02252197265625 564.5888671875 1119.808837890625 775.039794921875 522.1893310546875 589.24517822265625 616.07904052734375 577.91973876953125 786.2274169921875 1088.16259765625 592.50439453125 912.53411865234375 984.82861328125 688.26019287109375 764.70489501953125 690.33624267578125 1020.350341796875 614.0147705078125 643.76654052734375 672.0079345703125 410.95941162109375 636.1356201171875 618.9739990234375 799.25958251953125 1473.0421142578125 1320.037841796875 1325.3084716796875 1411.622802734375 594.62255859375 445.326629638671875 1370.5986328125 2249.169677734375 2040.73388671875 1405.437744140625 1294.773681640625 1637.00244140625 1253.4173583984375 535.09783935546875 553.48876953125 247.7209320068359375 258.815673828125 251.5896759033203125 115.14044952392578125 373.443115234375 243.3073272705078125 486.411529541015625 1394.824951171875 1863.1099853515625 1676.0269775390625 1347.031982421875 1531.4798583984375 1999.665771484375 1825.7811279296875 1111.825439453125 607.39617919921875 931.56549072265625 759.80938720703125 876.3927001953125 1547.8734130859375 1428.137939453125 815.35955810546875 332.08074951171875 400.595458984375 383.523529052734375 187.35540771484375 55.815105438232421875 209.987060546875 368.135223388671875 1095.3712158203125 1323.0672607421875 1424.85302734375 1005.27288818359375 1070.5584716796875 1611.5589599609375 1784.561767578125 2172.9892578125 2391.358154296875 1655.112548828125 820.619384765625 675.244140625 802.5753173828125 736.6878662109375 625.949951171875 267.814056396484375 363.942138671875 602.9053955078125 1348.6632080078125 1488.6044921875 1390.4598388671875 943.7352294921875 nan 
nan 2418.286376953125 2181.664306640625 2292.315185546875 2079.31591796875 1241.8343505859375 517.43585205078125 203.8467254638671875 193.00189208984375 204.1313629150390625 350.4600830078125 995.23822021484375 844.99920654296875 368.212432861328125 444.686309814453125 748.50885009765625 1417.1632080078125 2019.272216796875 1770.984130859375 1503.4354248046875 1101.990966796875 792.0863037109375 1372.013427734375 1829.8072509765625 1095.511962890625 394.16156005859375 669.488037109375 1304.880126953125 1072.6781005859375 474.376007080078125 335.50439453125 276.43280029296875 861.8551025390625 1173.77978515625 898.30810546875 886.0196533203125 839.66156005859375 1305.788818359375 1944.7955322265625 2771.583740234375 3556.2099609375 3254.470703125 2369.94140625 1585.8448486328125 992.48486328125 756.89599609375 1261.2254638671875 2132.435546875 3080.891845703125 4051.10791015625 4930.79541015625 5516.935546875 6031.18701171875 6644.96044921875 7344.03759765625 8104.99169921875 8523.9677734375 7789.1484375 6802.73291015625 5820.53369140625 4845.67138671875 3883.912109375 2947.688720703125 2070.60791015625 1360.371826171875 1129.638916015625 1484.3870849609375 1220.4263916015625 745.77557373046875 643.92901611328125 941.995361328125 1748.5181884765625 1962.8536376953125 1535.9312744140625 1568.5260009765625 1738.81005859375 1822.4842529296875 1348.4578857421875 714.70843505859375 580.849853515625 1070.9151611328125 1195.39990234375 856.9232177734375 707.86077880859375 818.4468994140625 542.960205078125 681.108154296875 1338.5208740234375 1233.9715576171875 836.26922607421875 590.55841064453125 500.83001708984375 715.77545166015625 596.591796875 737.16119384765625 542.44818115234375 628.87451171875 672.31597900390625 678.776611328125 881.33111572265625 573.864013671875 742.53485107421875 1199.5625 670.3651123046875 702.751220703125 1258.237548828125 628.6328125 443.086395263671875 1333.313232421875 2038.30419921875 1675.512451171875 801.685546875 612.77325439453125 1364.4320068359375 1624.8223876953125 1216.56884765625 1074.427978515625 505.1934814453125 166.977081298828125 193.7325897216796875 241.9797210693359375 505.40338134765625 163.129364013671875 721.2750244140625 1633.7672119140625 2441.75390625 2429.037841796875 2200.485107421875 2235.347900390625 2010.8792724609375 1559.414306640625 1379.396728515625 1345.7891845703125 1270.798095703125 588.8331298828125 445.32965087890625 1057.033203125 1063.498291015625 457.0552978515625 396.192901611328125 544.42352294921875 461.886260986328125 270.604217529296875 85.64682769775390625 27.093791961669921875 216.34259033203125 735.020751953125 585.73846435546875 949.72845458984375 571.91766357421875 670.32769775390625 984.258056640625 1081.0240478515625 1763.777587890625 2005.57470703125 1363.0068359375 730.712890625 600.67047119140625 361.64654541015625 268.9078369140625 613.157958984375 331.144378662109375 274.047027587890625 489.690185546875 971.7620849609375 1011.7110595703125 1417.926513671875 1310.352294921875 nan 
nan 1663.705322265625 1338.168701171875 1630.12548828125 2116.179931640625 1772.4927978515625 1087.5596923828125 479.160797119140625 279.0482177734375 238.05010986328125 530.5933837890625 980.2923583984375 479.047698974609375 409.061676025390625 1041.2630615234375 1463.352783203125 1953.0970458984375 1918.5291748046875 1123.9554443359375 745.26019287109375 793.7528076171875 547.32513427734375 1231.49609375 1855.5010986328125 1258.13037109375 507.528717041015625 454.409271240234375 776.5440673828125 855.0042724609375 540.6092529296875 745.07916259765625 316.051055908203125 558.97930908203125 1216.296875 1077.140380859375 633.327880859375 401.076629638671875 704.6590576171875 1539.0369873046875 2504.178466796875 3445.550537109375 3475.6748046875 2655.0478515625 1861.1064453125 1024.650390625 486.76068115234375 1055.9595947265625 2011.0731201171875 2992.651123046875 3837.762939453125 4316.63916015625 4747.1357421875 5321.115234375 6007.84912109375 6773.01611328125 7593.091796875 8314.2177734375 7951.6181640625 6998.68603515625 6038.82958984375 5086.4765625 4145.13037109375 3221.418701171875 2336.556396484375 1560.08544921875 1129.3125 1279.374755859375 932.84295654296875 481.863372802734375 1010.5406494140625 1590.7891845703125 2036.285400390625 1555.635498046875 797.24505615234375 820.969970703125 915.69012451171875 1173.329833984375 939.1890869140625 685.05450439453125 585.71331787109375 720.80706787109375 1161.0074462890625 663.02923583984375 561.546875 913.18878173828125 652.28228759765625 783.62139892578125 1137.3189697265625 1295.0281982421875 895.1038818359375 628.49609375 782.4984130859375 568.26568603515625 419.577789306640625 517.54693603515625 546.20477294921875 793.90350341796875 758.751220703125 592.19781494140625 475.233184814453125 761.4415283203125 960.14898681640625 788.1842041015625 709.8035888671875 777.24017333984375 1207.1988525390625 638.6424560546875 417.040496826171875 1027.2965087890625 1488.46142578125 1629.51953125 925.3756103515625 758.94830322265625 1463.286865234375 2122.97802734375 1861.4437255859375 1214.7117919921875 471.7286376953125 171.9375152587890625 247.2199554443359375 397.041961669921875 531.60736083984375 183.9608001708984375 879.57470703125 1829.8623046875 2556.19287109375 2452.68603515625 2367.108642578125 2329.0400390625 1575.0885009765625 826.4022216796875 885.61883544921875 1609.980712890625 1730.51513671875 995.39532470703125 556.31182861328125 935.09320068359375 702.3203125 549.572509765625 930.47259521484375 1197.8370361328125 1099.2200927734375 561.4366455078125 200.0877685546875 60.305492401123046875 88.5308990478515625 398.660125732421875 537.6385498046875 985.87066650390625 912.977783203125 899.02630615234375 481.33990478515625 555.15216064453125 1334.2764892578125 1523.1845703125 796.90374755859375 498.428314208984375 662.2080078125 276.511138916015625 235.2087249755859375 317.1756591796875 380.4854736328125 350.28302001953125 559.9776611328125 692.353759765625 462.36163330078125 1058.45849609375 821.513916015625 nan 
nan 1107.34033203125 586.70758056640625 1050.65673828125 1768.2486572265625 2131.238525390625 1645.1337890625 1093.8017578125 646.48638916015625 256.334564208984375 478.617218017578125 785.7786865234375 461.4215087890625 545.5933837890625 1279.5128173828125 1572.5718994140625 1847.0216064453125 1798.8023681640625 943.47430419921875 507.705474853515625 1037.2493896484375 1207.12451171875 1656.4110107421875 2193.293701171875 1637.495849609375 872.9366455078125 496.132476806640625 388.07318115234375 797.26953125 591.40826416015625 688.19189453125 358.84002685546875 290.00531005859375 715.71405029296875 703.736328125 466.91522216796875 706.47613525390625 809.0072021484375 1588.2647705078125 2529.671142578125 3430.639892578125 3327.420654296875 2394.61474609375 1489.0455322265625 808.7054443359375 828.20745849609375 1436.7518310546875 2243.146728515625 2950.942138671875 3226.45263671875 3504.659423828125 4007.35009765625 4673.02294921875 5442.17431640625 6276.7197265625 7153.95166015625 7999.96728515625 7904.82763671875 7032.64892578125 6103.28271484375 5134.75927734375 4144.4560546875 3151.6650390625 2165.217529296875 1204.242431640625 506.9859619140625 798.7332763671875 642.01611328125 597.95947265625 1350.754150390625 1993.7724609375 2229.154296875 1492.026123046875 664.93450927734375 609.4820556640625 453.894134521484375 872.87762451171875 789.36322021484375 555.06512451171875 616.4224853515625 444.336761474609375 642.1822509765625 871.70416259765625 842.2584228515625 538.08270263671875 686.53564453125 1016.19427490234375 551.88720703125 915.03607177734375 1390.7215576171875 1281.0308837890625 943.76361083984375 626.68353271484375 788.61474609375 704.54266357421875 527.11492919921875 503.464202880859375 455.863067626953125 547.46893310546875 766.8140869140625 1092.5533447265625 935.40277099609375 516.5577392578125 928.94659423828125 664.6007080078125 854.24395751953125 647.55914306640625 351.394378662109375 490.6539306640625 1030.26416015625 1681.0732421875 1479.1898193359375 1483.7314453125 1976.771240234375 2521.470703125 1961.597900390625 983.025146484375 228.57574462890625 267.458038330078125 468.84320068359375 698.01837158203125 513.44488525390625 229.6180877685546875 836.07177734375 1670.246337890625 2066.704833984375 1668.682373046875 1580.944580078125 1855.6278076171875 1341.7430419921875 599.6573486328125 723.11737060546875 1575.8232421875 2005.2630615234375 1596.3876953125 1134.9915771484375 818.028564453125 390.07354736328125 375.373260498046875 662.82537841796875 1103.98779296875 1404.4703369140625 803.8951416015625 205.6696319580078125 97.89302825927734375 43.568416595458984375 186.2704620361328125 875.40966796875 1060.0667724609375 625.93341064453125 852.66796875 467.09759521484375 358.330108642578125 783.94781494140625 1060.25 542.69219970703125 208.918426513671875 235.3427886962890625 241.1954803466796875 347.77081298828125 606.40234375 817.72503662109375 491.86871337890625 587.8599853515625 938.7781982421875 862.32171630859375 1001.28765869140625 581.12945556640625 nan 
nan 1106.6024169921875 542.46624755859375 617.60882568359375 1237.6529541015625 1927.1024169921875 1635.7496337890625 1319.925537109375 997.1368408203125 328.49267578125 186.3636322021484375 445.16314697265625 319.714569091796875 432.763580322265625 977.87884521484375 827.0653076171875 1228.0557861328125 1627.823974609375 1086.5498046875 921.338134765625 1471.2257080078125 1989.87353515625 2356.44677734375 2685.671875 2143.729248046875 1570.083740234375 927.3157958984375 372.878936767578125 840.62237548828125 584.75274658203125 600.9996337890625 772.468994140625 414.02313232421875 261.414947509765625 699.04595947265625 997.57513427734375 1326.75732421875 1379.4288330078125 1784.939208984375 2480.875244140625 3265.019287109375 3234.545166015625 2294.77978515625 1323.797607421875 550.38092041015625 788.2352294921875 1522.7197265625 2174.29931640625 2381.035400390625 2369.295654296875 2718.44775390625 3341.28662109375 4116.1474609375 4972.28564453125 5874.046875 6803.451171875 7675.32763671875 7529.56689453125 6654.24853515625 5789.5 4942.341796875 4082.159423828125 3179.680419921875 2245.740966796875 1347.4041748046875 759.62579345703125 1008.34674072265625 935.13885498046875 844.76025390625 1129.40283203125 1461.105712890625 1907.86181640625 1580.375244140625 1041.1370849609375 643.169677734375 434.915069580078125 955.96209716796875 1282.13525390625 1185.9945068359375 886.77947998046875 419.686767578125 607.2232666015625 1263.44580078125 1426.09228515625 908.82086181640625 1036.5506591796875 1239.648193359375 746.966064453125 1063.3878173828125 1812.0477294921875 1605.058349609375 736.4051513671875 433.804901123046875 795.02264404296875 1207.5765380859375 1082.4495849609375 600.84674072265625 781.3812255859375 1245.9110107421875 1537.1785888671875 1763.348876953125 1422.9742431640625 1144.835693359375 1182.2340087890625 627.794189453125 807.691650390625 638.418212890625 359.73834228515625 694.75067138671875 1155.6015625 1318.9080810546875 1109.1357421875 1520.5390625 2265.379638671875 2664.0166015625 2000.1668701171875 1123.3238525390625 342.8126220703125 335.28826904296875 624.72930908203125 486.059356689453125 315.127044677734375 195.0540771484375 645.67791748046875 1138.775634765625 1446.488037109375 950.0731201171875 801.02593994140625 1369.974609375 1013.40814208984375 457.378936767578125 967.57781982421875 1489.5523681640625 1551.25048828125 1751.66845703125 1196.1705322265625 415.4937744140625 286.73785400390625 667.34539794921875 562.3690185546875 928.28314208984375 908.04791259765625 712.036376953125 220.5646514892578125 216.45306396484375 54.221099853515625 237.3433380126953125 1029.052490234375 1131.9732666015625 518.3154296875 701.91510009765625 985.278076171875 592.55535888671875 349.17474365234375 724.23382568359375 748.8369140625 454.287078857421875 228.1982269287109375 193.3746795654296875 494.382110595703125 1123.8531494140625 902.12603759765625 649.53131103515625 1133.5443115234375 1619.81201171875 1513.0718994140625 833.63714599609375 351.8143310546875 nan 
nan 1575.8848876953125 847.0137939453125 439.62890625 1120.31103515625 1661.153564453125 1038.386962890625 673.213623046875 1069.1282958984375 883.62353515625 403.759613037109375 343.927947998046875 272.715301513671875 563.87646484375 671.7060546875 480.313385009765625 989.37408447265625 1222.373291015625 584.90289306640625 585.695556640625 1397.428955078125 2323.015625 3046.112060546875 3310.822998046875 2818.988037109375 2162.614013671875 1365.308837890625 896.22576904296875 1155.0760498046875 1020.424560546875 1081.6243896484375 1252.9515380859375 580.9237060546875 257.696685791015625 590.48040771484375 1240.9366455078125 1400.175048828125 1001.959716796875 1250.8861083984375 2019.221923828125 2926.467529296875 3293.893798828125 2521.9208984375 1686.5406494140625 1086.770263671875 774.3702392578125 967.03759765625 1624.87646484375 1572.322998046875 1520.2069091796875 2019.6434326171875 2802.342529296875 3692.335205078125 4627.71923828125 5585.4853515625 6555.98291015625 7435.208984375 7203.22412109375 6277.1787109375 5361.42333984375 4479.58984375 3656.02392578125 2921.842529296875 2298.0166015625 1798.1146240234375 1541.5238037109375 1702.7547607421875 1499.8807373046875 813.85626220703125 450.52667236328125 877.7825927734375 1278.9910888671875 953.58697509765625 731.74835205078125 479.404205322265625 410.71630859375 890.245361328125 1303.7474365234375 1406.7728271484375 1413.1116943359375 1150.7833251953125 1327.483154296875 1804.1396484375 2023.709716796875 1642.30322265625 1670.1903076171875 1791.731201171875 1541.7706298828125 1722.1859130859375 2186.95947265625 1892.7901611328125 1212.2027587890625 679.7803955078125 776.352783203125 1573.821533203125 1739.9285888671875 1313.958740234375 1437.977783203125 1978.18212890625 2358.385009765625 2531.689208984375 2160.276123046875 1929.28955078125 1737.1107177734375 1348.6497802734375 1291.8824462890625 662.86767578125 377.51690673828125 1162.9775390625 1553.981689453125 941.25848388671875 480.03448486328125 1126.0684814453125 2063.364990234375 2281.558837890625 1611.0587158203125 1046.913818359375 542.44207763671875 242.5130157470703125 185.96026611328125 104.06182098388671875 116.250518798828125 198.5581512451171875 540.08319091796875 540.1973876953125 1117.2913818359375 739.52337646484375 548.685546875 1287.643310546875 1157.0640869140625 737.20184326171875 1131.467041015625 968.76776123046875 776.51922607421875 1367.42724609375 1354.3463134765625 663.2198486328125 558.372314453125 1064.3231201171875 927.54559326171875 915.074951171875 460.025054931640625 465.54693603515625 267.59515380859375 395.971527099609375 114.39306640625 398.19439697265625 1295.0408935546875 1489.5145263671875 676.275146484375 417.9173583984375 928.04351806640625 842.25042724609375 796.6756591796875 921.2508544921875 617.5135498046875 354.14227294921875 298.4769287109375 559.2313232421875 750.239990234375 962.8934326171875 533.6331787109375 574.53765869140625 1349.4527587890625 2152.24755859375 1882.7344970703125 952.441162109375 364.9951171875 nan 
nan 1535.759765625 901.62890625 848.150146484375 1241.2625732421875 1396.6661376953125 910.34429931640625 500.804229736328125 1102.568359375 1119.341796875 418.976959228515625 223.0717010498046875 419.655548095703125 594.80084228515625 602.84417724609375 992.769287109375 1315.7230224609375 1114.2850341796875 456.059783935546875 716.20477294921875 1488.33935546875 2327.588623046875 3051.64697265625 3594.378662109375 3421.008056640625 2672.17822265625 1956.72314453125 1401.809326171875 1151.55419921875 1345.3536376953125 1589.2337646484375 1543.750244140625 1142.568359375 679.43707275390625 296.38970947265625 741.943359375 1044.1708984375 486.998321533203125 858.3060302734375 1800.626220703125 2786.90234375 3478.92041015625 2976.86474609375 2163.84912109375 1309.7158203125 487.951416015625 674.50640869140625 1190.8975830078125 819.87432861328125 778.31097412109375 1532.8699951171875 2475.324951171875 3451.06494140625 4437.75439453125 5429.2099609375 6423.4013671875 7292.4892578125 6973.36669921875 6006.423828125 5042.69677734375 4096.24755859375 3181.181396484375 2332.684814453125 1660.4268798828125 1421.9512939453125 1730.393310546875 2161.3544921875 1710.1663818359375 836.16131591796875 344.29046630859375 502.4351806640625 791.3953857421875 375.7447509765625 485.208740234375 904.9837646484375 974.6571044921875 1095.070556640625 687.262939453125 848.37506103515625 1585.2596435546875 1926.34375 2163.578125 2426.55224609375 2147.49267578125 1516.6500244140625 1344.1719970703125 1763.1712646484375 2208.235107421875 2247.15869140625 1978.16796875 1806.5391845703125 1736.6419677734375 1383.079833984375 1363.658203125 1840.78173828125 2191.86083984375 2077.99365234375 2225.37109375 2693.905517578125 3148.4794921875 3046.898193359375 2390.373779296875 1850.349853515625 1679.4010009765625 1848.5697021484375 1607.2518310546875 686.79443359375 369.585205078125 1230.6287841796875 1790.7003173828125 1180.5679931640625 807.0179443359375 1312.29443359375 2109.798583984375 1938.2730712890625 1054.381591796875 466.051727294921875 654.14044189453125 519.0826416015625 267.697174072265625 117.77207183837890625 111.1214141845703125 197.6147308349609375 623.663818359375 776.4119873046875 1327.827392578125 1261.3870849609375 1142.4140625 1676.25390625 1777.569091796875 1548.292724609375 1511.40380859375 749.44854736328125 352.62176513671875 804.70281982421875 1010.812744140625 480.501953125 544.52838134765625 919.9044189453125 492.793701171875 676.11358642578125 395.900390625 306.002960205078125 271.437744140625 189.25897216796875 118.62433624267578125 536.8883056640625 1449.813232421875 1611.004638671875 740.1270751953125 309.41973876953125 522.814453125 537.22760009765625 895.01824951171875 787.8355712890625 381.708709716796875 350.509490966796875 552.6771240234375 673.44561767578125 469.338836669921875 695.1004638671875 351.008209228515625 745.1748046875 1617.347412109375 2436.80322265625 2159.59375 1334.7515869140625 770.86578369140625 nan 
nan 1222.9189453125 463.680694580078125 533.67132568359375 730.87835693359375 814.50262451171875 1100.058349609375 909.20892333984375 1166.5274658203125 673.864990234375 240.2055816650390625 235.99322509765625 797.586181640625 1199.26123046875 1136.6812744140625 1049.3203125 1161.395263671875 1203.080810546875 954.94183349609375 1286.196533203125 1593.0155029296875 1869.7640380859375 2434.9990234375 3200.14697265625 3678.22607421875 3054.242919921875 2122.41943359375 1174.4947509765625 516.0518798828125 892.9591064453125 1055.504638671875 1078.690185546875 1327.02392578125 868.7572021484375 321.7379150390625 363.56988525390625 911.25048828125 924.821533203125 1207.4742431640625 1992.2601318359375 2892.87646484375 3604.0478515625 3259.6689453125 2309.501220703125 1363.9830322265625 654.01806640625 870.6728515625 872.13690185546875 363.02374267578125 660.4239501953125 1488.0302734375 2447.890625 3431.478271484375 4422.5546875 5416.7998046875 6412.9189453125 7252.59814453125 6850.77099609375 5859.7412109375 4866.9912109375 3878.031005859375 2897.001708984375 1934.930419921875 1044.335205078125 653.193115234375 1249.47314453125 1772.9071044921875 1621.9776611328125 1119.4078369140625 507.186614990234375 559.52581787109375 938.87066650390625 672.08837890625 647.531005859375 657.15313720703125 836.13665771484375 1019.9794921875 623.82623291015625 634.60174560546875 1229.4219970703125 2030.3717041015625 2763.31494140625 2719.64990234375 1842.318115234375 938.60015869140625 624.78765869140625 1325.736083984375 2125.5205078125 1952.1253662109375 1257.87646484375 1039.433837890625 1536.5379638671875 1666.83349609375 1246.4876708984375 1347.8631591796875 1687.2779541015625 1913.3250732421875 2432.751220703125 3125.47314453125 3559.83935546875 2892.16845703125 1962.580078125 1155.599365234375 908.6536865234375 1486.05712890625 1595.0523681640625 697.54888916015625 374.528533935546875 1211.4344482421875 1975.803466796875 1828.8631591796875 1635.0115966796875 1940.91845703125 2389.64990234375 1800.9744873046875 816.66961669921875 198.4346923828125 609.2923583984375 1075.0426025390625 888.17022705078125 321.59130859375 196.135650634765625 667.79632568359375 1207.164306640625 1546.355712890625 1886.4796142578125 1978.3382568359375 1968.2838134765625 2342.201904296875 2543.36865234375 2359.40673828125 1855.6871337890625 932.703857421875 291.425750732421875 243.7656707763671875 588.46221923828125 563.61077880859375 808.50689697265625 1126.9847412109375 747.7099609375 1056.041748046875 1019.075439453125 510.21856689453125 259.7525634765625 85.48642730712890625 238.8054046630859375 940.30413818359375 1689.7020263671875 1601.409423828125 856.6436767578125 397.716766357421875 469.05987548828125 724.771240234375 429.893096923828125 231.37518310546875 232.632476806640625 473.70489501953125 752.785400390625 415.90740966796875 347.9617919921875 669.26507568359375 657.91644287109375 936.4300537109375 1788.5054931640625 2665.954833984375 2534.34228515625 1633.966796875 758.64105224609375 nan 
nan 1415.077880859375 749.00384521484375 332.206146240234375 388.324981689453125 554.220458984375 866.88775634765625 509.975128173828125 922.53118896484375 507.62579345703125 299.955291748046875 286.356719970703125 792.21026611328125 1314.7938232421875 1291.8780517578125 566.87896728515625 664.4522705078125 733.09613037109375 652.63201904296875 1153.6182861328125 949.8194580078125 1137.5556640625 1898.180419921875 2803.342041015625 3491.44775390625 2974.004638671875 2101.965087890625 1218.5284423828125 427.2880859375 516.75775146484375 390.684295654296875 402.67376708984375 999.89276123046875 883.81658935546875 414.1458740234375 337.61572265625 589.80279541015625 1246.5628662109375 1632.8909912109375 2206.0302734375 2725.411865234375 3122.044677734375 3292.402587890625 2623.217041015625 1848.175537109375 1394.204345703125 1328.7423095703125 731.295166015625 451.867034912109375 1134.8450927734375 1902.6591796875 2729.083251953125 3637.120361328125 4583.8154296875 5549.17919921875 6525.0869140625 7316.7841796875 6841.5107421875 5846.52685546875 4851.06689453125 3858.01171875 2870.13134765625 1895.406005859375 980.33343505859375 583.741455078125 1154.365234375 1162.6630859375 929.21624755859375 958.25341796875 444.75616455078125 907.216552734375 1477.5338134765625 979.69915771484375 459.175323486328125 483.30316162109375 545.86614990234375 504.980438232421875 726.5535888671875 411.26812744140625 886.85284423828125 1839.408447265625 2782.651611328125 2790.320556640625 1870.318115234375 991.18975830078125 689.09136962890625 1348.7744140625 1774.6199951171875 1333.2965087890625 783.423095703125 482.03790283203125 1147.1846923828125 1235.1873779296875 571.74346923828125 690.74835205078125 860.4517822265625 1189.7603759765625 1961.9044189453125 2869.205322265625 3327.764404296875 2716.779541015625 1797.0577392578125 853.02105712890625 513.40423583984375 1275.5616455078125 1587.803466796875 756.2611083984375 286.18609619140625 962.98828125 1592.6220703125 2028.04248046875 2393.8798828125 2708.42724609375 2733.41064453125 1897.505126953125 978.12652587890625 450.35272216796875 979.89825439453125 1447.3546142578125 1018.25787353515625 309.15484619140625 145.8787384033203125 775.83740234375 1495.434326171875 1699.031005859375 1747.353759765625 1895.4708251953125 2331.312744140625 2870.803955078125 2921.26513671875 2587.8857421875 1990.3770751953125 1192.1988525390625 709.82562255859375 295.96466064453125 610.75616455078125 1188.804931640625 1485.68994140625 1725.3402099609375 1467.1983642578125 1598.3466796875 1601.1104736328125 893.47015380859375 225.0342864990234375 45.406707763671875 409.829742431640625 1316.682861328125 1890.20361328125 1265.24462890625 494.7020263671875 276.3380126953125 353.20916748046875 588.40509033203125 206.9364166259765625 210.170989990234375 185.2724609375 158.7433013916015625 607.177001953125 682.2696533203125 428.8629150390625 969.95330810546875 1399.6358642578125 1609.14013671875 2226.78271484375 2981.804443359375 2807.03076171875 1941.4842529296875 1260.3062744140625 nan 
nan 1305.7982177734375 1149.08984375 713.92230224609375 362.66729736328125 614.61346435546875 990.276611328125 643.33441162109375 660.18389892578125 650.13653564453125 277.420135498046875 191.871002197265625 282.264617919921875 775.53387451171875 1294.990966796875 914.52252197265625 961.7279052734375 733.754638671875 454.81500244140625 808.1346435546875 371.70263671875 725.75823974609375 1661.839111328125 2646.8173828125 3241.5859375 2577.791015625 1731.5233154296875 1090.15576171875 512.88067626953125 303.020965576171875 498.83013916015625 604.16998291015625 1174.1094970703125 1365.7987060546875 1077.046142578125 734.9156494140625 396.96685791015625 796.61395263671875 1099.4947509765625 1684.0042724609375 1949.488037109375 2390.507568359375 3045.162353515625 3101.794677734375 2559.76220703125 2230.97216796875 1824.2845458984375 1122.7734375 986.5286865234375 1612.7767333984375 2438.449462890625 3227.65673828125 4033.478759765625 4904.11279296875 5816.4677734375 6753.810546875 7482.05517578125 6946.4033203125 5967.71240234375 4996.51123046875 4039.489990234375 3110.077392578125 2242.87109375 1548.3057861328125 1320.3363037109375 1467.9405517578125 853.14813232421875 497.288116455078125 826.61328125 486.720123291015625 999.81365966796875 1502.114990234375 1067.33544921875 779.01812744140625 568.66949462890625 525.196533203125 725.6768798828125 750.156982421875 367.633758544921875 821.764404296875 1765.718017578125 2738.53857421875 3017.248291015625 2274.550048828125 1629.08251953125 1454.0869140625 1788.0396728515625 1493.7633056640625 696.8770751953125 603.43206787109375 498.225494384765625 798.646484375 990.55877685546875 382.670867919921875 570.23602294921875 354.4019775390625 808.856689453125 1746.5096435546875 2678.55908203125 2769.102783203125 2237.628173828125 1795.4423828125 1244.1328125 1013.11541748046875 1481.3314208984375 1501.8148193359375 839.66497802734375 306.072723388671875 503.70159912109375 872.55377197265625 1594.3333740234375 2501.49365234375 3272.5146484375 3110.262451171875 2266.8134765625 1521.3426513671875 1163.4459228515625 1361.860107421875 1100.13232421875 487.70172119140625 108.64699554443359375 206.6338348388671875 696.849609375 1034.4146728515625 929.56298828125 931.00140380859375 1151.8702392578125 1854.6959228515625 2577.039306640625 2340.25732421875 1877.146484375 1591.4051513671875 887.0599365234375 438.222259521484375 314.702423095703125 529.729736328125 1350.9676513671875 2025.9085693359375 1947.1649169921875 1315.0062255859375 1142.4556884765625 1451.5074462890625 1021.3712158203125 240.690643310546875 64.445281982421875 536.564453125 1309.5594482421875 1657.7750244140625 1105.819091796875 378.123504638671875 251.317108154296875 255.7486572265625 261.43145751953125 174.4608001708984375 206.3748016357421875 280.944091796875 386.888702392578125 353.78692626953125 753.66058349609375 999.6695556640625 1495.3546142578125 2140.591796875 2420.731201171875 2873.205322265625 3473.299072265625 3245.274169921875 2527.459228515625 2049.314697265625 nan 
nan 606.25054931640625 963.4412841796875 1264.228515625 771.9583740234375 599.41400146484375 994.72113037109375 908.02532958984375 454.02642822265625 870.79034423828125 604.32183837890625 268.11181640625 193.76611328125 592.48382568359375 1462.5816650390625 1693.03076171875 1611.40673828125 1008.98675537109375 452.09405517578125 788.53936767578125 680.83331298828125 1044.5906982421875 1851.586669921875 2768.88525390625 3173.36474609375 2354.843505859375 1381.7781982421875 577.0526123046875 328.694671630859375 531.1810302734375 567.66412353515625 633.5167236328125 1454.2052001953125 2009.4786376953125 1854.677734375 1297.182373046875 857.7855224609375 525.46331787109375 586.5579833984375 974.4840087890625 1140.9014892578125 1788.381591796875 2665.166015625 3410.70556640625 3347.865966796875 3009.323974609375 2409.55810546875 1879.1231689453125 1796.62744140625 2215.040771484375 2929.732177734375 3753.192138671875 4556.48486328125 5354.67529296875 6201.12744140625 7087.7294921875 7741.6103515625 7160.67431640625 6215.3671875 5289.916015625 4397.37255859375 3562.843994140625 2837.876220703125 2326.9775390625 2099.443359375 1649.5145263671875 825.19049072265625 454.31170654296875 784.47088623046875 755.11370849609375 1151.4930419921875 953.40106201171875 561.959716796875 408.92071533203125 775.6474609375 1106.768310546875 1478.239501953125 1328.89990234375 963.3013916015625 1211.9505615234375 1980.8487548828125 2892.43017578125 3412.845703125 2903.822021484375 2430.47998046875 2313.876220703125 2288.57568359375 1544.6517333984375 757.180908203125 684.196533203125 589.509521484375 843.869384765625 1247.699462890625 933.40484619140625 1047.6949462890625 897.61553955078125 1186.8560791015625 1952.50927734375 2657.843017578125 2235.611328125 1502.0084228515625 1221.204345703125 1349.6822509765625 1044.781005859375 1213.596923828125 1195.730712890625 515.9256591796875 418.301544189453125 231.5146026611328125 598.466796875 1461.53369140625 2437.012939453125 3394.293212890625 3535.8291015625 2832.98193359375 2256.28173828125 1892.3499755859375 1349.3729248046875 595.1019287109375 140.0116729736328125 374.92266845703125 814.23028564453125 1098.7366943359375 728.65020751953125 400.60247802734375 359.824615478515625 599.54766845703125 1500.5711669921875 2223.029541015625 1738.72412109375 1077.96826171875 899.9144287109375 607.46783447265625 201.0843963623046875 280.4908447265625 295.7579345703125 990.96881103515625 1777.990234375 1683.198974609375 795.6370849609375 454.902587890625 1041.3885498046875 740.3026123046875 154.924041748046875 81.39191436767578125 363.665313720703125 865.88397216796875 927.02996826171875 803.21014404296875 352.1976318359375 266.574798583984375 321.640228271484375 228.0434112548828125 279.40594482421875 498.744354248046875 837.7919921875 735.40118408203125 653.15899658203125 864.8482666015625 1384.1265869140625 1998.7347412109375 2743.21826171875 3246.555419921875 3621.64501953125 4095.171630859375 3841.582275390625 3253.855712890625 2897.283935546875 nan 
nan 543.51397705078125 945.364990234375 1629.0260009765625 1215.8968505859375 487.36505126953125 737.258544921875 1186.67431640625 982.44769287109375 1096.016845703125 493.528106689453125 277.72119140625 406.471893310546875 886.04913330078125 1723.58544921875 2341.804931640625 2027.4783935546875 1180.1832275390625 668.00457763671875 1068.7830810546875 1378.170166015625 1655.76611328125 2289.157958984375 3082.21142578125 3284.23291015625 2416.478271484375 1486.7225341796875 739.74639892578125 364.32403564453125 836.73797607421875 819.71636962890625 832.08837890625 1596.6268310546875 2441.08984375 2485.39306640625 1910.5589599609375 1476.27294921875 886.191650390625 405.25946044921875 436.626678466796875 619.048828125 1499.2611083984375 2482.0537109375 3459.745361328125 3986.796630859375 3636.255126953125 3026.816162109375 2621.8046875 2563.2099609375 2871.74853515625 3452.562255859375 4194.95751953125 5017.34375 5828.23095703125 6623.73828125 7460.0419921875 8042.44091796875 7433.64892578125 6528.0927734375 5654.40478515625 4830.263671875 4086.05126953125 3473.284423828125 3044.73193359375 2485.40087890625 1559.389404296875 635.4176025390625 319.0975341796875 566.95330810546875 480.783843994140625 1003.76483154296875 547.151123046875 472.50885009765625 597.90582275390625 1058.4072265625 1745.031494140625 2167.035400390625 2014.140625 1718.9464111328125 1864.190673828125 2438.094970703125 3223.83642578125 3857.58544921875 3557.048583984375 3183.1279296875 3073.0849609375 2715.8056640625 1934.83837890625 1350.3221435546875 805.77972412109375 491.05224609375 1169.828125 1775.9837646484375 1680.5167236328125 1741.90869140625 1663.69140625 1845.0657958984375 2406.04150390625 2726.63525390625 1941.0247802734375 1007.15106201171875 561.81378173828125 959.66766357421875 523.44549560546875 760.94384765625 1242.2012939453125 841.7677001953125 750.827880859375 265.2747802734375 688.88922119140625 1589.09033203125 2550.848876953125 3523.181396484375 3965.528564453125 3440.625732421875 2899.942626953125 2150.7470703125 1179.527587890625 296.537261962890625 254.0239715576171875 940.44805908203125 1472.8150634765625 1268.5458984375 551.719970703125 179.5981292724609375 144.00537109375 482.621368408203125 1428.21484375 2100.816162109375 1454.74365234375 572.1011962890625 249.315155029296875 146.99981689453125 68.952606201171875 64.87960052490234375 113.3495330810546875 580.55841064453125 1442.3975830078125 1531.437744140625 644.095947265625 358.54180908203125 1043.166259765625 897.65606689453125 245.794677734375 102.378997802734375 300.234130859375 351.004425048828125 293.225677490234375 343.204345703125 237.7499847412109375 218.142242431640625 249.8857879638671875 378.790435791015625 817.907470703125 1000.87713623046875 807.533935546875 394.044891357421875 788.961181640625 595.3238525390625 1016.08221435546875 1930.0316162109375 2895.04150390625 3769.82958984375 4320.41650390625 4716.66552734375 4453.14990234375 3956.0537109375 3668.8076171875 nan 
nan nan nan nan nan nan nan nan nan nan nan nan nan nan nan nan nan nan nan nan nan nan nan nan nan nan nan nan nan nan nan nan nan nan nan nan nan nan nan nan nan nan nan nan nan nan nan nan nan nan nan nan nan nan nan nan nan nan nan nan nan nan nan nan nan nan nan nan nan nan nan nan nan nan nan nan nan nan nan nan nan nan nan nan nan nan nan nan nan nan nan nan nan nan nan nan nan nan nan nan nan nan nan nan nan nan nan nan nan nan nan nan nan nan nan nan nan nan nan nan nan nan nan nan nan nan nan nan nan nan nan nan nan nan nan nan nan nan nan nan nan nan nan nan nan nan nan nan nan nan nan nan nan nan nan nan nan nan nan nan nan nan nan nan nan nan nan nan nan 
