ncols        169
nrows        113
xllcorner    381000.000000000000
yllcorner    3074000.000000000000
cellsize     1000.000000000000
NODATA_value nan
nan 0.11049008369445800781 nan nan nan nan nan nan nan nan nan nan nan nan nan nan nan nan nan nan nan nan nan nan nan nan nan nan nan nan nan nan nan nan nan nan nan nan nan nan 0.050346892327070236206 0.041869353502988815308 0.055446047335863113403 0.07546761631965637207 0.059374082833528518677 0.051564335823059082031 0.056269824504852294922 0.063505396246910095215 0.065089814364910125732 0.064545974135398864746 0.064073026180267333984 0.066788248717784881592 0.064853996038436889648 0.064512543380260467529 0.066604763269424438477 0.061257757246494293213 0.049811806529760360718 0.043940827250480651855 0.045212175697088241577 0.062461283057928085327 0.066101282835006713867 0.067563511431217193604 0.068614773452281951904 0.067172087728977203369 0.068590268492698669434 0.069828018546104431152 0.067175984382629394531 0.068587534129619598389 0.070049010217189788818 0.070437759160995483398 0.066506862640380859375 0.06284287571907043457 0.063114918768405914307 0.064788855612277984619 0.056885652244091033936 0.059623923152685165405 0.065159030258655548096 0.062415622174739837646 0.06069965660572052002 0.060504391789436340332 0.058874413371086120605 0.059378582984209060669 0.055486492812633514404 0.05095956847071647644 0.055772550404071807861 0.061192661523818969727 0.064054347574710845947 0.064504951238632202148 0.066247016191482543945 0.061591591686010360718 0.055281966924667358398 0.05989403650164604187 0.065252482891082763672 0.071370549499988555908 0.071228593587875366211 0.062155053019523620605 0.060071792453527450562 0.072734601795673370361 0.069785825908184051514 0.065448179841041564941 0.066272102296352386475 0.065470218658447265625 0.067087754607200622559 0.068959362804889678955 0.067592278122901916504 0.068710863590240478516 0.066703937947750091553 0.060495126992464065552 0.066259548068046569824 0.07048902660608291626 0.070033490657806396484 0.06698684394359588623 0.061591446399688720703 0.062348317354917526245 0.06577406078577041626 0.069592736661434173584 0.067759744822978973389 0.065002858638763427734 0.063260436058044433594 0.072180934250354766846 0.072425521910190582275 0.061395302414894104004 0.060270205140113830566 0.06221440434455871582 0.065488435328006744385 0.062547340989112854004 0.064397782087326049805 0.069340050220489501953 0.07385520637035369873 0.070054411888122558594 0.074952080845832824707 0.069900199770927429199 0.069594718515872955322 0.070940941572189331055 0.069203540682792663574 0.066498510539531707764 0.064807876944541931152 0.059463966637849807739 0.055544245988130569458 0.060102961957454681396 0.062622085213661193848 0.047035071998834609985 0.058118492364883422852 0.059846501797437667847 0.064465597271919250488 0.069014988839626312256 0.06866741180419921875 0.065624453127384185791 0.064274378120899200439 0.062568582594394683838 0.059487096965312957764 0.061407469213008880615 0.059477861970663070679 0.058586679399013519287 0.062279075384140014648 0.063861936330795288086 0.064275331795215606689 0.06433998793363571167 0.066859379410743713379 0.067736767232418060303 0.067251868546009063721 0.0682794228196144104 0.066608116030693054199 0.064247652888298034668 0.067354872822761535645 0.068351320922374725342 0.067095398902893066406 0.067502923309803009033 0.017869858071208000183 
nan 0.19348128139972686768 0.31595724821090698242 0.32194957137107849121 0.3470000922679901123 0.35181877017021179199 0.35891416668891906738 0.36107525229454040527 0.36828482151031494141 0.36282935738563537598 0.36160874366760253906 0.36724421381950378418 0.37843978404998779297 0.40494036674499511719 0.40588137507438659668 0.40439122915267944336 0.41628721356391906738 0.44703245162963867188 0.45226582884788513184 0.44376507401466369629 0.42007008194923400879 0.40998426079750061035 0.41881129145622253418 0.3865744173526763916 0.20012263953685760498 0.15277819335460662842 0.11426597833633422852 0.043010253459215164185 0.071006380021572113037 0.27950179576873779297 0.35411164164543151855 0.25410240888595581055 0.14698363840579986572 0.2403323054313659668 0.33469480276107788086 0.37515941262245178223 0.39827823638916015625 0.38438054919242858887 0.34942808747291564941 0.33125227689743041992 0.31426513195037841797 0.28551906347274780273 0.33800166845321655273 0.41915670037269592285 0.34334585070610046387 0.31408202648162841797 0.34034016728401184082 0.37141805887222290039 0.37589418888092041016 0.37424948811531066895 0.37637084722518920898 0.39161449670791625977 0.38239178061485290527 0.37535116076469421387 0.38455694913864135742 0.35636940598487854004 0.27147081494331359863 0.25488555431365966797 0.275867462158203125 0.36110144853591918945 0.3859081268310546875 0.38960543274879455566 0.3958308100700378418 0.3902415931224822998 0.39424055814743041992 0.40370360016822814941 0.3953469395637512207 0.4005553126335144043 0.40716454386711120605 0.40248781442642211914 0.37815755605697631836 0.36359494924545288086 0.36650344729423522949 0.37260106205940246582 0.35162985324859619141 0.36295074224472045898 0.39304178953170776367 0.35956132411956787109 0.35172665119171142578 0.3467471003532409668 0.34364974498748779297 0.34947940707206726074 0.32848727703094482422 0.3041356503963470459 0.33375909924507141113 0.35813114047050476074 0.37440550327301025391 0.37999126315116882324 0.38745895028114318848 0.34687042236328125 0.32329615950584411621 0.35858803987503051758 0.38251703977584838867 0.41420319676399230957 0.40801152586936950684 0.35398831963539123535 0.3546441197395324707 0.41928121447563171387 0.40951773524284362793 0.39441895484924316406 0.3949661552906036377 0.39187595248222351074 0.40630856156349182129 0.4147720634937286377 0.39731124043464660645 0.41142177581787109375 0.40332278609275817871 0.36105722188949584961 0.3977896273136138916 0.42425966262817382813 0.42361435294151306152 0.3959452509880065918 0.36814263463020324707 0.36791580915451049805 0.3813667595386505127 0.40192469954490661621 0.39200511574745178223 0.38184154033660888672 0.38408938050270080566 0.43242985010147094727 0.42415145039558410645 0.34455344080924987793 0.32840460538864135742 0.35666096210479736328 0.37478774785995483398 0.35592639446258544922 0.35897335410118103027 0.39307174086570739746 0.42367565631866455078 0.41733860969543457031 0.42753756046295166016 0.39796519279479980469 0.40688630938529968262 0.42000630497932434082 0.4041595757007598877 0.38568568229675292969 0.38236442208290100098 0.35288405418395996094 0.3093077540397644043 0.34459263086318969727 0.35873579978942871094 0.27000689506530761719 0.34542423486709594727 0.35337048768997192383 0.36369699239730834961 0.38845413923263549805 0.39241722226142883301 0.38132688403129577637 0.37887123227119445801 0.37508895993232727051 0.35685768723487854004 0.35993698239326477051 0.35212147235870361328 0.34887343645095825195 0.36214599013328552246 0.37007811665534973145 0.3681634366512298584 0.38062840700149536133 0.3918590247631072998 0.3900343775749206543 0.38154783844947814941 0.39058727025985717773 0.38894551992416381836 0.38768950104713439941 0.39728146791458129883 0.38577875494956970215 0.39867183566093444824 0.40872457623481750488 0.13827714323997497559 
nan 0.17003971338272094727 0.30389359593391418457 0.33327656984329223633 0.35102921724319458008 0.36103346943855285645 0.35443323850631713867 0.36091348528861999512 0.37262001633644104004 0.3761024773120880127 0.37753316760063171387 0.37773248553276062012 0.38701000809669494629 0.39331802725791931152 0.38464525341987609863 0.38753604888916015625 0.4171403348445892334 0.43342816829681396484 0.43437695503234863281 0.42970252037048339844 0.41990339756011962891 0.4032281041145324707 0.41748645901679992676 0.41489189863204956055 0.37164577841758728027 0.37000420689582824707 0.29990202188491821289 0.14249271154403686523 0.067670464515686035156 0.14696711301803588867 0.29307138919830322266 0.30545571446418762207 0.17622721195220947266 0.17608599364757537842 0.29923725128173828125 0.35636770725250244141 0.36871132254600524902 0.35576677322387695313 0.35126540064811706543 0.34740856289863586426 0.34166917204856872559 0.34601172804832458496 0.35760530829429626465 0.36111390590667724609 0.34328719973564147949 0.33298757672309875488 0.3556963503360748291 0.36705312132835388184 0.36696323752403259277 0.36350455880165100098 0.36884316802024841309 0.38176777958869934082 0.38678213953971862793 0.38654944300651550293 0.37555003166198730469 0.34447500109672546387 0.26039487123489379883 0.28112736344337463379 0.31724056601524353027 0.35581934452056884766 0.37653309106826782227 0.37845596671104431152 0.38187900185585021973 0.39436665177345275879 0.39708882570266723633 0.39315244555473327637 0.38520786166191101074 0.38547798991203308105 0.39646217226982116699 0.37935036420822143555 0.35449141263961791992 0.35755041241645812988 0.35809239745140075684 0.35921382904052734375 0.36640799045562744141 0.36125853657722473145 0.35967749357223510742 0.34560769796371459961 0.34196302294731140137 0.33955112099647521973 0.34583526849746704102 0.34724408388137817383 0.34422776103019714355 0.33988821506500244141 0.36375534534454345703 0.36829990148544311523 0.37601202726364135742 0.38179996609687805176 0.38572144508361816406 0.33134683966636657715 0.36035189032554626465 0.3757699429988861084 0.39007258415222167969 0.40921932458877563477 0.39130556583404541016 0.35076913237571716309 0.32529377937316894531 0.38906383514404296875 0.40655213594436645508 0.40867921710014343262 0.39837214350700378418 0.40536266565322875977 0.43425065279006958008 0.4388605654239654541 0.41946291923522949219 0.44089969992637634277 0.43210169672966003418 0.36639243364334106445 0.40808969736099243164 0.43584525585174560547 0.44532173871994018555 0.42143324017524719238 0.3948624730110168457 0.3846314549446105957 0.39894428849220275879 0.41393804550170898438 0.4073696434497833252 0.40361207723617553711 0.38730591535568237305 0.42731007933616638184 0.44088545441627502441 0.33336722850799560547 0.31884673237800598145 0.33948734402656555176 0.35815739631652832031 0.34446585178375244141 0.28971183300018310547 0.3057982325553894043 0.40284460783004760742 0.41942363977432250977 0.40775930881500244141 0.3735752105712890625 0.39816898107528686523 0.40931662917137145996 0.40212205052375793457 0.38667944073677062988 0.37845718860626220703 0.35873270034790039063 0.30674338340759277344 0.31449013948440551758 0.3361027836799621582 0.26570099592208862305 0.32228034734725952148 0.34220129251480102539 0.3283392786979675293 0.35027649998664855957 0.37548464536666870117 0.37588381767272949219 0.37683913111686706543 0.37154164910316467285 0.3573366701602935791 0.35593467950820922852 0.35433372855186462402 0.35107687115669250488 0.35806617140769958496 0.35945457220077514648 0.3567142188549041748 0.37268871068954467773 0.37469995021820068359 0.38044881820678710938 0.38311228156089782715 0.39095747470855712891 0.39320635795593261719 0.3927586972713470459 0.37726616859436035156 0.36928263306617736816 0.38283035159111022949 0.40320977568626403809 0.16153961420059204102 
nan 0.1607987135648727417 0.29157862067222595215 0.33757954835891723633 0.3483931422233581543 0.35237649083137512207 0.35497841238975524902 0.36673825979232788086 0.38109421730041503906 0.37762841582298278809 0.37462985515594482422 0.37226885557174682617 0.37278190255165100098 0.37270942330360412598 0.36607596278190612793 0.37182733416557312012 0.39177402853965759277 0.40455299615859985352 0.4025847315788269043 0.3943297266960144043 0.40285712480545043945 0.39935964345932006836 0.4062143862247467041 0.41625270247459411621 0.40980237722396850586 0.3921063840389251709 0.40026077628135681152 0.34196126461029052734 0.14074908196926116943 0.049654465168714523315 0.14394804835319519043 0.23396919667720794678 0.23029188811779022217 0.15860182046890258789 0.20739826560020446777 0.30070555210113525391 0.31457853317260742188 0.31374523043632507324 0.33339920639991760254 0.32653394341468811035 0.32947102189064025879 0.33575940132141113281 0.3371525108814239502 0.3370100557804107666 0.34315779805183410645 0.33931496739387512207 0.34451362490653991699 0.35396590828895568848 0.36830872297286987305 0.37252417206764221191 0.35475453734397888184 0.34845465421676635742 0.37687265872955322266 0.38904139399528503418 0.37497618794441223145 0.34160810708999633789 0.27289596199989318848 0.25454148650169372559 0.2703602910041809082 0.3371499180793762207 0.36504757404327392578 0.37602609395980834961 0.38051706552505493164 0.39343300461769104004 0.38849201798439025879 0.37836188077926635742 0.36872825026512145996 0.36347159743309020996 0.38793176412582397461 0.37626591324806213379 0.35328000783920288086 0.35863098502159118652 0.36303302645683288574 0.36348935961723327637 0.35466888546943664551 0.33764314651489257813 0.33025634288787841797 0.34133142232894897461 0.33661228418350219727 0.3406613767147064209 0.35896843671798706055 0.35236364603042602539 0.3553193509578704834 0.32185986638069152832 0.34152844548225402832 0.38134422898292541504 0.36937418580055236816 0.38930946588516235352 0.40187248587608337402 0.35266017913818359375 0.40075623989105224609 0.38407817482948303223 0.36368042230606079102 0.3793080747127532959 0.37178018689155578613 0.34322527050971984863 0.34803763031959533691 0.37451866269111633301 0.41096064448356628418 0.40070608258247375488 0.37265926599502563477 0.3814207613468170166 0.40198057889938354492 0.41979235410690307617 0.44575902819633483887 0.46285685896873474121 0.43643110990524291992 0.35604295134544372559 0.38321173191070556641 0.41320472955703735352 0.41951778531074523926 0.42116469144821166992 0.40661984682083129883 0.42438682913780212402 0.42141273617744445801 0.42005434632301330566 0.42616677284240722656 0.40773558616638183594 0.39529922604560852051 0.40380313992500305176 0.39329788088798522949 0.35630115866661071777 0.36580038070678710938 0.39173829555511474609 0.38208460807800292969 0.38205125927925109863 0.3451073765754699707 0.33660268783569335938 0.37627440690994262695 0.38067558407783508301 0.39623776078224182129 0.38989406824111938477 0.36510637402534484863 0.38827624917030334473 0.40136331319808959961 0.39479935169219970703 0.39131021499633789063 0.37553617358207702637 0.35810169577598571777 0.35674494504928588867 0.34386557340621948242 0.3099574744701385498 0.22291254997253417969 0.26305329799652099609 0.3096764981746673584 0.33365210890769958496 0.35765668749809265137 0.36393859982490539551 0.31772637367248535156 0.28009465336799621582 0.26580005884170532227 0.31223636865615844727 0.33073189854621887207 0.32190912961959838867 0.34865033626556396484 0.34486079216003417969 0.34785318374633789063 0.34802809357643127441 0.34862533211708068848 0.36442211270332336426 0.37347760796546936035 0.38437712192535400391 0.38695701956748962402 0.37166187167167663574 0.34386989474296569824 0.34936898946762084961 0.3708750307559967041 0.38883098959922790527 0.15701258182525634766 
nan 0.15361076593399047852 0.27499121427536010742 0.33796861767768859863 0.35655048489570617676 0.35682910680770874023 0.3571141362190246582 0.37200775742530822754 0.3799610137939453125 0.37244194746017456055 0.36042889952659606934 0.36016884446144104004 0.3717466890811920166 0.38823264837265014648 0.38735872507095336914 0.38091140985488891602 0.37698739767074584961 0.37575012445449829102 0.37048166990280151367 0.36418890953063964844 0.36626285314559936523 0.36686459183692932129 0.37386101484298706055 0.40204563736915588379 0.39809894561767578125 0.3884213566780090332 0.41688448190689086914 0.42926707863807678223 0.24932740628719329834 0.072919175028800964355 0.052847009152173995972 0.1201208457350730896 0.28525492548942565918 0.2397241741418838501 0.14910829067230224609 0.17800481617450714111 0.2516244053840637207 0.26269429922103881836 0.29532894492149353027 0.30740413069725036621 0.31882992386817932129 0.32944828271865844727 0.33833172917366027832 0.35222619771957397461 0.36593574285507202148 0.35613474249839782715 0.34127789735794067383 0.33435747027397155762 0.34610849618911743164 0.37583875656127929688 0.35899466276168823242 0.33790490031242370605 0.36999121308326721191 0.38388010859489440918 0.38315752148628234863 0.36464905738830566406 0.3236389458179473877 0.26009550690650939941 0.25122842192649841309 0.28270661830902099609 0.34478116035461425781 0.36914497613906860352 0.37955224514007568359 0.38423421978950500488 0.37919861078262329102 0.37708005309104919434 0.38217002153396606445 0.37228175997734069824 0.38759046792984008789 0.38661429286003112793 0.37111362814903259277 0.36424845457077026367 0.35849079489707946777 0.34586548805236816406 0.36600691080093383789 0.3412424623966217041 0.33077192306518554688 0.33697026968002319336 0.32868877053260803223 0.33196964859962463379 0.33937948942184448242 0.35108485817909240723 0.37869042158126831055 0.35553911328315734863 0.33886697888374328613 0.32106053829193115234 0.3507728874683380127 0.3872070014476776123 0.39920973777770996094 0.36296632885932922363 0.38983809947967529297 0.39589321613311767578 0.36276146769523620605 0.35269317030906677246 0.35732623934745788574 0.32704779505729675293 0.34666845202445983887 0.39272776246070861816 0.40944451093673706055 0.37498956918716430664 0.34028330445289611816 0.34332650899887084961 0.35566291213035583496 0.38247069716453552246 0.41666734218597412109 0.45531675219535827637 0.43073734641075134277 0.33777210116386413574 0.35926583409309387207 0.37590432167053222656 0.36904895305633544922 0.39762338995933532715 0.42466822266578674316 0.44174495339393615723 0.41169577836990356445 0.42055732011795043945 0.42976582050323486328 0.40220671892166137695 0.36145418882369995117 0.35842132568359375 0.38572597503662109375 0.38716730475425720215 0.39748710393905639648 0.38480177521705627441 0.36143440008163452148 0.38848870992660522461 0.35965439677238464355 0.34539866447448730469 0.38792645931243896484 0.39877802133560180664 0.37818318605422973633 0.36709731817245483398 0.37353235483169555664 0.39267560839653015137 0.39021709561347961426 0.39536273479461669922 0.39239889383316040039 0.3802000582218170166 0.38876461982727050781 0.39106062054634094238 0.38281267881393432617 0.36952942609786987305 0.32425758242607116699 0.26526924967765808105 0.33316770195960998535 0.36389589309692382813 0.36440035700798034668 0.34369501471519470215 0.26303723454475402832 0.28687942028045654297 0.32627087831497192383 0.30974593758583068848 0.28817629814147949219 0.2718760073184967041 0.31460654735565185547 0.34205305576324462891 0.34652334451675415039 0.34115359187126159668 0.34671115875244140625 0.35505592823028564453 0.36004984378814697266 0.3693008720874786377 0.37810617685317993164 0.38335335254669189453 0.37161618471145629883 0.38483178615570068359 0.41538023948669433594 0.43523994088172912598 0.16185934841632843018 
nan 0.16618491709232330322 0.3178793489933013916 0.3473053276538848877 0.34965747594833374023 0.36098814010620117188 0.3605766594409942627 0.3710097968578338623 0.38027134537696838379 0.3637199699878692627 0.34921014308929443359 0.35183900594711303711 0.37415871024131774902 0.38206937909126281738 0.38324907422065734863 0.38578313589096069336 0.39146780967712402344 0.37639346718788146973 0.36897692084312438965 0.36006024479866027832 0.36715641617774963379 0.35947984457015991211 0.35906949639320373535 0.37970015406608581543 0.39752364158630371094 0.40663090348243713379 0.40522646903991699219 0.42718976736068725586 0.3584200441837310791 0.11771289259195327759 0.07577660679817199707 0.090546742081642150879 0.18739686906337738037 0.23264274001121520996 0.20935486257076263428 0.13874141871929168701 0.15508347749710083008 0.1919460594654083252 0.2449417412281036377 0.26470783352851867676 0.28946962952613830566 0.31338739395141601563 0.3256886601448059082 0.33947131037712097168 0.35607585310935974121 0.35151901841163635254 0.33928722143173217773 0.32941782474517822266 0.33223927021026611328 0.3413867950439453125 0.36077231168746948242 0.35459256172180175781 0.37621253728866577148 0.39335840940475463867 0.39131468534469604492 0.37758898735046386719 0.35385790467262268066 0.33444091677665710449 0.32008510828018188477 0.29453250765800476074 0.31240412592887878418 0.3552843630313873291 0.36441266536712646484 0.37154048681259155273 0.37609857320785522461 0.38054692745208740234 0.38213717937469482422 0.37693431973457336426 0.39360517263412475586 0.40229660272598266602 0.38128674030303955078 0.3671042025089263916 0.3618468940258026123 0.35740569233894348145 0.3526763617992401123 0.34640643000602722168 0.33290392160415649414 0.32032534480094909668 0.32002153992652893066 0.33266970515251159668 0.32886707782745361328 0.34309405088424682617 0.38193452358245849609 0.37448716163635253906 0.3481070101261138916 0.30055990815162658691 0.34077370166778564453 0.37581619620323181152 0.36673820018768310547 0.35354834794998168945 0.38087052106857299805 0.40194761753082275391 0.37411469221115112305 0.37662070989608764648 0.36458063125610351563 0.30991086363792419434 0.35705873370170593262 0.40847036242485046387 0.40640908479690551758 0.3701375126838684082 0.36412480473518371582 0.36674129962921142578 0.349109649658203125 0.37008324265480041504 0.40497228503227233887 0.43049922585487365723 0.42411455512046813965 0.34520134329795837402 0.34337192773818969727 0.35455009341239929199 0.34771469235420227051 0.39977666735649108887 0.44248625636100769043 0.4222164154052734375 0.4012984931468963623 0.40924170613288879395 0.41143774986267089844 0.39583820104598999023 0.37482541799545288086 0.39793363213539123535 0.41234496235847473145 0.39371398091316223145 0.39547047019004821777 0.40890452265739440918 0.39946433901786804199 0.3882992863655090332 0.37525245547294616699 0.3767884373664855957 0.39083212614059448242 0.3865763545036315918 0.35917386412620544434 0.35502219200134277344 0.39378860592842102051 0.40322816371917724609 0.39612621068954467773 0.38574177026748657227 0.36352807283401489258 0.37999311089515686035 0.40561640262603759766 0.39109310507774353027 0.37814992666244506836 0.36545699834823608398 0.31727299094200134277 0.25504246354103088379 0.29748886823654174805 0.35449716448783874512 0.34735670685768127441 0.30172997713088989258 0.28605732321739196777 0.32607924938201904297 0.37095621228218078613 0.36673012375831604004 0.35579240322113037109 0.33942493796348571777 0.28858983516693115234 0.29608306288719177246 0.33553424477577209473 0.35444396734237670898 0.36171612143516540527 0.36807221174240112305 0.37606856226921081543 0.37596032023429870605 0.37644436955451965332 0.37991216778755187988 0.38920319080352783203 0.38855132460594177246 0.40547555685043334961 0.43237948417663574219 0.16529858112335205078 
nan 0.1852712780237197876 0.34551593661308288574 0.35407736897468566895 0.34964218735694885254 0.36080902814865112305 0.35587009787559509277 0.35843628644943237305 0.35282632708549499512 0.34368416666984558105 0.31757342815399169922 0.32315805554389953613 0.35302984714508056641 0.36632329225540161133 0.36323904991149902344 0.37773424386978149414 0.39341819286346435547 0.38773614168167114258 0.37625026702880859375 0.35811668634414672852 0.36953866481781005859 0.36427509784698486328 0.36709743738174438477 0.38135632872581481934 0.39142471551895141602 0.40216726064682006836 0.40381595492362976074 0.41179236769676208496 0.38593044877052307129 0.28965723514556884766 0.25662320852279663086 0.14669801294803619385 0.071201197803020477295 0.0876618996262550354 0.19270224869251251221 0.20349302887916564941 0.11455395817756652832 0.10639100521802902222 0.1417919546365737915 0.20231196284294128418 0.28401875495910644531 0.31561234593391418457 0.31689554452896118164 0.33911710977554321289 0.33158886432647705078 0.32764294743537902832 0.33604219555854797363 0.33146643638610839844 0.32869666814804077148 0.33362078666687011719 0.35215687751770019531 0.35960826277732849121 0.38285452127456665039 0.39753052592277526855 0.39217272400856018066 0.39195835590362548828 0.39324164390563964844 0.37322574853897094727 0.3418210148811340332 0.29872795939445495605 0.2963498532772064209 0.33875307440757751465 0.35964420437812805176 0.3700199127197265625 0.37939524650573730469 0.38071608543395996094 0.37575101852416992188 0.37674641609191894531 0.38587930798530578613 0.40204212069511413574 0.39676898717880249023 0.37354081869125366211 0.36769255995750427246 0.35967773199081420898 0.34064629673957824707 0.3378543555736541748 0.3273734748363494873 0.33546081185340881348 0.33494716882705688477 0.33925229310989379883 0.33076110482215881348 0.33369821310043334961 0.38005042076110839844 0.39030358195304870605 0.35875722765922546387 0.30255264043807983398 0.33774554729461669922 0.3563187718391418457 0.35734778642654418945 0.39816001057624816895 0.39769628643989562988 0.37379658222198486328 0.37424537539482116699 0.38884207606315612793 0.39125502109527587891 0.35346299409866333008 0.37162753939628601074 0.39263385534286499023 0.40386083722114562988 0.37102365493774414063 0.36867287755012512207 0.36488944292068481445 0.35536077618598937988 0.38207811117172241211 0.40143907070159912109 0.41689720749855041504 0.41700461506843566895 0.33870810270309448242 0.34246629476547241211 0.35653087496757507324 0.33624097704887390137 0.38624098896980285645 0.42919573187828063965 0.41040921211242675781 0.38128924369812011719 0.38375383615493774414 0.42355912923812866211 0.40082857012748718262 0.39822992682456970215 0.4109058380126953125 0.41773256659507751465 0.40068709850311279297 0.42290580272674560547 0.43201684951782226563 0.41349965333938598633 0.39636993408203125 0.37456363439559936523 0.3747272789478302002 0.36955079436302185059 0.35419133305549621582 0.35354050993919372559 0.3720048367977142334 0.37086120247840881348 0.38233572244644165039 0.37877494096755981445 0.34263181686401367188 0.36130258440971374512 0.40407976508140563965 0.37873449921607971191 0.38360297679901123047 0.37834629416465759277 0.35303950309753417969 0.34486606717109680176 0.2870540320873260498 0.22591623663902282715 0.28033438324928283691 0.28772825002670288086 0.31014528870582580566 0.3125095367431640625 0.33497285842895507813 0.36836349964141845703 0.37055325508117675781 0.37408909201622009277 0.3752167820930480957 0.34240806102752685547 0.31230875849723815918 0.31876650452613830566 0.35700559616088867188 0.34167405962944030762 0.35473924875259399414 0.36564350128173828125 0.38555887341499328613 0.37935221195220947266 0.36227536201477050781 0.37546691298484802246 0.39133712649345397949 0.40807518362998962402 0.41703495383262634277 0.16620506346225738525 
nan 0.18344454467296600342 0.3338521122932434082 0.35134652256965637207 0.35185477137565612793 0.35496592521667480469 0.35494047403335571289 0.34848430752754211426 0.34756106138229370117 0.34829664230346679688 0.29263058304786682129 0.29600548744201660156 0.35960543155670166016 0.36841544508934020996 0.37927252054214477539 0.38789975643157958984 0.39903569221496582031 0.3976675868034362793 0.39285603165626525879 0.37968671321868896484 0.38351324200630187988 0.37673705816268920898 0.36965683102607727051 0.40014559030532836914 0.40466448664665222168 0.4006239771842956543 0.38525724411010742188 0.37999370694160461426 0.39946296811103820801 0.41410440206527709961 0.39857840538024902344 0.28607690334320068359 0.10454232990741729736 0.053143251687288284302 0.06600043177604675293 0.16504001617431640625 0.19997142255306243896 0.14673365652561187744 0.11737137287855148315 0.15859591960906982422 0.23437644541263580322 0.26961153745651245117 0.31490400433540344238 0.36671960353851318359 0.35329520702362060547 0.34759879112243652344 0.34599441289901733398 0.34114193916320800781 0.32874593138694763184 0.33805346488952636719 0.33828514814376831055 0.34459951519966125488 0.3630847632884979248 0.38096538186073303223 0.37714427709579467773 0.38699549436569213867 0.40464159846305847168 0.40502524375915527344 0.37196469306945800781 0.32185989618301391602 0.30761611461639404297 0.32913163304328918457 0.36369928717613220215 0.37680649757385253906 0.38109359145164489746 0.37625381350517272949 0.36925676465034484863 0.37749174237251281738 0.37817239761352539063 0.37418097257614135742 0.37618225812911987305 0.37347507476806640625 0.38740491867065429688 0.36027568578720092773 0.35636660456657409668 0.36695373058319091797 0.31541225314140319824 0.3298651278018951416 0.35024312138557434082 0.34199452400207519531 0.33533057570457458496 0.34051078557968139648 0.38008999824523925781 0.40575245022773742676 0.37800651788711547852 0.30873346328735351563 0.33744835853576660156 0.33923044800758361816 0.35862812399864196777 0.40682640671730041504 0.38947701454162597656 0.3682149350643157959 0.38552135229110717773 0.40547391772270202637 0.40728300809860229492 0.37400010228157043457 0.37792724370956420898 0.40543282032012939453 0.40968647599220275879 0.38442304730415344238 0.3673674464225769043 0.35265904664993286133 0.35496765375137329102 0.37846171855926513672 0.39414855837821960449 0.41374126076698303223 0.42638641595840454102 0.37390854954719543457 0.33246719837188720703 0.35824802517890930176 0.34475436806678771973 0.38170510530471801758 0.40117815136909484863 0.38586959242820739746 0.34659084677696228027 0.37675493955612182617 0.42031577229499816895 0.40110930800437927246 0.41337946057319641113 0.41573384404182434082 0.41676741838455200195 0.40929871797561645508 0.43124490976333618164 0.4331080019474029541 0.41012519598007202148 0.3900496363639831543 0.36710032820701599121 0.38844782114028930664 0.37853547930717468262 0.37216508388519287109 0.37662595510482788086 0.35389372706413269043 0.34847074747085571289 0.37371546030044555664 0.36488106846809387207 0.33979079127311706543 0.36626076698303222656 0.38046789169311523438 0.37218916416168212891 0.40278196334838867188 0.4040203094482421875 0.36538663506507873535 0.36056554317474365234 0.32637801766395568848 0.23274038732051849365 0.26344287395477294922 0.32094573974609375 0.34399512410163879395 0.32604271173477172852 0.32011193037033081055 0.34033957123756408691 0.36469513177871704102 0.39175391197204589844 0.38076686859130859375 0.36853113770484924316 0.37152150273323059082 0.35502037405967712402 0.35406711697578430176 0.3308340609073638916 0.32792550325393676758 0.34291249513626098633 0.3624076545238494873 0.3858095705509185791 0.39149761199951171875 0.38396686315536499023 0.3997694849967956543 0.39505028724670410156 0.37766402959823608398 0.14633731544017791748 
nan 0.19359944760799407959 0.33738338947296142578 0.35194042325019836426 0.36382639408111572266 0.35583233833312988281 0.34761062264442443848 0.34526216983795166016 0.33248046040534973145 0.33031958341598510742 0.32235756516456604004 0.33772286772727966309 0.35703906416893005371 0.35947450995445251465 0.37440815567970275879 0.3778820335865020752 0.39571285247802734375 0.40176928043365478516 0.40344151854515075684 0.4060312807559967041 0.39517140388488769531 0.36112970113754272461 0.3736177980899810791 0.40256288647651672363 0.41041749715805053711 0.40786987543106079102 0.38267216086387634277 0.35983568429946899414 0.39387026429176330566 0.41253057122230529785 0.40842378139495849609 0.38649263978004455566 0.31544971466064453125 0.21314287185668945313 0.13559061288833618164 0.1385266035795211792 0.29224368929862976074 0.23476742208003997803 0.12562137842178344727 0.15598936378955841064 0.19827762246131896973 0.25571027398109436035 0.33390852808952331543 0.37318375706672668457 0.35591787099838256836 0.35092338919639587402 0.34836855530738830566 0.35425594449043273926 0.33536395430564880371 0.34094741940498352051 0.33753994107246398926 0.33277371525764465332 0.34029614925384521484 0.34092339873313903809 0.34462508559226989746 0.3801828920841217041 0.40436884760856628418 0.40312153100967407227 0.37181180715560913086 0.32930225133895874023 0.30525878071784973145 0.32358732819557189941 0.35776874423027038574 0.37420931458473205566 0.38355475664138793945 0.38233542442321777344 0.36932128667831420898 0.37640407681465148926 0.3781020045280456543 0.36442908644676208496 0.37388628721237182617 0.37997323274612426758 0.38857728242874145508 0.36982485651969909668 0.3562374413013458252 0.34768146276473999023 0.31434279680252075195 0.33983153104782104492 0.36747339367866516113 0.34541720151901245117 0.34286019206047058105 0.34904202818870544434 0.38836750388145446777 0.4146150052547454834 0.40519183874130249023 0.3187617957592010498 0.3109645843505859375 0.33502691984176635742 0.37678030133247375488 0.40845078229904174805 0.40930017828941345215 0.39382648468017578125 0.39871492981910705566 0.42112854123115539551 0.41385558247566223145 0.38121727108955383301 0.38620227575302124023 0.41503414511680603027 0.41080421209335327148 0.40112659335136413574 0.38943707942962646484 0.35256868600845336914 0.33966425061225891113 0.35843673348426818848 0.38669192790985107422 0.41904565691947937012 0.43405950069427490234 0.42144757509231567383 0.3775958716869354248 0.32919141650199890137 0.33794176578521728516 0.36415883898735046387 0.37102672457695007324 0.35020267963409423828 0.34597149491310119629 0.38687056303024291992 0.41432720422744750977 0.38152092695236206055 0.41628143191337585449 0.41140627861022949219 0.40698102116584777832 0.40569970011711120605 0.42088964581489562988 0.42126223444938659668 0.38890144228935241699 0.37558221817016601563 0.3539313971996307373 0.38088324666023254395 0.38353204727172851563 0.38562783598899841309 0.37701383233070373535 0.36081847548484802246 0.33386033773422241211 0.32996731996536254883 0.34135556221008300781 0.37103557586669921875 0.37670096755027770996 0.38357552886009216309 0.39320519566535949707 0.40970474481582641602 0.40463835000991821289 0.37626093626022338867 0.36654764413833618164 0.29755777120590209961 0.22068330645561218262 0.28184297680854797363 0.34195372462272644043 0.36177563667297363281 0.35959506034851074219 0.33365777134895324707 0.33144196867942810059 0.35112312436103820801 0.36500945687294006348 0.35320633649826049805 0.37112569808959960938 0.36215132474899291992 0.37905329465866088867 0.38356488943099975586 0.34628593921661376953 0.29195621609687805176 0.32484954595565795898 0.35590904951095581055 0.38098025321960449219 0.40103679895401000977 0.38590636849403381348 0.37715294957160949707 0.38203537464141845703 0.40082705020904541016 0.15494292974472045898 
nan 0.19412475824356079102 0.34081357717514038086 0.35587164759635925293 0.37086185812950134277 0.35143101215362548828 0.34862729907035827637 0.35319852828979492188 0.33521991968154907227 0.33914828300476074219 0.35468459129333496094 0.35989364981651306152 0.35984721779823303223 0.3600069582462310791 0.36671403050422668457 0.37168973684310913086 0.39122438430786132813 0.4063555598258972168 0.3950481116771697998 0.3923905789852142334 0.38605126738548278809 0.36672726273536682129 0.37689191102981567383 0.39681997895240783691 0.40588092803955078125 0.40810719132423400879 0.38630959391593933105 0.35865753889083862305 0.37943464517593383789 0.41287681460380554199 0.41425654292106628418 0.41191202402114868164 0.41109609603881835938 0.38217180967330932617 0.30185753107070922852 0.20541810989379882813 0.32102876901626586914 0.27315148711204528809 0.13481567800045013428 0.11793728917837142944 0.14312849938869476318 0.20459668338298797607 0.30251032114028930664 0.3672987818717956543 0.3421306312084197998 0.33299213647842407227 0.35325980186462402344 0.35660919547080993652 0.33848264813423156738 0.34271961450576782227 0.33996623754501342773 0.33299100399017333984 0.32757878303527832031 0.3183098137378692627 0.33180096745491027832 0.38039091229438781738 0.40882509946823120117 0.40420880913734436035 0.38932532072067260742 0.33369314670562744141 0.28697109222412109375 0.3216374814510345459 0.36061376333236694336 0.37432181835174560547 0.3826421201229095459 0.38965553045272827148 0.37786334753036499023 0.37207925319671630859 0.36803385615348815918 0.37010312080383300781 0.37545707821846008301 0.38416239619255065918 0.39533320069313049316 0.36815091967582702637 0.33975309133529663086 0.31424567103385925293 0.30329653620719909668 0.34255418181419372559 0.35081347823143005371 0.34170204401016235352 0.34664759039878845215 0.35459175705909729004 0.39360982179641723633 0.4093265831470489502 0.40993031859397888184 0.33648374676704406738 0.3084220588207244873 0.32312861084938049316 0.36350136995315551758 0.40324762463569641113 0.40230333805084228516 0.38975086808204650879 0.38593375682830810547 0.41465970873832702637 0.40084290504455566406 0.37563970685005187988 0.39866280555725097656 0.42360469698905944824 0.4183121025562286377 0.40962401032447814941 0.39539650082588195801 0.35979530215263366699 0.33774110674858093262 0.3393465876579284668 0.3744799494743347168 0.42874693870544433594 0.43443176150321960449 0.42428293824195861816 0.39785847067832946777 0.33750465512275695801 0.35609152913093566895 0.36838573217391967773 0.3632399439811706543 0.35750699043273925781 0.36586856842041015625 0.39441612362861633301 0.39051407575607299805 0.38326713442802429199 0.40283718705177307129 0.39561706781387329102 0.38658201694488525391 0.3849620521068572998 0.40980824828147888184 0.40798187255859375 0.39257726073265075684 0.37338137626647949219 0.3611781001091003418 0.37567496299743652344 0.37655571103096008301 0.38860961794853210449 0.38805297017097473145 0.38383489847183227539 0.37091076374053955078 0.35381978750228881836 0.34053686261177062988 0.37178426980972290039 0.37086513638496398926 0.37602862715721130371 0.39860710501670837402 0.38806337118148803711 0.39033678174018859863 0.42345649003982543945 0.3962357938289642334 0.3432044684886932373 0.28319665789604187012 0.27992463111877441406 0.31824147701263427734 0.33577594161033630371 0.36705595254898071289 0.35436609387397766113 0.32330495119094848633 0.33089628815650939941 0.31764614582061767578 0.32883033156394958496 0.35503941774368286133 0.36111402511596679688 0.38793632388114929199 0.38020253181457519531 0.35997152328491210938 0.29936939477920532227 0.32592460513114929199 0.37150725722312927246 0.36860775947570800781 0.37450936436653137207 0.38569614291191101074 0.37939471006393432617 0.3869819343090057373 0.38961568474769592285 0.14562284946441650391 
nan 0.2031663358211517334 0.34120982885360717773 0.33341103792190551758 0.35074165463447570801 0.35562270879745483398 0.36128512024879455566 0.36667981743812561035 0.36086601018905639648 0.34978815913200378418 0.3514874577522277832 0.34952342510223388672 0.34409600496292114258 0.35043814778327941895 0.35693055391311645508 0.38314667344093322754 0.4112078249454498291 0.41404050588607788086 0.41021636128425598145 0.40463110804557800293 0.41596996784210205078 0.38321325182914733887 0.37016099691390991211 0.38401439785957336426 0.39440593123435974121 0.39689919352531433105 0.39203420281410217285 0.37384033203125 0.36505231261253356934 0.38646265864372253418 0.37592577934265136719 0.38390767574310302734 0.40010425448417663574 0.40663200616836547852 0.38607221841812133789 0.31472632288932800293 0.34016275405883789063 0.34165996313095092773 0.27453148365020751953 0.2103882133960723877 0.12801159918308258057 0.14296650886535644531 0.22528094053268432617 0.26443803310394287109 0.31043758988380432129 0.30611997842788696289 0.31910693645477294922 0.34500017762184143066 0.34143185615539550781 0.33655327558517456055 0.32779848575592041016 0.32966405153274536133 0.34057763218879699707 0.30604112148284912109 0.31083017587661743164 0.37003222107887268066 0.39025810360908508301 0.37676280736923217773 0.37129431962966918945 0.34746691584587097168 0.2947737276554107666 0.29334282875061035156 0.30383354425430297852 0.31798863410949707031 0.33929285407066345215 0.36005705595016479492 0.35919693112373352051 0.36107453703880310059 0.36416459083557128906 0.3759619295597076416 0.38016197085380554199 0.38978692889213562012 0.39930576086044311523 0.36841794848442077637 0.3256747126579284668 0.29442799091339111328 0.28487136960029602051 0.28728124499320983887 0.29581654071807861328 0.3130143582820892334 0.32714608311653137207 0.3646939396858215332 0.39791327714920043945 0.41036868095397949219 0.4150810539722442627 0.39512643218040466309 0.34064364433288574219 0.31651145219802856445 0.32666069269180297852 0.38761484622955322266 0.39758315682411193848 0.38990989327430725098 0.3867702782154083252 0.40099334716796875 0.40207386016845703125 0.38345983624458312988 0.40275558829307556152 0.42982044816017150879 0.42601546645164489746 0.42179882526397705078 0.40951454639434814453 0.36497542262077331543 0.3668950498104095459 0.38075801730155944824 0.39767614006996154785 0.43012124300003051758 0.41987407207489013672 0.41187980771064758301 0.39863321185111999512 0.3829091191291809082 0.37001189589500427246 0.35908874869346618652 0.38709783554077148438 0.39644345641136169434 0.41035875678062438965 0.40679371356964111328 0.36513060331344604492 0.3748836219310760498 0.39881163835525512695 0.39565506577491760254 0.38478687405586242676 0.38685756921768188477 0.40599608421325683594 0.40281242132186889648 0.39718320965766906738 0.38634157180786132813 0.38632166385650634766 0.37276217341423034668 0.38855272531509399414 0.39826023578643798828 0.39543047547340393066 0.39313367009162902832 0.39310944080352783203 0.37669235467910766602 0.35922631621360778809 0.35342127084732055664 0.32840952277183532715 0.36291232705116271973 0.36811351776123046875 0.38003402948379516602 0.37896838784217834473 0.407924652099609375 0.40763422846794128418 0.40395215153694152832 0.38798829913139343262 0.35584074258804321289 0.33114421367645263672 0.33879852294921875 0.34912866353988647461 0.35419040918350219727 0.35081619024276733398 0.33744269609451293945 0.32624238729476928711 0.32831078767776489258 0.33835443854331970215 0.37033200263977050781 0.37940940260887145996 0.3742274940013885498 0.35068407654762268066 0.31756103038787841797 0.34210643172264099121 0.35045573115348815918 0.34894502162933349609 0.35088232159614562988 0.35881859064102172852 0.38783037662506103516 0.39570942521095275879 0.37719506025314331055 0.1384258568286895752 
nan 0.20825515687465667725 0.33341073989868164063 0.32536223530769348145 0.33870685100555419922 0.3511117100715637207 0.35861057043075561523 0.36532503366470336914 0.3646571040153503418 0.35467943549156188965 0.35818028450012207031 0.36147215962409973145 0.34582737088203430176 0.35768410563468933105 0.36784785985946655273 0.38696089386940002441 0.4098701179027557373 0.4199962913990020752 0.42687600851058959961 0.42896664142608642578 0.42481017112731933594 0.38656309247016906738 0.36938560009002685547 0.37705859541893005371 0.39176490902900695801 0.39703425765037536621 0.40271499752998352051 0.39874818921089172363 0.38141852617263793945 0.39405792951583862305 0.37056884169578552246 0.35463824868202209473 0.38468497991561889648 0.4032326042652130127 0.41758304834365844727 0.40293523669242858887 0.38049593567848205566 0.37696021795272827148 0.37498235702514648438 0.34279662370681762695 0.21546351909637451172 0.17145544290542602539 0.20754796266555786133 0.16386672854423522949 0.22857490181922912598 0.27202892303466796875 0.29695242643356323242 0.37661179900169372559 0.34992545843124389648 0.32271018624305725098 0.30917835235595703125 0.31813308596611022949 0.32820811867713928223 0.29743039608001708984 0.30888277292251586914 0.34659531712532043457 0.35258024930953979492 0.36346077919006347656 0.35706752538681030273 0.34547036886215209961 0.32423645257949829102 0.31296077370643615723 0.29220142960548400879 0.27384966611862182617 0.26780921220779418945 0.29427343606948852539 0.32678419351577758789 0.33997297286987304688 0.36357900500297546387 0.37810903787612915039 0.37908530235290527344 0.38348847627639770508 0.38287016749382019043 0.38812136650085449219 0.36718484759330749512 0.32095223665237426758 0.27517646551132202148 0.24844913184642791748 0.2601133882999420166 0.2760105431079864502 0.28890055418014526367 0.33831125497817993164 0.38108500838279724121 0.41334959864616394043 0.42469483613967895508 0.4139614105224609375 0.34544271230697631836 0.31513118743896484375 0.32171630859375 0.37787848711013793945 0.40235683321952819824 0.40539315342903137207 0.40154436230659484863 0.40283730626106262207 0.41836819052696228027 0.38884931802749633789 0.3988164365291595459 0.42784249782562255859 0.41970849037170410156 0.42861714959144592285 0.42185372114181518555 0.37282365560531616211 0.37637227773666381836 0.38893437385559082031 0.39807680249214172363 0.42394870519638061523 0.40260308980941772461 0.40853869915008544922 0.38581898808479309082 0.39644193649291992188 0.37161454558372497559 0.36173927783966064453 0.40309369564056396484 0.39842396974563598633 0.42184472084045410156 0.40479502081871032715 0.37210282683372497559 0.3808943331241607666 0.38871672749519348145 0.3926124274730682373 0.39062553644180297852 0.37881803512573242188 0.38881942629814147949 0.39092522859573364258 0.38914516568183898926 0.39810639619827270508 0.40142300724983215332 0.37845519185066223145 0.4126936495304107666 0.38855493068695068359 0.40307438373565673828 0.41577169299125671387 0.40897002816200256348 0.38579297065734863281 0.37314367294311523438 0.35252046585083007813 0.31286060810089111328 0.31333473324775695801 0.35927417874336242676 0.35434177517890930176 0.352569580078125 0.40601739287376403809 0.4287897944450378418 0.42860838770866394043 0.41602617502212524414 0.37848395109176635742 0.36134660243988037109 0.34915181994438171387 0.34627360105514526367 0.34456005692481994629 0.34785085916519165039 0.34342283010482788086 0.34710547327995300293 0.32374742627143859863 0.34051054716110229492 0.37052378058433532715 0.37522941827774047852 0.3740742802619934082 0.34488567709922790527 0.28316923975944519043 0.34888958930969238281 0.3616676032543182373 0.35899898409843444824 0.3644993901252746582 0.35349205136299133301 0.38055643439292907715 0.39171946048736572266 0.37808522582054138184 0.13947905600070953369 
nan 0.20220257341861724854 0.34907817840576171875 0.34833699464797973633 0.34232339262962341309 0.35139906406402587891 0.35470753908157348633 0.3520965278148651123 0.35189005732536315918 0.35126215219497680664 0.36598432064056396484 0.37775027751922607422 0.36776882410049438477 0.36467155814170837402 0.37740594148635864258 0.39206588268280029297 0.4024988710880279541 0.40794211626052856445 0.41420945525169372559 0.42206782102584838867 0.40317082405090332031 0.36092770099639892578 0.37246394157409667969 0.3927052915096282959 0.40951231122016906738 0.41373488306999206543 0.39583927392959594727 0.39620932936668395996 0.39504265785217285156 0.41116234660148620605 0.40495771169662475586 0.39252230525016784668 0.37312406301498413086 0.38427430391311645508 0.39019957184791564941 0.3827133476734161377 0.39796864986419677734 0.40574809908866882324 0.3772125542163848877 0.36533257365226745605 0.34904646873474121094 0.31697362661361694336 0.24999199807643890381 0.12574015557765960693 0.10281755775213241577 0.11413993686437606812 0.15784044563770294189 0.25258427858352661133 0.30748966336250305176 0.31948897242546081543 0.3119456171989440918 0.30817309021949768066 0.3107661902904510498 0.33820480108261108398 0.34995192289352416992 0.35736981034278869629 0.34740310907363891602 0.35297706723213195801 0.3443107903003692627 0.3381913304328918457 0.33273363113403320313 0.33711200952529907227 0.33291786909103393555 0.31598308682441711426 0.29293927550315856934 0.26927205920219421387 0.28369167447090148926 0.30791774392127990723 0.33247485756874084473 0.37757435441017150879 0.37314546108245849609 0.3688907921314239502 0.35533481836318969727 0.35156100988388061523 0.34056076407432556152 0.31086128950119018555 0.29178887605667114258 0.28550127148628234863 0.29274329543113708496 0.28329351544380187988 0.28269544243812561035 0.3126964867115020752 0.35600891709327697754 0.39902982115745544434 0.41505172848701477051 0.39150455594062805176 0.34301254153251647949 0.32449546456336975098 0.32945489883422851563 0.38146257400512695313 0.40314412117004394531 0.40133994817733764648 0.40095105767250061035 0.39264208078384399414 0.39055609703063964844 0.36312809586524963379 0.36216509342193603516 0.4035918116569519043 0.42652863264083862305 0.43743669986724853516 0.39922058582305908203 0.36763751506805419922 0.37435126304626464844 0.38312223553657531738 0.3899605870246887207 0.40064445137977600098 0.37872046232223510742 0.36774453520774841309 0.34797912836074829102 0.34204405546188354492 0.35761711001396179199 0.39635458588600158691 0.41080239415168762207 0.38749241828918457031 0.3990033566951751709 0.39783802628517150879 0.37327501177787780762 0.39241585135459899902 0.39504581689834594727 0.39463606476783752441 0.39183902740478515625 0.36652025580406188965 0.36770540475845336914 0.37214043736457824707 0.36465606093406677246 0.40582031011581420898 0.4058240056037902832 0.40663447976112365723 0.42224836349487304688 0.39618226885795593262 0.40912854671478271484 0.40593731403350830078 0.40111958980560302734 0.38697037100791931152 0.38111072778701782227 0.36498826742172241211 0.35374110937118530273 0.35060474276542663574 0.33962011337280273438 0.33575025200843811035 0.36430403590202331543 0.42590516805648803711 0.43382507562637329102 0.42760017514228820801 0.42696896195411682129 0.40929019451141357422 0.37206581234931945801 0.36438319087028503418 0.37003931403160095215 0.35692438483238220215 0.34377890825271606445 0.35988914966583251953 0.35083904862403869629 0.33574092388153076172 0.3655834496021270752 0.39254623651504516602 0.37249112129211425781 0.3312352299690246582 0.3111216425895690918 0.3128802180290222168 0.35530629754066467285 0.37665253877639770508 0.35797205567359924316 0.37569093704223632813 0.38411223888397216797 0.38421282172203063965 0.3964729607105255127 0.38923546671867370605 0.1451311260461807251 
nan 0.20385535061359405518 0.3565590977668762207 0.3592059016227722168 0.35371124744415283203 0.35357657074928283691 0.36322012543678283691 0.36059439182281494141 0.3486767113208770752 0.35764104127883911133 0.38479238748550415039 0.38975411653518676758 0.39309984445571899414 0.38680896162986755371 0.3836434781551361084 0.39257818460464477539 0.38683244585990905762 0.3912359774112701416 0.40142288804054260254 0.40700173377990722656 0.39087647199630737305 0.37502527236938476563 0.39561188220977783203 0.41642957925796508789 0.42843145132064819336 0.42575225234031677246 0.40840283036231994629 0.40642532706260681152 0.38484930992126464844 0.39287275075912475586 0.41185617446899414063 0.41583469510078430176 0.3662262260913848877 0.36790132522583007813 0.37905997037887573242 0.38205766677856445313 0.40576639771461486816 0.40677228569984436035 0.36984100937843322754 0.36406800150871276855 0.37107002735137939453 0.35020506381988525391 0.29113885760307312012 0.17534524202346801758 0.10485351085662841797 0.12006130814552307129 0.16009335219860076904 0.17003637552261352539 0.19433918595314025879 0.26969954371452331543 0.29562026262283325195 0.30761903524398803711 0.3097222745418548584 0.3393236994743347168 0.34848013520240783691 0.34672445058822631836 0.3390057682991027832 0.33917978405952453613 0.33692160248756408691 0.34127396345138549805 0.3393096625804901123 0.34327816963195800781 0.34196579456329345703 0.34205400943756103516 0.32884949445724487305 0.29687711596488952637 0.27552649378776550293 0.2891076207160949707 0.31672546267509460449 0.36515274643898010254 0.35529381036758422852 0.3387622833251953125 0.32895731925964355469 0.35371634364128112793 0.37853601574897766113 0.36867791414260864258 0.34980195760726928711 0.31304505467414855957 0.32021263241767883301 0.32583093643188476563 0.31592208147048950195 0.31859830021858215332 0.32384207844734191895 0.36087495088577270508 0.39291211962699890137 0.36538985371589660645 0.32454341650009155273 0.31907296180725097656 0.32749098539352416992 0.39287903904914855957 0.39629957079887390137 0.38592663407325744629 0.39241039752960205078 0.39373612403869628906 0.37381148338317871094 0.33530604839324951172 0.32292467355728149414 0.38180583715438842773 0.42904385924339294434 0.43687918782234191895 0.38298663496971130371 0.35560470819473266602 0.37287858128547668457 0.37723308801651000977 0.3966713249683380127 0.40536782145500183105 0.37483015656471252441 0.34390559792518615723 0.32647645473480224609 0.34706959128379821777 0.37446349859237670898 0.42714163661003112793 0.41916489601135253906 0.36219048500061035156 0.38049018383026123047 0.38717043399810791016 0.38408792018890380859 0.39028471708297729492 0.39401662349700927734 0.40400445461273193359 0.40393009781837463379 0.3737239837646484375 0.36655369400978088379 0.35718965530395507813 0.3547801673412322998 0.39254829287528991699 0.37433454394340515137 0.39024901390075683594 0.40633794665336608887 0.37171760201454162598 0.3789615333080291748 0.38097295165061950684 0.38467812538146972656 0.38600215315818786621 0.4040012657642364502 0.39052355289459228516 0.37368920445442199707 0.35778900980949401855 0.34258759021759033203 0.39184406399726867676 0.41043913364410400391 0.41547793149948120117 0.40662264823913574219 0.41534590721130371094 0.42110487818717956543 0.41631335020065307617 0.3670196235179901123 0.38132750988006591797 0.40017929673194885254 0.38790440559387207031 0.3661429286003112793 0.36607599258422851563 0.34840819239616394043 0.346649169921875 0.37913286685943603516 0.40492329001426696777 0.33206596970558166504 0.24982529878616333008 0.28882324695587158203 0.3579890131950378418 0.37951120734214782715 0.37006294727325439453 0.3572641909122467041 0.38523074984550476074 0.38986849784851074219 0.38679453730583190918 0.39681121706962585449 0.40194442868232727051 0.15212348103523254395 
nan 0.20642732083797454834 0.36844563484191894531 0.36991032958030700684 0.35462373495101928711 0.35417544841766357422 0.35943192243576049805 0.35916078090667724609 0.3546288609504699707 0.36328333616256713867 0.39930337667465209961 0.40169259905815124512 0.40459069609642028809 0.40456032752990722656 0.39655196666717529297 0.39475077390670776367 0.3880818486213684082 0.39596426486968994141 0.39902377128601074219 0.39789783954620361328 0.39824044704437255859 0.40161809325218200684 0.41501635313034057617 0.42594543099403381348 0.4285373389720916748 0.4286422431468963623 0.41746792197227478027 0.40071263909339904785 0.36523887515068054199 0.37423369288444519043 0.40976309776306152344 0.40153890848159790039 0.37570866942405700684 0.37703457474708557129 0.38410732150077819824 0.38012969493865966797 0.40573987364768981934 0.41349089145660400391 0.39281749725341796875 0.37782725691795349121 0.3645191192626953125 0.36352995038032531738 0.34390357136726379395 0.29873767495155334473 0.16313387453556060791 0.11431039124727249146 0.15076726675033569336 0.15323817729949951172 0.126940116286277771 0.14313228428363800049 0.19581183791160583496 0.27233144640922546387 0.30072870850563049316 0.30997061729431152344 0.3254585564136505127 0.33969652652740478516 0.33502528071403503418 0.33379581570625305176 0.33853608369827270508 0.33798795938491821289 0.33687502145767211914 0.3431479036808013916 0.35163283348083496094 0.35322701930999755859 0.34800308942794799805 0.31813037395477294922 0.26855880022048950195 0.2572758793830871582 0.27897757291793823242 0.32193291187286376953 0.33224689960479736328 0.34122696518898010254 0.35924375057220458984 0.39171248674392700195 0.3994051516056060791 0.40218141674995422363 0.37824478745460510254 0.3707167208194732666 0.33886876702308654785 0.31758338212966918945 0.317508697509765625 0.32084918022155761719 0.3252239525318145752 0.35285255312919616699 0.37219655513763427734 0.33318656682968139648 0.31169632077217102051 0.34360811114311218262 0.35040056705474853516 0.38362452387809753418 0.38669928908348083496 0.38367831707000732422 0.38785445690155029297 0.40185320377349853516 0.37244471907615661621 0.33564779162406921387 0.36203896999359130859 0.3850409090518951416 0.4060898125171661377 0.40398713946342468262 0.36689111590385437012 0.36185941100120544434 0.38684603571891784668 0.40496265888214111328 0.42584440112113952637 0.41608545184135437012 0.40257933735847473145 0.37188425660133361816 0.33172449469566345215 0.35968264937400817871 0.38981723785400390625 0.43318581581115722656 0.40543639659881591797 0.36762288212776184082 0.36368003487586975098 0.35797199606895446777 0.38243243098258972168 0.38688576221466064453 0.40260717272758483887 0.41899666190147399902 0.39553317427635192871 0.36343243718147277832 0.36318856477737426758 0.34874400496482849121 0.35224494338035583496 0.36257603764533996582 0.35145330429077148438 0.37207555770874023438 0.380695343017578125 0.34942275285720825195 0.37638786435127258301 0.39648154377937316895 0.39792105555534362793 0.41017445921897888184 0.42141959071159362793 0.40028330683708190918 0.3664919435977935791 0.36662715673446655273 0.38782760500907897949 0.38836333155632019043 0.38477143645286560059 0.3932742774486541748 0.40276664495468139648 0.37871047854423522949 0.37775132060050964355 0.4007994532585144043 0.37104579806327819824 0.3802877962589263916 0.40085735917091369629 0.39408639073371887207 0.37803217768669128418 0.37279158830642700195 0.35263162851333618164 0.34751790761947631836 0.37364795804023742676 0.39871183037757873535 0.36988419294357299805 0.33014047145843505859 0.29301875829696655273 0.30622145533561706543 0.32651787996292114258 0.30179059505462646484 0.32732895016670227051 0.37654584646224975586 0.36538019776344299316 0.37263882160186767578 0.38362264633178710938 0.39820122718811035156 0.15085271000862121582 
nan 0.20819008350372314453 0.36684247851371765137 0.37499836087226867676 0.3579813539981842041 0.3533102869987487793 0.35099330544471740723 0.35105490684509277344 0.34957084059715270996 0.35473218560218811035 0.39505985379219055176 0.41478183865547180176 0.42008769512176513672 0.41419428586959838867 0.39973676204681396484 0.39686992764472961426 0.39613828063011169434 0.39684259891510009766 0.39356920123100280762 0.3866914212703704834 0.40160468220710754395 0.40811049938201904297 0.40241202712059020996 0.42391282320022583008 0.42345520853996276855 0.41913205385208129883 0.39473059773445129395 0.36786946654319763184 0.34768164157867431641 0.35884961485862731934 0.40070420503616333008 0.40787300467491149902 0.38548165559768676758 0.38888895511627197266 0.40258517861366271973 0.38753628730773925781 0.39316740632057189941 0.41278895735740661621 0.42501884698867797852 0.418888092041015625 0.37239843606948852539 0.36495503783226013184 0.38610845804214477539 0.35908430814743041992 0.23420244455337524414 0.15576173365116119385 0.13104735314846038818 0.13476897776126861572 0.11876477301120758057 0.086318798363208770752 0.13403189182281494141 0.24552810192108154297 0.30051055550575256348 0.3004970252513885498 0.30654931068420410156 0.3291136622428894043 0.33928287029266357422 0.33320888876914978027 0.33920609951019287109 0.33123546838760375977 0.31973206996917724609 0.32374137639999389648 0.34610661864280700684 0.35541895031929016113 0.36303424835205078125 0.35136619210243225098 0.31281054019927978516 0.29385420680046081543 0.2769298255443572998 0.28405368328094482422 0.32344272732734680176 0.35933250188827514648 0.37795057892799377441 0.39430475234985351563 0.39777198433876037598 0.39128708839416503906 0.35720959305763244629 0.34624713659286499023 0.32679522037506103516 0.32339957356452941895 0.32834222912788391113 0.32498562335968017578 0.33458560705184936523 0.34259968996047973633 0.34942129254341125488 0.33335781097412109375 0.30857101082801818848 0.33653470873832702637 0.37523916363716125488 0.38692489266395568848 0.38857436180114746094 0.39585030078887939453 0.39552649855613708496 0.40249225497245788574 0.37314561009407043457 0.32997399568557739258 0.34526711702346801758 0.35805785655975341797 0.37082836031913757324 0.36446741223335266113 0.35234215855598449707 0.34645065665245056152 0.36972305178642272949 0.41710624098777770996 0.43485012650489807129 0.41463044285774230957 0.41598173975944519043 0.38733661174774169922 0.32358059287071228027 0.33899009227752685547 0.39650449156761169434 0.44004067778587341309 0.42605477571487426758 0.36898455023765563965 0.34671613574028015137 0.3814735710620880127 0.38074180483818054199 0.37129318714141845703 0.41208723187446594238 0.43315207958221435547 0.38348588347434997559 0.36193877458572387695 0.39163601398468017578 0.37251862883567810059 0.36092180013656616211 0.36352956295013427734 0.36805507540702819824 0.37493455410003662109 0.36046415567398071289 0.37037652730941772461 0.41960358619689941406 0.41811174154281616211 0.41548135876655578613 0.4116261601448059082 0.41654825210571289063 0.39308452606201171875 0.36658230423927307129 0.37082856893539428711 0.36241805553436279297 0.34965732693672180176 0.34620007872581481934 0.37575855851173400879 0.40641298890113830566 0.35996526479721069336 0.38378053903579711914 0.39227616786956787109 0.37131950259208679199 0.36548513174057006836 0.38254141807556152344 0.37844887375831604004 0.38321846723556518555 0.3883272707462310791 0.36231911182403564453 0.34402367472648620605 0.36246922612190246582 0.3702748417854309082 0.3587436974048614502 0.35305482149124145508 0.34679242968559265137 0.32415550947189331055 0.31215488910675048828 0.34373825788497924805 0.32905495166778564453 0.32843300700187683105 0.33948668837547302246 0.34146982431411743164 0.36206516623497009277 0.39007908105850219727 0.15406118333339691162 
nan 0.20295453071594238281 0.35840305685997009277 0.35705718398094177246 0.34448426961898803711 0.35238683223724365234 0.34853339195251464844 0.35143798589706420898 0.35702535510063171387 0.36079606413841247559 0.36598658561706542969 0.37928509712219238281 0.39243483543395996094 0.40870258212089538574 0.40616771578788757324 0.40456616878509521484 0.40236970782279968262 0.39605426788330078125 0.39080774784088134766 0.39255434274673461914 0.39640414714813232422 0.39437368512153625488 0.38347136974334716797 0.39547753334045410156 0.38690495491027832031 0.37732511758804321289 0.36329624056816101074 0.3545341193675994873 0.35433542728424072266 0.36176607012748718262 0.37570059299468994141 0.36852145195007324219 0.36541169881820678711 0.38007622957229614258 0.39070633053779602051 0.38251584768295288086 0.37401050329208374023 0.39073517918586730957 0.40531381964683532715 0.40709984302520751953 0.37835267186164855957 0.36054006218910217285 0.37181317806243896484 0.35347738862037658691 0.2985350191593170166 0.3049277961254119873 0.32768848538398742676 0.3450177609920501709 0.26425594091415405273 0.14555776119232177734 0.16299381852149963379 0.23944266140460968018 0.292644500732421875 0.3092861473560333252 0.31141376495361328125 0.31252446770668029785 0.33612135052680969238 0.33809140324592590332 0.33539548516273498535 0.34091305732727050781 0.33473834395408630371 0.32941094040870666504 0.34922859072685241699 0.35658672451972961426 0.35337817668914794922 0.33929258584976196289 0.34841129183769226074 0.33419698476791381836 0.30548238754272460938 0.29048401117324829102 0.3343861699104309082 0.37220776081085205078 0.38917979598045349121 0.39670857787132263184 0.39878112077713012695 0.37858217954635620117 0.35104966163635253906 0.31311851739883422852 0.32856270670890808105 0.33555978536605834961 0.33420482277870178223 0.33184632658958435059 0.33310884237289428711 0.32729244232177734375 0.33179363608360290527 0.33303350210189819336 0.32500612735748291016 0.33976638317108154297 0.37247541546821594238 0.38081213831901550293 0.38464501500129699707 0.39281168580055236816 0.39550864696502685547 0.40163135528564453125 0.37406712770462036133 0.32685714960098266602 0.3426081538200378418 0.35625159740447998047 0.36769783496856689453 0.35111638903617858887 0.34676510095596313477 0.34422525763511657715 0.3638273775577545166 0.41928109526634216309 0.4279969632625579834 0.41699382662773132324 0.41734853386878967285 0.4016628563404083252 0.35572615265846252441 0.33514568209648132324 0.36899718642234802246 0.42712134122848510742 0.42779421806335449219 0.37638741731643676758 0.36556169390678405762 0.40097323060035705566 0.38250815868377685547 0.36739337444305419922 0.4018509984016418457 0.42972639203071594238 0.37692105770111083984 0.35878854990005493164 0.37546783685684204102 0.36318767070770263672 0.36178711056709289551 0.36973884701728820801 0.37544620037078857422 0.37380626797676086426 0.35391926765441894531 0.37082055211067199707 0.41208049654960632324 0.40371659398078918457 0.39571139216423034668 0.39030301570892333984 0.40879690647125244141 0.3898181617259979248 0.37771487236022949219 0.37432256340980529785 0.3576170802116394043 0.33200079202651977539 0.34276103973388671875 0.38329246640205383301 0.39957702159881591797 0.37948137521743774414 0.38961052894592285156 0.41128078103065490723 0.37865245342254638672 0.35886499285697937012 0.38199141621589660645 0.38513803482055664063 0.38894534111022949219 0.37107589840888977051 0.35654455423355102539 0.35886362195014953613 0.36903217434883117676 0.37572547793388366699 0.35323402285575866699 0.34414681792259216309 0.34285399317741394043 0.34092381596565246582 0.35336402058601379395 0.37046736478805541992 0.3477649986743927002 0.31297439336776733398 0.34230110049247741699 0.34378165006637573242 0.34833928942680358887 0.3784109950065612793 0.14971435070037841797 
nan 0.17494732141494750977 0.30467420816421508789 0.30974975228309631348 0.31784710288047790527 0.34634137153625488281 0.34688901901245117188 0.3554280400276184082 0.36707505583763122559 0.36751270294189453125 0.35932469367980957031 0.36156675219535827637 0.36687389016151428223 0.40729725360870361328 0.41334563493728637695 0.39978012442588806152 0.39509490132331848145 0.40158224105834960938 0.40022778511047363281 0.39519733190536499023 0.39119809865951538086 0.38199898600578308105 0.37457567453384399414 0.36597588658332824707 0.35721749067306518555 0.35445389151573181152 0.3297881782054901123 0.33598756790161132813 0.34870287775993347168 0.34510824084281921387 0.33696949481964111328 0.32751286029815673828 0.35098689794540405273 0.36131188273429870605 0.35610267519950866699 0.36219626665115356445 0.36109170317649841309 0.37593066692352294922 0.39176228642463684082 0.40096199512481689453 0.39385089278221130371 0.36748853325843811035 0.34541529417037963867 0.33335125446319580078 0.35575520992279052734 0.41130712628364562988 0.43303179740905761719 0.41873174905776977539 0.29104959964752197266 0.16764657199382781982 0.14601050317287445068 0.20697440207004547119 0.2682152092456817627 0.29639279842376708984 0.29876205325126647949 0.30207934975624084473 0.33347696065902709961 0.33553913235664367676 0.33626660704612731934 0.34509378671646118164 0.3492768704891204834 0.34802466630935668945 0.35725456476211547852 0.35655865073204040527 0.34140232205390930176 0.3287105262279510498 0.35040104389190673828 0.34726679325103759766 0.32115975022315979004 0.28859865665435791016 0.27718245983123779297 0.31820273399353027344 0.37011307477951049805 0.39631706476211547852 0.39678868651390075684 0.37263667583465576172 0.3500404655933380127 0.32901158928871154785 0.3660526573657989502 0.35741424560546875 0.32762131094932556152 0.31875878572463989258 0.3257433772087097168 0.30203798413276672363 0.29712307453155517578 0.33348283171653747559 0.353580474853515625 0.35336095094680786133 0.34457239508628845215 0.35931223630905151367 0.375030517578125 0.37059897184371948242 0.36362791061401367188 0.37345609068870544434 0.3522707521915435791 0.32036057114601135254 0.34313666820526123047 0.36547380685806274414 0.38504177331924438477 0.35659772157669067383 0.33896180987358093262 0.36755779385566711426 0.38845205307006835938 0.40628382563591003418 0.41089785099029541016 0.41519185900688171387 0.41621601581573486328 0.41371965408325195313 0.38635426759719848633 0.28799200057983398438 0.31195110082626342773 0.39100694656372070313 0.41679653525352478027 0.35970276594161987305 0.33852401375770568848 0.35338124632835388184 0.37746658921241760254 0.39181873202323913574 0.38064539432525634766 0.40324270725250244141 0.37807357311248779297 0.35363942384719848633 0.35698604583740234375 0.35926300287246704102 0.35933354496955871582 0.35664537549018859863 0.35189470648765563965 0.35099166631698608398 0.35649797320365905762 0.36781027913093566895 0.3673966526985168457 0.34670844674110412598 0.33847388625144958496 0.33925390243530273438 0.37896585464477539063 0.39010158181190490723 0.38291320204734802246 0.37272021174430847168 0.37400400638580322266 0.36972957849502563477 0.3623173832893371582 0.38144406676292419434 0.38268139958381652832 0.39989444613456726074 0.40395951271057128906 0.40309116244316101074 0.36223569512367248535 0.33080601692199707031 0.35413643717765808105 0.36518341302871704102 0.39278122782707214355 0.38643348217010498047 0.38657468557357788086 0.37221366167068481445 0.36257532238960266113 0.3776130378246307373 0.3794250190258026123 0.37458541989326477051 0.39107933640480041504 0.39384603500366210938 0.36453163623809814453 0.36787432432174682617 0.35190877318382263184 0.34449005126953125 0.35551485419273376465 0.35976377129554748535 0.34715980291366577148 0.33908495306968688965 0.13164059817790985107 
nan 0.1227629929780960083 0.2038602977991104126 0.24386079609394073486 0.29396212100982666016 0.33005577325820922852 0.34316894412040710449 0.35165044665336608887 0.36462432146072387695 0.36236730217933654785 0.36013400554656982422 0.36660757660865783691 0.37785843014717102051 0.41439512372016906738 0.41908669471740722656 0.39533385634422302246 0.3882013857364654541 0.40462443232536315918 0.40938243269920349121 0.41067898273468017578 0.41469746828079223633 0.39814525842666625977 0.39252606034278869629 0.37701362371444702148 0.36164188385009765625 0.34812936186790466309 0.31970894336700439453 0.32130181789398193359 0.33808037638664245605 0.34012591838836669922 0.33130854368209838867 0.31300616264343261719 0.35046669840812683105 0.35386830568313598633 0.35238033533096313477 0.36255717277526855469 0.36657813191413879395 0.3736285865306854248 0.40462291240692138672 0.41697910428047180176 0.41308885812759399414 0.38390010595321655273 0.35502171516418457031 0.33365789055824279785 0.35650834441184997559 0.40300720930099487305 0.39969193935394287109 0.37127676606178283691 0.29059720039367675781 0.19264028966426849365 0.13419125974178314209 0.19223496317863464355 0.27069777250289916992 0.30530023574829101563 0.29878461360931396484 0.29948055744171142578 0.31415742635726928711 0.3191643059253692627 0.32104706764221191406 0.32386040687561035156 0.34786379337310791016 0.3561229407787322998 0.36251798272132873535 0.35851657390594482422 0.3535054326057434082 0.34168887138366699219 0.34431749582290649414 0.33652397990226745605 0.31592044234275817871 0.27687668800354003906 0.27080357074737548828 0.30673259496688842773 0.35914129018783569336 0.39613640308380126953 0.39315593242645263672 0.38276648521423339844 0.35944372415542602539 0.35224869847297668457 0.39998272061347961426 0.38880074024200439453 0.35657891631126403809 0.2988509833812713623 0.31544360518455505371 0.30303603410720825195 0.29370021820068359375 0.2953828275203704834 0.30807253718376159668 0.3205915987491607666 0.32801759243011474609 0.34020596742630004883 0.37041622400283813477 0.36641484498977661133 0.36910459399223327637 0.33714836835861206055 0.31201031804084777832 0.33446094393730163574 0.36364972591400146484 0.39039778709411621094 0.38687956333160400391 0.35592436790466308594 0.34304073452949523926 0.37467187643051147461 0.39865767955780029297 0.39427042007446289063 0.40632867813110351563 0.41153234243392944336 0.41090297698974609375 0.39931434392929077148 0.36914309859275817871 0.2988109588623046875 0.31350606679916381836 0.36876434087753295898 0.4084841609001159668 0.3550771176815032959 0.33806601166725158691 0.34648534655570983887 0.3871504366397857666 0.39483383297920227051 0.37992548942565917969 0.37371075153350830078 0.34882774949073791504 0.34585711359977722168 0.3597335517406463623 0.36469641327857971191 0.35742983222007751465 0.34568819403648376465 0.34968239068984985352 0.34806752204895019531 0.34985724091529846191 0.35825550556182861328 0.35265931487083435059 0.35236036777496337891 0.35010266304016113281 0.34267514944076538086 0.34569463133811950684 0.34820076823234558105 0.35474368929862976074 0.37865030765533447266 0.38580805063247680664 0.38674399256706237793 0.3844127953052520752 0.38388270139694213867 0.39521035552024841309 0.41070634126663208008 0.39617782831192016602 0.36599808931350708008 0.26562526822090148926 0.29397109150886535645 0.31118449568748474121 0.34394106268882751465 0.38004291057586669922 0.38271224498748779297 0.37322136759757995605 0.36466732621192932129 0.35001230239868164063 0.35362342000007629395 0.34073278307914733887 0.36880096793174743652 0.41111642122268676758 0.41440248489379882813 0.37970250844955444336 0.38961333036422729492 0.38620114326477050781 0.34424227476119995117 0.34423032402992248535 0.34991222620010375977 0.35207384824752807617 0.33129966259002685547 0.13137488067150115967 
nan 0.11006569117307662964 0.1895885765552520752 0.2326507270336151123 0.27997216582298278809 0.32095664739608764648 0.34394887089729309082 0.36037772893905639648 0.36531206965446472168 0.36024764180183410645 0.36113908886909484863 0.37019661068916320801 0.38533160090446472168 0.4092553555965423584 0.41132590174674987793 0.38304162025451660156 0.37727963924407958984 0.40284559130668640137 0.40981352329254150391 0.41038024425506591797 0.41426917910575866699 0.40718299150466918945 0.40531462430953979492 0.38082623481750488281 0.35702338814735412598 0.34378138184547424316 0.33018407225608825684 0.32329863309860229492 0.3298193514347076416 0.32972857356071472168 0.33196943998336791992 0.32343882322311401367 0.35460317134857177734 0.35520279407501220703 0.36882185935974121094 0.36046430468559265137 0.3501453399658203125 0.36033257842063903809 0.39787662029266357422 0.41393879055976867676 0.41437515616416931152 0.38418334722518920898 0.3599776923656463623 0.34224039316177368164 0.34476554393768310547 0.35371181368827819824 0.33334204554557800293 0.31240698695182800293 0.29199707508087158203 0.2371861189603805542 0.16543920338153839111 0.16093914210796356201 0.2570171356201171875 0.29492229223251342773 0.30434241890907287598 0.29253229498863220215 0.29454430937767028809 0.30372214317321777344 0.3167018592357635498 0.32083222270011901855 0.32277265191078186035 0.33186519145965576172 0.36361172795295715332 0.38312235474586486816 0.39215040206909179688 0.37074801325798034668 0.35015809535980224609 0.34095260500907897949 0.32949197292327880859 0.28889134526252746582 0.29213503003120422363 0.3651809394359588623 0.40557348728179931641 0.40846207737922668457 0.3936869502067565918 0.38952097296714782715 0.37586003541946411133 0.37501281499862670898 0.39388120174407958984 0.39017900824546813965 0.35685843229293823242 0.31278881430625915527 0.30748099088668823242 0.31210577487945556641 0.31038454174995422363 0.2663364112377166748 0.27370586991310119629 0.29650482535362243652 0.32586759328842163086 0.33041244745254516602 0.35719817876815795898 0.36820423603057861328 0.37724086642265319824 0.34743797779083251953 0.32293590903282165527 0.34319087862968444824 0.37061506509780883789 0.39883756637573242188 0.37474977970123291016 0.35301360487937927246 0.33815112709999084473 0.3761768043041229248 0.40260332822799682617 0.39505377411842346191 0.39013147354125976563 0.40171355009078979492 0.39951080083847045898 0.38767847418785095215 0.37310969829559326172 0.32613164186477661133 0.2925834953784942627 0.29201218485832214355 0.37480393052101135254 0.35773855447769165039 0.35022452473640441895 0.36412343382835388184 0.40569955110549926758 0.39535313844680786133 0.39460545778274536133 0.3739891350269317627 0.35393655300140380859 0.34590604901313781738 0.35337626934051513672 0.36326357722282409668 0.3596439659595489502 0.34961897134780883789 0.35922643542289733887 0.36541259288787841797 0.36022010445594787598 0.36357960104942321777 0.36718574166297912598 0.35712203383445739746 0.3443546295166015625 0.32462137937545776367 0.32714819908142089844 0.35713762044906616211 0.39669919013977050781 0.40417560935020446777 0.42154479026794433594 0.42218574881553649902 0.40621677041053771973 0.38640561699867248535 0.40085610747337341309 0.38381969928741455078 0.31993147730827331543 0.23968212306499481201 0.28371924161911010742 0.34475535154342651367 0.33684816956520080566 0.3578166663646697998 0.36115726828575134277 0.38961014151573181152 0.37467393279075622559 0.36398565769195556641 0.35533738136291503906 0.35184237360954284668 0.3447665870189666748 0.37754392623901367188 0.41316390037536621094 0.39860606193542480469 0.38570448756217956543 0.41162785887718200684 0.40387138724327087402 0.38010177016258239746 0.36154779791831970215 0.36266082525253295898 0.3599599301815032959 0.34344851970672607422 0.13295693695545196533 
nan 0.12308493256568908691 0.20625184476375579834 0.2342904210090637207 0.2902679145336151123 0.32200676202774047852 0.34276595711708068848 0.36181780695915222168 0.36267286539077758789 0.35346135497093200684 0.35568457841873168945 0.36574342846870422363 0.3778756558895111084 0.39014875888824462891 0.3932774960994720459 0.39661300182342529297 0.4036191403865814209 0.39592102169990539551 0.39650610089302062988 0.4068558812141418457 0.41343662142753601074 0.39665001630783081055 0.39105576276779174805 0.37076628208160400391 0.35796812176704406738 0.34671711921691894531 0.32839223742485046387 0.31925889849662780762 0.30140903592109680176 0.30573546886444091797 0.31465452909469604492 0.33295762538909912109 0.3133678734302520752 0.31129783391952514648 0.35585525631904602051 0.3465251624584197998 0.34785956144332885742 0.35460433363914489746 0.38978135585784912109 0.4209798276424407959 0.41579669713973999023 0.3991978764533996582 0.36641132831573486328 0.33444258570671081543 0.33827236294746398926 0.32223373651504516602 0.31073293089866638184 0.31909033656120300293 0.3085333704948425293 0.26192224025726318359 0.20127256214618682861 0.14779385924339294434 0.27542918920516967773 0.32308000326156616211 0.32467404007911682129 0.30616894364356994629 0.29878526926040649414 0.30754569172859191895 0.31067749857902526855 0.30477657914161682129 0.30457967519760131836 0.31369268894195556641 0.31828531622886657715 0.32547637820243835449 0.36838632822036743164 0.43918019533157348633 0.38380068540573120117 0.34805166721343994141 0.33386889100074768066 0.29773321747779846191 0.30248570442199707031 0.40714231133460998535 0.4615637362003326416 0.41525658965110778809 0.39743322134017944336 0.39264225959777832031 0.38437181711196899414 0.37551727890968322754 0.37739726901054382324 0.37338748574256896973 0.35002472996711730957 0.33627796173095703125 0.33224990963935852051 0.32804277539253234863 0.31781974434852600098 0.29645565152168273926 0.29676231741905212402 0.31898283958435058594 0.32572415471076965332 0.32398790121078491211 0.33973768353462219238 0.36802577972412109375 0.38250586390495300293 0.374019622802734375 0.34378981590270996094 0.37065419554710388184 0.38264107704162597656 0.39061567187309265137 0.36509305238723754883 0.34648099541664123535 0.33443349599838256836 0.38049980998039245605 0.39535894989967346191 0.39190247654914855957 0.38210621476173400879 0.40139093995094299316 0.40086263418197631836 0.39321076869964599609 0.38471198081970214844 0.35147979855537414551 0.32583242654800415039 0.29549571871757507324 0.34731894731521606445 0.35919457674026489258 0.37617823481559753418 0.36091554164886474609 0.40363103151321411133 0.41011181473731994629 0.39003211259841918945 0.36630210280418395996 0.36177092790603637695 0.35444557666778564453 0.34344089031219482422 0.35272207856178283691 0.36016267538070678711 0.36258697509765625 0.36824458837509155273 0.37001347541809082031 0.36496457457542419434 0.35800322890281677246 0.37197723984718322754 0.38184133172035217285 0.3687922060489654541 0.3313878178596496582 0.32781171798706054688 0.36847731471061706543 0.3939024806022644043 0.40036544203758239746 0.42324727773666381836 0.4202308356761932373 0.40993747115135192871 0.4041290581226348877 0.36261776089668273926 0.25580796599388122559 0.1736411750316619873 0.16013893485069274902 0.3015715181827545166 0.37331968545913696289 0.37338963150978088379 0.35563611984252929688 0.37860891222953796387 0.38100874423980712891 0.35397613048553466797 0.34593167901039123535 0.35585692524909973145 0.36877843737602233887 0.38216310739517211914 0.37279719114303588867 0.39114022254943847656 0.37497249245643615723 0.3784885108470916748 0.39381188154220581055 0.42369562387466430664 0.42612209916114807129 0.38534891605377197266 0.36705955862998962402 0.38693588972091674805 0.37886306643486022949 0.14249433577060699463 
nan 0.12235572189092636108 0.22379779815673828125 0.27717706561088562012 0.32017314434051513672 0.3330078125 0.34494855999946594238 0.35810542106628417969 0.36315119266510009766 0.35375574231147766113 0.35521987080574035645 0.35803526639938354492 0.36658525466918945313 0.35887065529823303223 0.36499157547950744629 0.39630106091499328613 0.39736297726631164551 0.37963545322418212891 0.3941910862922668457 0.41357028484344482422 0.42207556962966918945 0.40738302469253540039 0.38758027553558349609 0.36204186081886291504 0.34645199775695800781 0.34850776195526123047 0.3347244560718536377 0.33105626702308654785 0.3281542360782623291 0.30793422460556030273 0.30739501118659973145 0.33677044510841369629 0.33979535102844238281 0.3420391380786895752 0.34444949030876159668 0.34112527966499328613 0.3392473757266998291 0.34338670969009399414 0.3764273524284362793 0.4210319221019744873 0.4116134345531463623 0.41922363638877868652 0.39712545275688171387 0.35800334811210632324 0.36414191126823425293 0.37505367398262023926 0.36887034773826599121 0.38804286718368530273 0.36323398351669311523 0.24345137178897857666 0.15430815517902374268 0.16253067553043365479 0.35718584060668945313 0.35861083865165710449 0.32295915484428405762 0.30667376518249511719 0.30980822443962097168 0.33315259218215942383 0.33978199958801269531 0.32724046707153320313 0.31996133923530578613 0.30530202388763427734 0.29570621252059936523 0.31127434968948364258 0.3447195887565612793 0.44350525736808776855 0.42191818356513977051 0.3521575927734375 0.34047585725784301758 0.32449513673782348633 0.29325467348098754883 0.37285238504409790039 0.4607480466365814209 0.41889959573745727539 0.39577460289001464844 0.39732462167739868164 0.39801055192947387695 0.38537076115608215332 0.3829008638858795166 0.38557973504066467285 0.36985307931900024414 0.33111140131950378418 0.33524355292320251465 0.33504563570022583008 0.32699382305145263672 0.30808860063552856445 0.2782097160816192627 0.28068652749061584473 0.31931483745574951172 0.31950598955154418945 0.33153522014617919922 0.35006773471832275391 0.3622258603572845459 0.35401758551597595215 0.36638963222503662109 0.40541499853134155273 0.39491227269172668457 0.36266502737998962402 0.33998897671699523926 0.33871772885322570801 0.33434119820594787598 0.35634410381317138672 0.38364353775978088379 0.39076513051986694336 0.38879740238189697266 0.39546409249305725098 0.39718157052993774414 0.40277868509292602539 0.39583489298820495605 0.35519647598266601563 0.33823472261428833008 0.30574110150337219238 0.3132381439208984375 0.35059255361557006836 0.35549777746200561523 0.35461926460266113281 0.37981146574020385742 0.38781768083572387695 0.37027746438980102539 0.3597259819507598877 0.34782925248146057129 0.35361424088478088379 0.36283758282661437988 0.36376360058784484863 0.36136722564697265625 0.36678484082221984863 0.37329077720642089844 0.37125229835510253906 0.36718386411666870117 0.3584391474723815918 0.3608252108097076416 0.37288489937782287598 0.3703747093677520752 0.35920295119285583496 0.37130188941955566406 0.39830303192138671875 0.40451008081436157227 0.40909346938133239746 0.40958365797996520996 0.40173351764678955078 0.3933124244213104248 0.36113381385803222656 0.26210489869117736816 0.18962776660919189453 0.18696206808090209961 0.19003576040267944336 0.34215816855430603027 0.38392755389213562012 0.36815235018730163574 0.35167053341865539551 0.38796949386596679688 0.38031828403472900391 0.35799893736839294434 0.35790732502937316895 0.35504385828971862793 0.36994093656539916992 0.38674551248550415039 0.3835468590259552002 0.40725162625312805176 0.39071053266525268555 0.36391717195510864258 0.38791772723197937012 0.41420450806617736816 0.41022282838821411133 0.38549172878265380859 0.36021578311920166016 0.35638672113418579102 0.33442133665084838867 0.13368864357471466064 
nan 0.15144234895706176758 0.2686767876148223877 0.3148784637451171875 0.33251902461051940918 0.3440379798412322998 0.34834310412406921387 0.35649061203002929688 0.3590844273567199707 0.35116493701934814453 0.35036000609397888184 0.35857608914375305176 0.36795279383659362793 0.36447483301162719727 0.36944094300270080566 0.40219590067863464355 0.39506179094314575195 0.39051932096481323242 0.38286358118057250977 0.39016988873481750488 0.40048080682754516602 0.40023937821388244629 0.3807099461555480957 0.3507213592529296875 0.34152397513389587402 0.34278050065040588379 0.34307575225830078125 0.35239097476005554199 0.34216248989105224609 0.32058683037757873535 0.32201346755027770996 0.34042054414749145508 0.34223651885986328125 0.34288817644119262695 0.3407007753849029541 0.34924975037574768066 0.35274362564086914063 0.35109019279479980469 0.36718249320983886719 0.38392823934555053711 0.40767717361450195313 0.42083606123924255371 0.39844790101051330566 0.35405972599983215332 0.37113907933235168457 0.39314350485801696777 0.38562127947807312012 0.38341692090034484863 0.37594765424728393555 0.2210168987512588501 0.11185169965028762817 0.17498140037059783936 0.32537469267845153809 0.3274472355842590332 0.31806951761245727539 0.31222477555274963379 0.30647718906402587891 0.32751297950744628906 0.31169840693473815918 0.30579704046249389648 0.31819745898246765137 0.3150291740894317627 0.30813944339752197266 0.31438863277435302734 0.32854023575782775879 0.40443912148475646973 0.40265497565269470215 0.35628056526184082031 0.34866845607757568359 0.34712061285972595215 0.32276180386543273926 0.32528248429298400879 0.44623035192489624023 0.46589621901512145996 0.4132995307445526123 0.39927679300308227539 0.39937376976013183594 0.39242231845855712891 0.39329853653907775879 0.38928899168968200684 0.38180965185165405273 0.34758529067039489746 0.33923959732055664063 0.34306278824806213379 0.34948807954788208008 0.32375305891036987305 0.29301917552947998047 0.2717501223087310791 0.28461423516273498535 0.31529772281646728516 0.32372671365737915039 0.33619937300682067871 0.34595349431037902832 0.31565955281257629395 0.3535830080509185791 0.40453130006790161133 0.3976383507251739502 0.35611081123352050781 0.3318239748477935791 0.33033850789070129395 0.32867756485939025879 0.32833594083786010742 0.36205583810806274414 0.38068112730979919434 0.38558170199394226074 0.39372500777244567871 0.39399793744087219238 0.40001887083053588867 0.38839519023895263672 0.35236659646034240723 0.34662389755249023438 0.29087436199188232422 0.27673429250717163086 0.36079034209251403809 0.36172521114349365234 0.37355840206146240234 0.38534444570541381836 0.38317921757698059082 0.36590871214866638184 0.35174593329429626465 0.34542116522789001465 0.35300037264823913574 0.36364540457725524902 0.36786535382270812988 0.36567869782447814941 0.36152118444442749023 0.36848810315132141113 0.3672199547290802002 0.36692643165588378906 0.36442065238952636719 0.35149198770523071289 0.35049644112586975098 0.35843253135681152344 0.36518770456314086914 0.39909780025482177734 0.41165837645530700684 0.42472067475318908691 0.42820894718170166016 0.40102115273475646973 0.36374846100807189941 0.33152082562446594238 0.30324399471282958984 0.21706943213939666748 0.20028632879257202148 0.20544175803661346436 0.20372410118579864502 0.36233261227607727051 0.38159534335136413574 0.36897778511047363281 0.38784402608871459961 0.39876002073287963867 0.38992005586624145508 0.38332578539848327637 0.38071429729461669922 0.34699478745460510254 0.39254915714263916016 0.40614414215087890625 0.39924615621566772461 0.4071432948112487793 0.4073391258716583252 0.38725650310516357422 0.392246246337890625 0.3822600245475769043 0.39896067976951599121 0.39057421684265136719 0.3638171851634979248 0.3566347658634185791 0.30306729674339294434 0.11073651164770126343 
nan 0.18546599149703979492 0.32137495279312133789 0.35880401730537414551 0.36638796329498291016 0.36042743921279907227 0.35399574041366577148 0.35670968890190124512 0.35498943924903869629 0.35896608233451843262 0.35517582297325134277 0.36567592620849609375 0.37420302629470825195 0.37929329276084899902 0.39506170153617858887 0.42194858193397521973 0.42626807093620300293 0.39904189109802246094 0.37524646520614624023 0.38555443286895751953 0.38723543286323547363 0.3727111518383026123 0.37699800729751586914 0.36000072956085205078 0.35057848691940307617 0.35386031866073608398 0.35232838988304138184 0.35522359609603881836 0.34185266494750976563 0.33009552955627441406 0.34451374411582946777 0.35670015215873718262 0.34512987732887268066 0.34132012724876403809 0.34373742341995239258 0.35628658533096313477 0.3631096184253692627 0.36411258578300476074 0.37594705820083618164 0.37971594929695129395 0.40515235066413879395 0.43166574835777282715 0.41918900609016418457 0.3916473090648651123 0.35703387856483459473 0.3602505028247833252 0.36071860790252685547 0.35600230097770690918 0.34265783429145812988 0.2469946742057800293 0.13472039997577667236 0.12300093472003936768 0.26775819063186645508 0.31015351414680480957 0.30559915304183959961 0.29684430360794067383 0.30394399166107177734 0.31524258852005004883 0.29316952824592590332 0.2862491905689239502 0.29180908203125 0.30502095818519592285 0.30236020684242248535 0.3059215247631072998 0.32102108001708984375 0.35193511843681335449 0.40826365351676940918 0.38289353251457214355 0.3508491814136505127 0.35366135835647583008 0.34189328551292419434 0.32417929172515869141 0.419193267822265625 0.47423854470252990723 0.45583310723304748535 0.4360650181770324707 0.42074069380760192871 0.40249022841453552246 0.39608809351921081543 0.38558024168014526367 0.38106286525726318359 0.35935914516448974609 0.34998691082000732422 0.35251200199127197266 0.38097864389419555664 0.38261833786964416504 0.32151353359222412109 0.2948894500732421875 0.27438917756080627441 0.32130196690559387207 0.32904154062271118164 0.3360589444637298584 0.33736848831176757813 0.32071948051452636719 0.34565714001655578613 0.35955449938774108887 0.35929611325263977051 0.32946065068244934082 0.32789668440818786621 0.33524858951568603516 0.33756801486015319824 0.31282705068588256836 0.33139219880104064941 0.36143040657043457031 0.38096264004707336426 0.38883092999458312988 0.38562959432601928711 0.39267370104789733887 0.37998029589653015137 0.35394102334976196289 0.34877046942710876465 0.31588312983512878418 0.28485971689224243164 0.33787235617637634277 0.35444203019142150879 0.38150924444198608398 0.39614617824554443359 0.38581618666648864746 0.3603057861328125 0.35426384210586547852 0.35229152441024780273 0.36167228221893310547 0.36677274107933044434 0.36507424712181091309 0.35822391510009765625 0.35158050060272216797 0.36254230141639709473 0.36261385679244995117 0.37180495262145996094 0.37539371848106384277 0.36023676395416259766 0.34939026832580566406 0.34014564752578735352 0.33702179789543151855 0.36394658684730529785 0.39035642147064208984 0.41345223784446716309 0.41135430335998535156 0.35259002447128295898 0.31269028782844543457 0.31151252985000610352 0.28235158324241638184 0.19017221033573150635 0.20354722440242767334 0.21397548913955688477 0.23954078555107116699 0.36900663375854492188 0.37905210256576538086 0.38182973861694335938 0.39399641752243041992 0.39436262845993041992 0.3897813260555267334 0.39260303974151611328 0.38325414061546325684 0.38922789692878723145 0.41152757406234741211 0.40354868769645690918 0.37973907589912414551 0.36107793450355529785 0.39477431774139404297 0.40997543931007385254 0.39995148777961730957 0.41261518001556396484 0.42644351720809936523 0.39871454238891601563 0.38810598850250244141 0.38265642523765563965 0.36619210243225097656 0.1302216947078704834 
nan 0.19067668914794921875 0.33935654163360595703 0.36340862512588500977 0.36577856540679931641 0.3550198674201965332 0.3537680208683013916 0.34727743268013000488 0.3533745110034942627 0.35609337687492370605 0.34809216856956481934 0.36466577649116516113 0.37889018654823303223 0.38100552558898925781 0.38805449008941650391 0.40798318386077880859 0.43062460422515869141 0.40590509772300720215 0.37685704231262207031 0.38304090499877929688 0.38531073927879333496 0.36757019162178039551 0.37756431102752685547 0.35953474044799804688 0.35360345244407653809 0.35695388913154602051 0.34950810670852661133 0.34541782736778259277 0.33283376693725585938 0.32918369770050048828 0.34854972362518310547 0.34881415963172912598 0.35067576169967651367 0.3501656949520111084 0.34164860844612121582 0.3613898158073425293 0.3653202354907989502 0.37557470798492431641 0.38375389575958251953 0.38902756571769714355 0.41319498419761657715 0.43739727139472961426 0.43109726905822753906 0.4174429774284362793 0.37861421704292297363 0.34964135289192199707 0.35337343811988830566 0.38062372803688049316 0.34618943929672241211 0.28769263625144958496 0.1784410625696182251 0.12354977428913116455 0.25507655739784240723 0.29932859539985656738 0.29724347591400146484 0.29065564274787902832 0.30991560220718383789 0.31944113969802856445 0.3169218599796295166 0.313922882080078125 0.30219766497611999512 0.28877466917037963867 0.30197197198867797852 0.30867105722427368164 0.30513724684715270996 0.31118088960647583008 0.40674871206283569336 0.39772644639015197754 0.36758565902709960938 0.34941208362579345703 0.33775311708450317383 0.32665574550628662109 0.38045576214790344238 0.45260852575302124023 0.46317270398139953613 0.46472367644309997559 0.43772482872009277344 0.3939526975154876709 0.38886377215385437012 0.37931856513023376465 0.38246941566467285156 0.36848205327987670898 0.36981004476547241211 0.34699290990829467773 0.35526254773139953613 0.39685100317001342773 0.37388184666633605957 0.31657898426055908203 0.27842804789543151855 0.28680288791656494141 0.28324344754219055176 0.32880920171737670898 0.32643368840217590332 0.3011811375617980957 0.31724387407302856445 0.32141578197479248047 0.3306693732738494873 0.32803806662559509277 0.33536386489868164063 0.33738958835601806641 0.34396588802337646484 0.33129194378852844238 0.33206939697265625 0.35554492473602294922 0.38116362690925598145 0.37128496170043945313 0.37335136532783508301 0.38276043534278869629 0.37149855494499206543 0.34324342012405395508 0.3181400299072265625 0.29541283845901489258 0.25990468263626098633 0.28170058131217956543 0.34574243426322937012 0.37610858678817749023 0.40046969056129455566 0.3900222480297088623 0.35577908158302307129 0.35576042532920837402 0.34756615757942199707 0.35093516111373901367 0.36417222023010253906 0.36453899741172790527 0.34583622217178344727 0.34760615229606628418 0.36672407388687133789 0.36913719773292541504 0.36925598978996276855 0.36573708057403564453 0.36019289493560791016 0.34386280179023742676 0.32706874608993530273 0.32996758818626403809 0.34686905145645141602 0.35114338994026184082 0.35518997907638549805 0.36149179935455322266 0.30209457874298095703 0.29066708683967590332 0.27479711174964904785 0.25832033157348632813 0.2111257016658782959 0.26107540726661682129 0.25593984127044677734 0.26637914776802062988 0.36945867538452148438 0.36944931745529174805 0.37457969784736633301 0.38618949055671691895 0.38129732012748718262 0.37075281143188476563 0.38520801067352294922 0.37653610110282897949 0.39526107907295227051 0.39809149503707885742 0.3750362396240234375 0.36174377799034118652 0.35995391011238098145 0.33300915360450744629 0.38197591900825500488 0.42310953140258789063 0.41388168931007385254 0.39365550875663757324 0.40157651901245117188 0.40874391794204711914 0.39914089441299438477 0.39027497172355651855 0.14217421412467956543 
nan 0.18847863376140594482 0.33876889944076538086 0.3550789952278137207 0.35766080021858215332 0.36129260063171386719 0.35740885138511657715 0.35060650110244750977 0.35273882746696472168 0.34566771984100341797 0.34342786669731140137 0.35791125893592834473 0.37247636914253234863 0.37744221091270446777 0.38638392090797424316 0.40471500158309936523 0.42005804181098937988 0.41946098208427429199 0.39908364415168762207 0.38865348696708679199 0.39562335610389709473 0.36929690837860107422 0.34714594483375549316 0.34562912583351135254 0.35340598225593566895 0.35867348313331604004 0.35735216736793518066 0.35318285226821899414 0.32975420355796813965 0.33605813980102539063 0.35091984272003173828 0.35263615846633911133 0.35111668705940246582 0.34590202569961547852 0.34329128265380859375 0.35354477167129516602 0.36690816283226013184 0.36690697073936462402 0.37365546822547912598 0.38294759392738342285 0.38786605000495910645 0.39917525649070739746 0.42128765583038330078 0.41874751448631286621 0.40297785401344299316 0.39243239164352416992 0.39395293593406677246 0.39333355426788330078 0.39349243044853210449 0.32890641689300537109 0.23416455090045928955 0.12059029191732406616 0.21795479953289031982 0.27488481998443603516 0.2894674837589263916 0.29345172643661499023 0.31609070301055908203 0.32055178284645080566 0.32615116238594055176 0.32367950677871704102 0.3287321627140045166 0.31925553083419799805 0.32452183961868286133 0.33151683211326599121 0.29897150397300720215 0.29352807998657226563 0.36906364560127258301 0.40334591269493103027 0.39643740653991699219 0.38023892045021057129 0.34976983070373535156 0.33222347497940063477 0.3722184300422668457 0.43221324682235717773 0.45552322268486022949 0.46312221884727478027 0.45082145929336547852 0.40008437633514404297 0.39096415042877197266 0.38425078988075256348 0.38533186912536621094 0.38173183798789978027 0.38953095674514770508 0.36543992161750793457 0.34578630328178405762 0.39670038223266601563 0.38260936737060546875 0.32147178053855895996 0.31687396764755249023 0.31376159191131591797 0.26878046989440917969 0.30115962028503417969 0.32512438297271728516 0.29605120420455932617 0.2845306098461151123 0.29850557446479797363 0.31160381436347961426 0.32538980245590209961 0.3359088897705078125 0.3290633857250213623 0.3393204808235168457 0.33973470330238342285 0.34844350814819335938 0.36628371477127075195 0.37603098154067993164 0.36753073334693908691 0.3744030296802520752 0.38852170109748840332 0.38708794116973876953 0.35912311077117919922 0.32525420188903808594 0.28037187457084655762 0.2755406796932220459 0.32470935583114624023 0.36318349838256835938 0.37609174847602844238 0.39178043603897094727 0.3810488581657409668 0.36311954259872436523 0.36273604631423950195 0.34872269630432128906 0.34888899326324462891 0.36017939448356628418 0.36386877298355102539 0.35320058465003967285 0.34078741073608398438 0.3528499901294708252 0.36012867093086242676 0.36010205745697021484 0.35685822367668151855 0.34113395214080810547 0.32873547077178955078 0.3313102424144744873 0.33775061368942260742 0.34483420848846435547 0.34586721658706665039 0.33682191371917724609 0.33269155025482177734 0.28517821431159973145 0.24771854281425476074 0.28155040740966796875 0.31459450721740722656 0.2725988924503326416 0.30322813987731933594 0.2683658599853515625 0.30364471673965454102 0.37407591938972473145 0.37290057539939880371 0.38174718618392944336 0.3833491206169128418 0.38094133138656616211 0.3868013918399810791 0.3887278139591217041 0.38593912124633789063 0.3817170262336730957 0.39358690381050109863 0.35999283194541931152 0.35748752951622009277 0.34768903255462646484 0.31220483779907226563 0.37356698513031005859 0.41319608688354492188 0.39004087448120117188 0.37980660796165466309 0.40808427333831787109 0.3969338834285736084 0.39898550510406494141 0.39305219054222106934 0.14526531100273132324 
nan 0.18730428814888000488 0.32019513845443725586 0.34864541888236999512 0.35806471109390258789 0.36127340793609619141 0.35969322919845581055 0.34873792529106140137 0.33758118748664855957 0.32469585537910461426 0.34514909982681274414 0.35491204261779785156 0.36790838837623596191 0.37451389431953430176 0.3845335543155670166 0.39186608791351318359 0.41031044721603393555 0.4131215214729309082 0.40832293033599853516 0.40665104985237121582 0.40476766228675842285 0.38496935367584228516 0.34671184420585632324 0.33940622210502624512 0.35314983129501342773 0.36023122072219848633 0.36581525206565856934 0.36011108756065368652 0.33709865808486938477 0.34288707375526428223 0.34754604101181030273 0.3589649200439453125 0.36093828082084655762 0.35117414593696594238 0.35163861513137817383 0.34869530797004699707 0.36096101999282836914 0.35255548357963562012 0.3488305509090423584 0.35052332282066345215 0.34847480058670043945 0.35701173543930053711 0.38669082522392272949 0.41619896888732910156 0.42646801471710205078 0.43728116154670715332 0.43044990301132202148 0.42090013623237609863 0.42201766371726989746 0.40214884281158447266 0.30255389213562011719 0.122336558997631073 0.13612976670265197754 0.19149918854236602783 0.24646365642547607422 0.26689186692237854004 0.29967886209487915039 0.32006025314331054688 0.34338828921318054199 0.32936951518058776855 0.32644984126091003418 0.32936346530914306641 0.33138236403465270996 0.33112534880638122559 0.32592558860778808594 0.32069689035415649414 0.38370421528816223145 0.40143692493438720703 0.38000583648681640625 0.40256381034851074219 0.38838669657707214355 0.35191434621810913086 0.36257818341255187988 0.41500255465507507324 0.42297652363777160645 0.44284918904304504395 0.45414713025093078613 0.39759245514869689941 0.36419087648391723633 0.38893726468086242676 0.40112870931625366211 0.40237015485763549805 0.40640726685523986816 0.40290495753288269043 0.3935050666332244873 0.41367197036743164063 0.39446845650672912598 0.37153634428977966309 0.37438461184501647949 0.37258809804916381836 0.3580862879753112793 0.31605681777000427246 0.2927176356315612793 0.28667280077934265137 0.31183895468711853027 0.29080301523208618164 0.27114459872245788574 0.31264173984527587891 0.32353475689888000488 0.32104274630546569824 0.32853651046752929688 0.33055585622787475586 0.34349560737609863281 0.36501857638359069824 0.36928194761276245117 0.37328395247459411621 0.37581494450569152832 0.38339522480964660645 0.37729164958000183105 0.35661548376083374023 0.32604715228080749512 0.29058769345283508301 0.28214445710182189941 0.36052677035331726074 0.37152901291847229004 0.37968230247497558594 0.39220336079597473145 0.36997997760772705078 0.35048854351043701172 0.35445636510848999023 0.34099328517913818359 0.34649232029914855957 0.35247984528541564941 0.35454893112182617188 0.35050827264785766602 0.34031814336776733398 0.34317287802696228027 0.34342420101165771484 0.34071809053421020508 0.33386272192001342773 0.3378956913948059082 0.33714008331298828125 0.33816647529602050781 0.3351784050464630127 0.34451448917388916016 0.35035049915313720703 0.34774693846702575684 0.33667716383934020996 0.27476051449775695801 0.25471034646034240723 0.2677479088306427002 0.33102244138717651367 0.32165819406509399414 0.26864889264106750488 0.25642895698547363281 0.33401200175285339355 0.37980562448501586914 0.37726983428001403809 0.38019728660583496094 0.38570588827133178711 0.38731595873832702637 0.39292249083518981934 0.38442665338516235352 0.38648936152458190918 0.3945783078670501709 0.38099631667137145996 0.34962829947471618652 0.34148010611534118652 0.3503296971321105957 0.3528505861759185791 0.35836011171340942383 0.35846364498138427734 0.37009403109550476074 0.35277992486953735352 0.3662936091423034668 0.3625011742115020752 0.39431959390640258789 0.38981178402900695801 0.14476953446865081787 
nan 0.19493927061557769775 0.31545031070709228516 0.34219822287559509277 0.3598137199878692627 0.36290669441223144531 0.35872951149940490723 0.35744002461433410645 0.35024505853652954102 0.34113776683807373047 0.33750668168067932129 0.34934508800506591797 0.36542466282844543457 0.36539068818092346191 0.36767414212226867676 0.3696841895580291748 0.39401197433471679688 0.39961352944374084473 0.40320214629173278809 0.40427932143211364746 0.39779800176620483398 0.3752740323543548584 0.34108501672744750977 0.34367710351943969727 0.34805768728256225586 0.35145747661590576172 0.34889814257621765137 0.33667188882827758789 0.33790823817253112793 0.34369540214538574219 0.3333956599235534668 0.3558025062084197998 0.34954124689102172852 0.35531955957412719727 0.34632593393325805664 0.34404304623603820801 0.34708410501480102539 0.33748567104339599609 0.33692145347595214844 0.34314715862274169922 0.36028513312339782715 0.35944798588752746582 0.37160757184028625488 0.40250679850578308105 0.42390584945678710938 0.43834632635116577148 0.43432193994522094727 0.4327456355094909668 0.41885635256767272949 0.39251559972763061523 0.29983279109001159668 0.16329108178615570068 0.086028471589088439941 0.11398373544216156006 0.18032488226890563965 0.23390743136405944824 0.30783075094223022461 0.32198828458786010742 0.32912534475326538086 0.31837260723114013672 0.31831514835357666016 0.31165614724159240723 0.32168725132942199707 0.3302555084228515625 0.33424428105354309082 0.32826751470565795898 0.35238340497016906738 0.36997243762016296387 0.35565748810768127441 0.38647279143333435059 0.41955548524856567383 0.37266850471496582031 0.36913669109344482422 0.43682020902633666992 0.43211224675178527832 0.42427030205726623535 0.42877954244613647461 0.37612605094909667969 0.34472301602363586426 0.39042547345161437988 0.40791311860084533691 0.40042212605476379395 0.41340586543083190918 0.4170685112476348877 0.41667097806930541992 0.4207217097282409668 0.41304600238800048828 0.4016393125057220459 0.38811782002449035645 0.38623768091201782227 0.3856868743896484375 0.33802321553230285645 0.29936960339546203613 0.30605426430702209473 0.33648955821990966797 0.3234990537166595459 0.27644491195678710938 0.2923056185245513916 0.3213030397891998291 0.32648906111717224121 0.32512241601943969727 0.3022282719612121582 0.29072850942611694336 0.3275674283504486084 0.36798128485679626465 0.36502674221992492676 0.36162069439888000488 0.36452844738960266113 0.37552657723426818848 0.35517862439155578613 0.33021056652069091797 0.2805106043815612793 0.3049971461296081543 0.3429680168628692627 0.36607435345649719238 0.3709506988525390625 0.3853391110897064209 0.37286856770515441895 0.34778669476509094238 0.35410645604133605957 0.34751173853874206543 0.35364383459091186523 0.35764306783676147461 0.35051649808883666992 0.33239698410034179688 0.33659058809280395508 0.34966519474983215332 0.34694895148277282715 0.32691070437431335449 0.32067543268203735352 0.3297844231128692627 0.33830481767654418945 0.34080713987350463867 0.34084087610244750977 0.34831669926643371582 0.36265426874160766602 0.36316534876823425293 0.32111141085624694824 0.22935928404331207275 0.25889360904693603516 0.31520369648933410645 0.37242391705513000488 0.3176015317440032959 0.27486822009086608887 0.29815894365310668945 0.37766799330711364746 0.38823214173316955566 0.37485197186470031738 0.37856808304786682129 0.38194444775581359863 0.37730160355567932129 0.38411983847618103027 0.39470273256301879883 0.40119400620460510254 0.38978898525238037109 0.35667383670806884766 0.34512367844581604004 0.34636437892913818359 0.34900844097137451172 0.34731554985046386719 0.33843979239463806152 0.33920389413833618164 0.3302008211612701416 0.32023423910140991211 0.33397129178047180176 0.3521791994571685791 0.3752772212028503418 0.37175551056861877441 0.13961629569530487061 
nan 0.19119095802307128906 0.31287497282028198242 0.33717584609985351563 0.34437981247901916504 0.33936962485313415527 0.35036790370941162109 0.35353443026542663574 0.34663105010986328125 0.3488527834415435791 0.35853737592697143555 0.35663545131683349609 0.36268314719200134277 0.36049294471740722656 0.36717277765274047852 0.36537647247314453125 0.38063383102416992188 0.38652426004409790039 0.39911264181137084961 0.39847213029861450195 0.38395285606384277344 0.35870578885078430176 0.33471474051475524902 0.34266179800033569336 0.35411909222602844238 0.36346289515495300293 0.35900914669036865234 0.33500197529792785645 0.33341249823570251465 0.34438353776931762695 0.34772491455078125 0.35751867294311523438 0.34635373950004577637 0.33920198678970336914 0.33206409215927124023 0.33237409591674804688 0.3565839231014251709 0.35727643966674804688 0.35141837596893310547 0.34197270870208740234 0.35509851574897766113 0.36144998669624328613 0.37086585164070129395 0.37063392996788024902 0.40849021077156066895 0.42781966924667358398 0.43431100249290466309 0.43496471643447875977 0.40942221879959106445 0.35387328267097473145 0.31181040406227111816 0.28810352087020874023 0.19179300963878631592 0.099839121103286743164 0.11620320379734039307 0.19609981775283813477 0.29860982298851013184 0.31646049022674560547 0.31981271505355834961 0.31505465507507324219 0.31917876005172729492 0.30968925356864929199 0.30095732212066650391 0.28865125775337219238 0.30214199423789978027 0.31135153770446777344 0.32879662513732910156 0.33755844831466674805 0.33911234140396118164 0.33999800682067871094 0.39660888910293579102 0.38721454143524169922 0.3834419548511505127 0.43952146172523498535 0.44282519817352294922 0.3973325192928314209 0.37991550564765930176 0.34324675798416137695 0.30299326777458190918 0.36983719468116760254 0.41904541850090026855 0.39385738968849182129 0.41074413061141967773 0.41061621904373168945 0.41186660528182983398 0.41555523872375488281 0.40450569987297058105 0.40204995870590209961 0.3895111382007598877 0.3747482597827911377 0.36556798219680786133 0.34147560596466064453 0.32283172011375427246 0.33226227760314941406 0.34741991758346557617 0.35510247945785522461 0.33586883544921875 0.28816026449203491211 0.31441396474838256836 0.33059921860694885254 0.32592108845710754395 0.30510553717613220215 0.2977193295955657959 0.29584005475044250488 0.34839448332786560059 0.3545131385326385498 0.35248705744743347168 0.36174759268760681152 0.37917616963386535645 0.38114181160926818848 0.34634602069854736328 0.27075636386871337891 0.27426058053970336914 0.3071365654468536377 0.3394527733325958252 0.37413519620895385742 0.38751402497291564941 0.37153226137161254883 0.35951784253120422363 0.3590183556079864502 0.36243832111358642578 0.36611822247505187988 0.36211568117141723633 0.35059562325477600098 0.32335159182548522949 0.33518114686012268066 0.35795646905899047852 0.35860085487365722656 0.33944112062454223633 0.33109369874000549316 0.33825346827507019043 0.34179425239562988281 0.34945976734161376953 0.37065434455871582031 0.40220463275909423828 0.40626317262649536133 0.35345759987831115723 0.26290857791900634766 0.28350582718849182129 0.36616253852844238281 0.3862883448600769043 0.38069903850555419922 0.31421232223510742188 0.27651983499526977539 0.32408696413040161133 0.39654260873794555664 0.38898968696594238281 0.38387224078178405762 0.38327562808990478516 0.38101747632026672363 0.37280961871147155762 0.38097026944160461426 0.39533129334449768066 0.3928483128547668457 0.38568475842475891113 0.39914605021476745605 0.38351476192474365234 0.36018913984298706055 0.35225111246109008789 0.3244088590145111084 0.30038097500801086426 0.30948162078857421875 0.33263897895812988281 0.32818695902824401855 0.31686070561408996582 0.33340606093406677246 0.35215768218040466309 0.36184939742088317871 0.13376183807849884033 
nan 0.17606765031814575195 0.30118033289909362793 0.32650604844093322754 0.33367699384689331055 0.34021088480949401855 0.3484281003475189209 0.34952124953269958496 0.34646230936050415039 0.35179430246353149414 0.36227026581764221191 0.35886201262474060059 0.36483782529830932617 0.35750904679298400879 0.3640607297420501709 0.36022141575813293457 0.36407589912414550781 0.37529885768890380859 0.39496883749961853027 0.38421466946601867676 0.35731557011604309082 0.34327960014343261719 0.34372472763061523438 0.35594657063484191895 0.37140750885009765625 0.37729740142822265625 0.35386872291564941406 0.3376731574535369873 0.35089698433876037598 0.34794059395790100098 0.35591927170753479004 0.35992908477783203125 0.34229999780654907227 0.33013084530830383301 0.33042228221893310547 0.34383377432823181152 0.34616094827651977539 0.3505471646785736084 0.35470506548881530762 0.34038937091827392578 0.35145854949951171875 0.36453762650489807129 0.3732255399227142334 0.37252634763717651367 0.40181389451026916504 0.43105232715606689453 0.43894430994987487793 0.43571645021438598633 0.41611519455909729004 0.35172280669212341309 0.28892245888710021973 0.30036616325378417969 0.28010201454162597656 0.16887833178043365479 0.11449196189641952515 0.15247400104999542236 0.24223814904689788818 0.29957091808319091797 0.32107448577880859375 0.32435688376426696777 0.32641533017158508301 0.31950211524963378906 0.30886980891227722168 0.29196822643280029297 0.30478739738464355469 0.33257955312728881836 0.35133150219917297363 0.3520730435848236084 0.34031906723976135254 0.33965209126472473145 0.3745079338550567627 0.36155271530151367188 0.3615207374095916748 0.42230048775672912598 0.45630800724029541016 0.42538508772850036621 0.41082048416137695313 0.38790163397789001465 0.35275769233703613281 0.38454684615135192871 0.41403543949127197266 0.39799973368644714355 0.4131374061107635498 0.41901379823684692383 0.41026630997657775879 0.40259125828742980957 0.38603109121322631836 0.39925456047058105469 0.39099967479705810547 0.38331255316734313965 0.3774585425853729248 0.36510524153709411621 0.33120051026344299316 0.34007668495178222656 0.34232625365257263184 0.34801107645034790039 0.37426894903182983398 0.34282985329627990723 0.31107765436172485352 0.32942441105842590332 0.32867586612701416016 0.31016421318054199219 0.31621012091636657715 0.32431465387344360352 0.34945482015609741211 0.34755355119705200195 0.34316253662109375 0.35344523191452026367 0.36814072728157043457 0.37943422794342041016 0.34740561246871948242 0.27732136845588684082 0.24856999516487121582 0.31295499205589294434 0.36103087663650512695 0.3780797421932220459 0.39516711235046386719 0.37912118434906005859 0.37492397427558898926 0.35638487339019775391 0.35088193416595458984 0.35367062687873840332 0.36165025830268859863 0.35529854893684387207 0.33866488933563232422 0.34925690293312072754 0.35837504267692565918 0.3597958683967590332 0.34025180339813232422 0.33043473958969116211 0.3228079378604888916 0.32235804200172424316 0.34244444966316223145 0.39820715785026550293 0.41501659154891967773 0.3611685633659362793 0.28871300816535949707 0.25035673379898071289 0.38413712382316589355 0.39948055148124694824 0.3964589238166809082 0.3678200840950012207 0.25790381431579589844 0.32160985469818115234 0.39770612120628356934 0.40906050801277160645 0.39155754446983337402 0.38475179672241210938 0.38516151905059814453 0.37994471192359924316 0.38525640964508056641 0.38805669546127319336 0.39103534817695617676 0.38461700081825256348 0.40565294027328491211 0.41859349608421325684 0.39112609624862670898 0.37677219510078430176 0.3825493156909942627 0.34201952815055847168 0.33797538280487060547 0.35871207714080810547 0.3754565119743347168 0.39128336310386657715 0.33865207433700561523 0.32613831758499145508 0.3425394594669342041 0.34557121992111206055 0.12044786661863327026 
nan 0.14738883078098297119 0.27421858906745910645 0.3064981997013092041 0.32725954055786132813 0.3431358635425567627 0.34491106867790222168 0.34848046302795410156 0.35283568501472473145 0.34581169486045837402 0.35483139753341674805 0.35066205263137817383 0.34507131576538085938 0.32330757379531860352 0.31344091892242431641 0.33242970705032348633 0.38116797804832458496 0.39430272579193115234 0.39885655045509338379 0.36894634366035461426 0.34616899490356445313 0.34321141242980957031 0.3521976172924041748 0.35305419564247131348 0.34826523065567016602 0.3426253199577331543 0.31907263398170471191 0.3323427736759185791 0.37095150351524353027 0.35640755295753479004 0.35990771651268005371 0.36048534512519836426 0.33887195587158203125 0.33419233560562133789 0.33036831021308898926 0.31200352311134338379 0.33336630463600158691 0.34650087356567382813 0.34638136625289916992 0.34620761871337890625 0.34680691361427307129 0.36295151710510253906 0.36481747031211853027 0.36073920130729675293 0.39222607016563415527 0.42888021469116210938 0.44020426273345947266 0.4331213831901550293 0.42078992724418640137 0.38295334577560424805 0.31876161694526672363 0.30904746055603027344 0.33511370420455932617 0.3151874542236328125 0.21236956119537353516 0.11991544067859649658 0.14458805322647094727 0.24129837751388549805 0.30717700719833374023 0.30048990249633789063 0.30966094136238098145 0.34233245253562927246 0.33535394072532653809 0.3260084986686706543 0.33287832140922546387 0.34774658083915710449 0.36144021153450012207 0.35592371225357055664 0.3451131284236907959 0.33263859152793884277 0.33384120464324951172 0.31851655244827270508 0.31755122542381286621 0.35212302207946777344 0.3934046626091003418 0.40673610568046569824 0.42369502782821655273 0.40000650286674499512 0.3993365168571472168 0.41277995705604553223 0.41716608405113220215 0.41704294085502624512 0.40525281429290771484 0.40295436978340148926 0.39654824137687683105 0.39309936761856079102 0.38299781084060668945 0.38988235592842102051 0.40309888124465942383 0.3867721855640411377 0.36927682161331176758 0.36997881531715393066 0.36800217628479003906 0.3626727759838104248 0.34727919101715087891 0.33329179883003234863 0.36473232507705688477 0.39424622058868408203 0.33672556281089782715 0.32636791467666625977 0.31466305255889892578 0.30558004975318908691 0.31160405278205871582 0.31888434290885925293 0.3227679133415222168 0.32217696309089660645 0.32998329401016235352 0.34235322475433349609 0.35671022534370422363 0.37643715739250183105 0.36873641610145568848 0.33289778232574462891 0.28126499056816101074 0.32471704483032226563 0.37400066852569580078 0.38745662569999694824 0.39776566624641418457 0.38268902897834777832 0.34813386201858520508 0.3371893763542175293 0.33677521347999572754 0.3440602719783782959 0.35331168770790100098 0.34898525476455688477 0.34466812014579772949 0.35441380739212036133 0.35331666469573974609 0.35610288381576538086 0.34514960646629333496 0.32590314745903015137 0.30690822005271911621 0.32232514023780822754 0.34612956643104553223 0.3820959925651550293 0.40281304717063903809 0.32518517971038818359 0.25029718875885009766 0.2982654869556427002 0.38624051213264465332 0.38859838247299194336 0.38568353652954101563 0.34512633085250854492 0.27544751763343811035 0.36972093582153320313 0.41876465082168579102 0.40717309713363647461 0.39528688788414001465 0.38943392038345336914 0.38754501938819885254 0.3868313133716583252 0.3819771111011505127 0.37208771705627441406 0.3701343834400177002 0.37889143824577331543 0.38450616598129272461 0.37715306878089904785 0.36362341046333312988 0.36873298883438110352 0.3919226527214050293 0.37931999564170837402 0.37580794095993041992 0.37908506393432617188 0.36336222290992736816 0.34919074177742004395 0.30739882588386535645 0.32722163200378417969 0.38129889965057373047 0.34536308050155639648 0.11819405853748321533 
nan 0.13577035069465637207 0.27703213691711425781 0.31711137294769287109 0.33713218569755554199 0.34395703673362731934 0.35151997208595275879 0.35621902346611022949 0.3602122962474822998 0.3549512326717376709 0.35098719596862792969 0.35017466545104980469 0.34366238117218017578 0.33379450440406799316 0.32937777042388916016 0.35446834564208984375 0.38962456583976745605 0.38025191426277160645 0.37773036956787109375 0.35629823803901672363 0.35911542177200317383 0.37241247296333312988 0.3878841400146484375 0.37178602814674377441 0.33756035566329956055 0.31673860549926757813 0.30728223919868469238 0.32353523373603820801 0.34843733906745910645 0.33750626444816589355 0.34154850244522094727 0.34089347720146179199 0.32776820659637451172 0.31963387131690979004 0.31700649857521057129 0.26695787906646728516 0.29942837357521057129 0.33729249238967895508 0.33216363191604614258 0.32945242524147033691 0.33710131049156188965 0.35257202386856079102 0.35554584860801696777 0.3584671318531036377 0.39549216628074645996 0.41137486696243286133 0.42879638075828552246 0.43831142783164978027 0.42744576930999755859 0.40714094042778015137 0.36716800928115844727 0.3558178246021270752 0.35776290297508239746 0.33803254365921020508 0.25677138566970825195 0.14828829467296600342 0.10089728236198425293 0.19501321017742156982 0.30041036009788513184 0.2951049506664276123 0.29785016179084777832 0.33786827325820922852 0.32673355937004089355 0.33400321006774902344 0.33654740452766418457 0.33275756239891052246 0.34766840934753417969 0.34736093878746032715 0.34102129936218261719 0.32648181915283203125 0.32967117428779602051 0.31593722105026245117 0.30479192733764648438 0.29348468780517578125 0.30798766016960144043 0.36938521265983581543 0.40959396958351135254 0.38420525193214416504 0.39922246336936950684 0.43534627556800842285 0.43337690830230712891 0.42182907462120056152 0.40334525704383850098 0.40208423137664794922 0.39377456903457641602 0.39732348918914794922 0.40181207656860351563 0.41061007976531982422 0.41441577672958374023 0.3762550652027130127 0.3388290107250213623 0.36079591512680053711 0.37989374995231628418 0.36728134751319885254 0.33377897739410400391 0.32128885388374328613 0.35123807191848754883 0.3868872225284576416 0.35908049345016479492 0.33859649300575256348 0.33585578203201293945 0.31429511308670043945 0.3098233640193939209 0.31310918927192687988 0.31114757061004638672 0.29930675029754638672 0.30747532844543457031 0.32169359922409057617 0.36217546463012695313 0.37857702374458312988 0.37086558341979980469 0.3340555727481842041 0.30397754907608032227 0.334522247314453125 0.36354050040245056152 0.3622595667839050293 0.3473981022834777832 0.35089659690856933594 0.33727586269378662109 0.33099728822708129883 0.33118000626564025879 0.34196883440017700195 0.33529937267303466797 0.32587021589279174805 0.33895784616470336914 0.36333242058753967285 0.3607037961483001709 0.36133071780204772949 0.35328280925750732422 0.32969567179679870605 0.29988151788711547852 0.31042909622192382813 0.35312446951866149902 0.40056440234184265137 0.33910503983497619629 0.20025533437728881836 0.26634803414344787598 0.36418130993843078613 0.38241541385650634766 0.3900814056396484375 0.39169934391975402832 0.33317857980728149414 0.30263569951057434082 0.41396209597587585449 0.41808137297630310059 0.40156495571136474609 0.39556089043617248535 0.39996984601020812988 0.40236258506774902344 0.40162137150764465332 0.36335670948028564453 0.36956754326820373535 0.37601813673973083496 0.38174560666084289551 0.38610547780990600586 0.38433369994163513184 0.37713730335235595703 0.37660899758338928223 0.39039370417594909668 0.39299464225769042969 0.39498311281204223633 0.38915139436721801758 0.36050042510032653809 0.33870488405227661133 0.36548987030982971191 0.39425599575042724609 0.40535134077072143555 0.37209287285804748535 0.13328081369400024414 
nan 0.15027120709419250488 0.30825963616371154785 0.33937066793441772461 0.35394287109375 0.35407623648643493652 0.35385945439338684082 0.35665297508239746094 0.35051500797271728516 0.35320594906806945801 0.34813275933265686035 0.35071113705635070801 0.34196397662162780762 0.33641797304153442383 0.33533266186714172363 0.34098207950592041016 0.36122614145278930664 0.34988188743591308594 0.33766230940818786621 0.36587166786193847656 0.40152183175086975098 0.40696877241134643555 0.41043058037757873535 0.38371905684471130371 0.35192263126373291016 0.32684949040412902832 0.3227748572826385498 0.33035904169082641602 0.35104224085807800293 0.3531932532787322998 0.35711839795112609863 0.3442287445068359375 0.32451492547988891602 0.29362305998802185059 0.29418113827705383301 0.23324467241764068604 0.2793261110782623291 0.32436856627464294434 0.31502062082290649414 0.29626622796058654785 0.33030015230178833008 0.36402952671051025391 0.36630105972290039063 0.36277478933334350586 0.39718472957611083984 0.40259116888046264648 0.41455745697021484375 0.42250433564186096191 0.42062819004058837891 0.42651951313018798828 0.41946607828140258789 0.40725496411323547363 0.36812931299209594727 0.34272393584251403809 0.29819673299789428711 0.22018921375274658203 0.11912798136472702026 0.13143540918827056885 0.23589478433132171631 0.2970473170280456543 0.32090008258819580078 0.33448973298072814941 0.32871785759925842285 0.32735589146614074707 0.33854463696479797363 0.34419858455657958984 0.35343924164772033691 0.34684643149375915527 0.33989706635475158691 0.34700196981430053711 0.3374856412410736084 0.32340964674949645996 0.31476259231567382813 0.31715935468673706055 0.31737285852432250977 0.3346157371997833252 0.34926104545593261719 0.37420421838760375977 0.40545192360877990723 0.43517106771469116211 0.42657428979873657227 0.40602520108222961426 0.39767956733703613281 0.39915475249290466309 0.39643931388854980469 0.39392566680908203125 0.40589061379432678223 0.39397689700126647949 0.3906250298023223877 0.37864163517951965332 0.36497154831886291504 0.36126717925071716309 0.38246557116508483887 0.38310614228248596191 0.36274534463882446289 0.33052769303321838379 0.33713585138320922852 0.38481354713439941406 0.39680328965187072754 0.40427094697952270508 0.40583947300910949707 0.38454586267471313477 0.32112106680870056152 0.29892992973327636719 0.31347563862800598145 0.30217435956001281738 0.29815044999122619629 0.30480372905731201172 0.34978249669075012207 0.36596113443374633789 0.36523279547691345215 0.35817509889602661133 0.29928728938102722168 0.31814596056938171387 0.34780335426330566406 0.35381776094436645508 0.33638212084770202637 0.32710260152816772461 0.33043697476387023926 0.32750171422958374023 0.32416433095932006836 0.3302275538444519043 0.31627738475799560547 0.31524503231048583984 0.33309179544448852539 0.35585162043571472168 0.36337962746620178223 0.36346358060836791992 0.35759556293487548828 0.33202567696571350098 0.31986519694328308105 0.34044289588928222656 0.38599601387977600098 0.43066364526748657227 0.29524159431457519531 0.25686210393905639648 0.33577644824981689453 0.37493142485618591309 0.37936854362487792969 0.38807395100593566895 0.37569162249565124512 0.3172200322151184082 0.33502119779586791992 0.39686799049377441406 0.39393100142478942871 0.3904393613338470459 0.38583287596702575684 0.39672183990478515625 0.39702364802360534668 0.38708204030990600586 0.34682446718215942383 0.37148457765579223633 0.38091635704040527344 0.38561171293258666992 0.40472656488418579102 0.3985919952392578125 0.3889935612678527832 0.38694736361503601074 0.39180675148963928223 0.39382693171501159668 0.38928198814392089844 0.37412866950035095215 0.36470544338226318359 0.37701147794723510742 0.38150188326835632324 0.39224615693092346191 0.3731918632984161377 0.34277480840682983398 0.13228595256805419922 
nan 0.14271456003189086914 0.30701315402984619141 0.35875937342643737793 0.36721110343933105469 0.36099454760551452637 0.35870605707168579102 0.35215154290199279785 0.34513276815414428711 0.34733995795249938965 0.34578624367713928223 0.35516297817230224609 0.33701249957084655762 0.33358654379844665527 0.32507020235061645508 0.33042758703231811523 0.35061401128768920898 0.34532082080841064453 0.33345210552215576172 0.36189514398574829102 0.40806102752685546875 0.41483631730079650879 0.41363677382469177246 0.37925490736961364746 0.34958830475807189941 0.3386745452880859375 0.33254230022430419922 0.33077087998390197754 0.35896563529968261719 0.36938333511352539063 0.36944782733917236328 0.37854075431823730469 0.35027217864990234375 0.30967006087303161621 0.28366264700889587402 0.2165441364049911499 0.26098307967185974121 0.32204845547676086426 0.31770083308219909668 0.3003241121768951416 0.33469840884208679199 0.37077364325523376465 0.35901659727096557617 0.34754419326782226563 0.40129742026329040527 0.40362334251403808594 0.39319252967834472656 0.40298312902450561523 0.41800379753112792969 0.42578426003456115723 0.41943857073783874512 0.40778997540473937988 0.35552430152893066406 0.33438634872436523438 0.31565535068511962891 0.28589704632759094238 0.19101727008819580078 0.10757139325141906738 0.19304236769676208496 0.29336729645729064941 0.32932955026626586914 0.33231621980667114258 0.3341769874095916748 0.32827919721603393555 0.3419278562068939209 0.34267136454582214355 0.35214164853096008301 0.34076255559921264648 0.34096381068229675293 0.35186776518821716309 0.35051006078720092773 0.34427052736282348633 0.33377224206924438477 0.32118067145347595215 0.31647613644599914551 0.29670932888984680176 0.30275148153305053711 0.36690717935562133789 0.39947104454040527344 0.42638093233108520508 0.42555338144302368164 0.41180282831192016602 0.41342404484748840332 0.42403572797775268555 0.41352826356887817383 0.41228526830673217773 0.41637825965881347656 0.40018510818481445313 0.41243979334831237793 0.40717664361000061035 0.39393830299377441406 0.38270774483680725098 0.38128796219825744629 0.38393068313598632813 0.38446494936943054199 0.35083711147308349609 0.3315143883228302002 0.33619132637977600098 0.364696502685546875 0.39789941906929016113 0.41087716817855834961 0.39725190401077270508 0.38508948683738708496 0.31170412898063659668 0.29179680347442626953 0.26320788264274597168 0.23430791497230529785 0.23561866581439971924 0.3046976923942565918 0.3753363192081451416 0.3772271275520324707 0.36319115757942199707 0.30129379034042358398 0.28903374075889587402 0.31455796957015991211 0.32320651412010192871 0.33238637447357177734 0.32702240347862243652 0.3333727717399597168 0.33265537023544311523 0.32088613510131835938 0.32930952310562133789 0.32839980721473693848 0.31786894798278808594 0.3276118934154510498 0.34268614649772644043 0.34649354219436645508 0.34364536404609680176 0.34574657678604125977 0.35068249702453613281 0.37224632501602172852 0.39444246888160705566 0.4165617823600769043 0.36548596620559692383 0.23112274706363677979 0.32904785871505737305 0.35620796680450439453 0.35607346892356872559 0.38215926289558410645 0.3942108452320098877 0.36745348572731018066 0.28918343782424926758 0.3659922480583190918 0.37983253598213195801 0.37990817427635192871 0.38447722792625427246 0.37005874514579772949 0.36653333902359008789 0.35671865940093994141 0.37063193321228027344 0.35797068476676940918 0.35728034377098083496 0.35929837822914123535 0.39313793182373046875 0.41772750020027160645 0.40871077775955200195 0.39076340198516845703 0.38490346074104309082 0.38628208637237548828 0.39469283819198608398 0.38359084725379943848 0.35268411040306091309 0.36624628305435180664 0.37583464384078979492 0.37821054458618164063 0.38039189577102661133 0.36904376745223999023 0.34435611963272094727 0.12788809835910797119 
nan 0.17258651554584503174 0.32886973023414611816 0.35967171192169189453 0.36487331986427307129 0.36251038312911987305 0.36305925250053405762 0.3529166877269744873 0.34408861398696899414 0.3469181060791015625 0.34259080886840820313 0.34783440828323364258 0.35341376066207885742 0.35522210597991943359 0.32615551352500915527 0.3271318972110748291 0.34501591324806213379 0.34262567758560180664 0.3336372673511505127 0.35711279511451721191 0.39715805649757385254 0.41203022003173828125 0.41922420263290405273 0.40236479043960571289 0.36590665578842163086 0.34673467278480529785 0.34509509801864624023 0.33793017268180847168 0.36398583650588989258 0.37375983595848083496 0.38538435101509094238 0.40784609317779541016 0.36646571755409240723 0.31555211544036865234 0.29290676116943359375 0.2758820950984954834 0.30105087161064147949 0.3302071690559387207 0.35054612159729003906 0.35014271736145019531 0.35259956121444702148 0.37195736169815063477 0.36714196205139160156 0.35500392317771911621 0.3977692723274230957 0.41877272725105285645 0.40882503986358642578 0.4058583676815032959 0.40801149606704711914 0.41479945182800292969 0.41345775127410888672 0.3898175656795501709 0.35017099976539611816 0.35888156294822692871 0.33255428075790405273 0.30457478761672973633 0.21437625586986541748 0.12850551307201385498 0.17175132036209106445 0.29490375518798828125 0.34094789624214172363 0.34840792417526245117 0.33502715826034545898 0.33219751715660095215 0.34863641858100891113 0.35500818490982055664 0.35190430283546447754 0.34439307451248168945 0.34887993335723876953 0.35087335109710693359 0.36209690570831298828 0.35165375471115112305 0.34166049957275390625 0.32644730806350708008 0.3228568732738494873 0.30084466934204101563 0.28703829646110534668 0.35855180025100708008 0.39187055826187133789 0.39990243315696716309 0.39643046259880065918 0.39904633164405822754 0.42263862490653991699 0.43354949355125427246 0.43390122056007385254 0.43521782755851745605 0.42763951420783996582 0.40879288315773010254 0.41068175435066223145 0.39576637744903564453 0.39857706427574157715 0.39327695965766906738 0.38902488350868225098 0.38225665688514709473 0.38089218735694885254 0.37178978323936462402 0.34655532240867614746 0.31805452704429626465 0.34323364496231079102 0.38957464694976806641 0.40563082695007324219 0.40848228335380554199 0.40577593445777893066 0.33134469389915466309 0.290912628173828125 0.28582879900932312012 0.28383341431617736816 0.28396198153495788574 0.30275824666023254395 0.34116971492767333984 0.34828019142150878906 0.35244300961494445801 0.29301273822784423828 0.3059978485107421875 0.33584809303283691406 0.3348572850227355957 0.33202099800109863281 0.33174419403076171875 0.33100590109825134277 0.33276045322418212891 0.32643207907676696777 0.3357944488525390625 0.33632659912109375 0.32972621917724609375 0.33993256092071533203 0.34700304269790649414 0.34839931130409240723 0.34996461868286132813 0.35066610574722290039 0.37430107593536376953 0.40771692991256713867 0.42579180002212524414 0.37709724903106689453 0.26196596026420593262 0.22543326020240783691 0.36126238107681274414 0.37045601010322570801 0.37137627601623535156 0.39164149761199951172 0.3948014676570892334 0.35116627812385559082 0.25508204102516174316 0.36101356148719787598 0.37718805670738220215 0.36731234192848205566 0.38177397847175598145 0.37109282612800598145 0.35400849580764770508 0.34491404891014099121 0.38510036468505859375 0.37342301011085510254 0.35515376925468444824 0.36617332696914672852 0.40126532316207885742 0.41338875889778137207 0.40014305710792541504 0.38136813044548034668 0.38593819737434387207 0.39145547151565551758 0.38951915502548217773 0.39546245336532592773 0.3601894676685333252 0.36806905269622802734 0.38299059867858886719 0.38300377130508422852 0.37502130866050720215 0.35886618494987487793 0.33075505495071411133 0.13019186258316040039 
nan 0.17971728742122650146 0.31577995419502258301 0.34488224983215332031 0.34949967265129089355 0.35402286052703857422 0.3613745570182800293 0.35931989550590515137 0.35791847109794616699 0.35073903203010559082 0.34336555004119873047 0.34064617753028869629 0.35063666105270385742 0.35505113005638122559 0.34517592191696166992 0.33458933234214782715 0.32541969418525695801 0.33209872245788574219 0.35150375962257385254 0.35570159554481506348 0.37100899219512939453 0.3973807990550994873 0.41024374961853027344 0.41610169410705566406 0.40642255544662475586 0.38106635212898254395 0.36765813827514648438 0.35098740458488464355 0.37809720635414123535 0.38446471095085144043 0.38410285115242004395 0.39038431644439697266 0.36397588253021240234 0.35760948061943054199 0.35146766901016235352 0.34016454219818115234 0.3327090144157409668 0.34791913628578186035 0.34866943955421447754 0.34140682220458984375 0.35569778084754943848 0.37285491824150085449 0.37848705053329467773 0.3785762488842010498 0.36969453096389770508 0.41162836551666259766 0.42637151479721069336 0.43317890167236328125 0.41224429011344909668 0.41557845473289489746 0.42287170886993408203 0.40924805402755737305 0.39279890060424804688 0.40051117539405822754 0.37113410234451293945 0.32402983307838439941 0.23980064690113067627 0.14237922430038452148 0.17577864229679107666 0.28701141476631164551 0.33623510599136352539 0.36005434393882751465 0.34711986780166625977 0.33601278066635131836 0.36101877689361572266 0.36463171243667602539 0.36142686009407043457 0.34897336363792419434 0.35054579377174377441 0.34602764248847961426 0.35764563083648681641 0.35644572973251342773 0.34330272674560546875 0.34068962931632995605 0.33969235420227050781 0.32864993810653686523 0.31028670072555541992 0.33276095986366271973 0.33904018998146057129 0.3342991173267364502 0.31549835205078125 0.29836431145668029785 0.33097162842750549316 0.37333777546882629395 0.40747106075286865234 0.42377290129661560059 0.42619803547859191895 0.41774186491966247559 0.41841489076614379883 0.39842593669891357422 0.3793754279613494873 0.37705790996551513672 0.38152840733528137207 0.37457484006881713867 0.37870064377784729004 0.38944604992866516113 0.3547509312629699707 0.31494244933128356934 0.32052055001258850098 0.34240677952766418457 0.36908414959907531738 0.39200553297996520996 0.3975728452205657959 0.36887821555137634277 0.34823340177536010742 0.34879422187805175781 0.33653172850608825684 0.32678058743476867676 0.31794697046279907227 0.31551843881607055664 0.30710828304290771484 0.31186145544052124023 0.28980937600135803223 0.32455140352249145508 0.34035959839820861816 0.32322427630424499512 0.30946958065032958984 0.30773687362670898438 0.31578314304351806641 0.32610166072845458984 0.32665994763374328613 0.32784754037857055664 0.33067062497138977051 0.3368313908576965332 0.359172821044921875 0.365703582763671875 0.36343106627464294434 0.3619492650032043457 0.37248176336288452148 0.40014243125915527344 0.40079757571220397949 0.33945983648300170898 0.23719291388988494873 0.27895945310592651367 0.34740751981735229492 0.37793165445327758789 0.37650093436241149902 0.3835525810718536377 0.37719586491584777832 0.36507809162139892578 0.30854567885398864746 0.29543000459671020508 0.4017149806022644043 0.40267774462699890137 0.38948234915733337402 0.39371269941329956055 0.37290289998054504395 0.35550487041473388672 0.37113910913467407227 0.37177124619483947754 0.36208909749984741211 0.3747692108154296875 0.38925647735595703125 0.40423658490180969238 0.41522926092147827148 0.40737491846084594727 0.39492565393447875977 0.39322319626808166504 0.39798855781555175781 0.38933157920837402344 0.39948695898056030273 0.37966024875640869141 0.37352338433265686035 0.39114797115325927734 0.3939838409423828125 0.38569626212120056152 0.36321839690208435059 0.35989657044410705566 0.14568789303302764893 
nan 0.17164932191371917725 0.28527519106864929199 0.33178246021270751953 0.35116061568260192871 0.35447469353675842285 0.3602021634578704834 0.35439187288284301758 0.34972131252288818359 0.35024365782737731934 0.34782579541206359863 0.3435122072696685791 0.35318538546562194824 0.36975410580635070801 0.36108899116516113281 0.34969350695610046387 0.33476579189300537109 0.32806035876274108887 0.35090348124504089355 0.35759276151657104492 0.37160599231719970703 0.39514258503913879395 0.41219422221183776855 0.42017966508865356445 0.41393250226974487305 0.39452269673347473145 0.36384004354476928711 0.36431077122688293457 0.39622899889945983887 0.39903381466865539551 0.38311347365379333496 0.36399787664413452148 0.36363270878791809082 0.36280748248100280762 0.35858571529388427734 0.32880946993827819824 0.33131381869316101074 0.3533833920955657959 0.36012637615203857422 0.348064422607421875 0.36484569311141967773 0.38364773988723754883 0.39293459057807922363 0.3859907984733581543 0.37309715151786804199 0.41607460379600524902 0.43460476398468017578 0.43813058733940124512 0.41940301656723022461 0.41804301738739013672 0.42119956016540527344 0.41038683056831359863 0.39020889997482299805 0.38805758953094482422 0.38631975650787353516 0.37549796700477600098 0.31002593040466308594 0.20959669351577758789 0.10472004115581512451 0.13904649019241333008 0.27071526646614074707 0.35085690021514892578 0.34268543124198913574 0.32924148440361022949 0.34368255734443664551 0.39265084266662597656 0.38873219490051269531 0.35410049557685852051 0.34237828850746154785 0.3512693941593170166 0.36038303375244140625 0.35773262381553649902 0.35306563973426818848 0.35468190908432006836 0.35837468504905700684 0.33869379758834838867 0.31756111979484558105 0.29865163564682006836 0.28268802165985107422 0.28010126948356628418 0.29453256726264953613 0.2752965092658996582 0.29517596960067749023 0.34857061505317687988 0.38806465268135070801 0.40225842595100402832 0.41635790467262268066 0.4222138822078704834 0.41816464066505432129 0.4208634793758392334 0.39047655463218688965 0.3694636225700378418 0.39912971854209899902 0.38920348882675170898 0.38566753268241882324 0.38924062252044677734 0.36058780550956726074 0.31223583221435546875 0.31438240408897399902 0.32183021306991577148 0.36682721972465515137 0.39324232935905456543 0.38451722264289855957 0.38467419147491455078 0.39591461420059204102 0.40569099783897399902 0.3737780451774597168 0.35271811485290527344 0.33244141936302185059 0.30019226670265197754 0.31542056798934936523 0.31770294904708862305 0.31494635343551635742 0.30773919820785522461 0.28306818008422851563 0.25803729891777038574 0.28157469630241394043 0.28129351139068603516 0.29095417261123657227 0.30398252606391906738 0.31143975257873535156 0.3147335350513458252 0.33613118529319763184 0.34433078765869140625 0.35979819297790527344 0.37384244799613952637 0.37954893708229064941 0.38680428266525268555 0.39696797728538513184 0.38591793179512023926 0.3199221491813659668 0.2507406771183013916 0.28343418240547180176 0.36280390620231628418 0.38184332847595214844 0.37692058086395263672 0.37848106026649475098 0.38113754987716674805 0.36604940891265869141 0.33860471844673156738 0.26625165343284606934 0.29439902305603027344 0.39762714505195617676 0.40268689393997192383 0.38946101069450378418 0.37781435251235961914 0.38050687313079833984 0.35114878416061401367 0.34103852510452270508 0.34399393200874328613 0.36662566661834716797 0.3730525672435760498 0.38076132535934448242 0.39870885014533996582 0.4134864509105682373 0.4072399437427520752 0.40313538908958435059 0.41004723310470581055 0.41541501879692077637 0.40179502964019775391 0.400146484375 0.39365535974502563477 0.39130312204360961914 0.4079990386962890625 0.39219254255294799805 0.38823476433753967285 0.36934959888458251953 0.36537981033325195313 0.13437321782112121582 
nan 0.1707553565502166748 0.27734935283660888672 0.32040718197822570801 0.34023216366767883301 0.34988039731979370117 0.35329905152320861816 0.35131466388702392578 0.3435293734073638916 0.34557521343231201172 0.35213422775268554688 0.34640398621559143066 0.35050490498542785645 0.36089777946472167969 0.35492560267448425293 0.35843110084533691406 0.34997016191482543945 0.34170138835906982422 0.34531664848327636719 0.36593964695930480957 0.40501639246940612793 0.43066605925559997559 0.42334532737731933594 0.42491137981414794922 0.41660428047180175781 0.40752863883972167969 0.38007441163063049316 0.37364223599433898926 0.39572387933731079102 0.40452373027801513672 0.39174553751945495605 0.38212037086486816406 0.37991163134574890137 0.37968793511390686035 0.37139964103698730469 0.3473720252513885498 0.35735505819320678711 0.36709082126617431641 0.3856156468391418457 0.37215501070022583008 0.38187006115913391113 0.39897549152374267578 0.39546030759811401367 0.38867563009262084961 0.3811086118221282959 0.40698575973510742188 0.41742557287216186523 0.42933595180511474609 0.42300596833229064941 0.41225609183311462402 0.41553765535354614258 0.41542151570320129395 0.39569342136383056641 0.38943958282470703125 0.39070373773574829102 0.37634560465812683105 0.32723146677017211914 0.25808826088905334473 0.14198805391788482666 0.1086316034197807312 0.20260420441627502441 0.34889566898345947266 0.3623199760913848877 0.35053840279579162598 0.3516947329044342041 0.38364234566688537598 0.37043461203575134277 0.3552239537239074707 0.33213770389556884766 0.33295682072639465332 0.35069811344146728516 0.35555726289749145508 0.34926551580429077148 0.34669283032417297363 0.35738781094551086426 0.33817839622497558594 0.31904798746109008789 0.30170041322708129883 0.29552289843559265137 0.2844861149787902832 0.27727881073951721191 0.26099956035614013672 0.26892033219337463379 0.30005154013633728027 0.3379580378532409668 0.37718740105628967285 0.38695308566093444824 0.39749863743782043457 0.4207236170768737793 0.42554295063018798828 0.42057031393051147461 0.42465877532958984375 0.40800642967224121094 0.37946075201034545898 0.3777192234992980957 0.37579897046089172363 0.37176692485809326172 0.34420296549797058105 0.34296780824661254883 0.35820695757865905762 0.37390866875648498535 0.36696609854698181152 0.37122434377670288086 0.37795189023017883301 0.3973369300365447998 0.40698421001434326172 0.38881206512451171875 0.38172566890716552734 0.37579748034477233887 0.310855865478515625 0.32600203156471252441 0.32137939333915710449 0.29442682862281799316 0.28806543350219726563 0.29217615723609924316 0.30166700482368469238 0.29272037744522094727 0.30043941736221313477 0.28113964200019836426 0.28027859330177307129 0.30083420872688293457 0.29974305629730224609 0.31673628091812133789 0.34956654906272888184 0.38667595386505126953 0.39072215557098388672 0.40226113796234130859 0.40815436840057373047 0.40328383445739746094 0.32530298829078674316 0.31173396110534667969 0.34923252463340759277 0.37652802467346191406 0.38658386468887329102 0.38276690244674682617 0.39065194129943847656 0.38347771763801574707 0.37868073582649230957 0.36238834261894226074 0.32914316654205322266 0.26121422648429870605 0.32632613182067871094 0.3910757601261138916 0.39341381192207336426 0.38374447822570800781 0.3494994044303894043 0.34295812249183654785 0.34269154071807861328 0.33749163150787353516 0.3344141542911529541 0.37426722049713134766 0.38957643508911132813 0.39244303107261657715 0.40368646383285522461 0.3978214263916015625 0.39410981535911560059 0.39677345752716064453 0.40306654572486877441 0.41028043627738952637 0.40676093101501464844 0.39976763725280761719 0.38610565662384033203 0.36955681443214416504 0.37758582830429077148 0.39902004599571228027 0.39970302581787109375 0.36888012290000915527 0.36591055989265441895 0.13573682308197021484 
nan 0.1625299304723739624 0.26152098178863525391 0.30522161722183227539 0.3288446962833404541 0.34347432851791381836 0.35875970125198364258 0.35579881072044372559 0.34570226073265075684 0.34504374861717224121 0.35315942764282226563 0.34666684269905090332 0.34988284111022949219 0.35772684216499328613 0.34774228930473327637 0.35327538847923278809 0.35700327157974243164 0.3771788477897644043 0.40238851308822631836 0.41609025001525878906 0.42009264230728149414 0.42581847310066223145 0.4278506934642791748 0.42990928888320922852 0.41975268721580505371 0.40338838100433349609 0.38017994165420532227 0.37710872292518615723 0.38168981671333312988 0.37980762124061584473 0.38113090395927429199 0.39560881257057189941 0.41342052817344665527 0.39736777544021606445 0.36372593045234680176 0.36113473773002624512 0.37402668595314025879 0.36718514561653137207 0.37413650751113891602 0.35935252904891967773 0.38157495856285095215 0.39548990130424499512 0.3974724113941192627 0.40091097354888916016 0.40762576460838317871 0.39102613925933837891 0.37285158038139343262 0.39450529217720031738 0.4129689335823059082 0.39190855622291564941 0.40808853507041931152 0.41721370816230773926 0.40230020880699157715 0.39990091323852539063 0.39263939857482910156 0.36951732635498046875 0.33121398091316223145 0.2944335639476776123 0.1740420609712600708 0.09465007483959197998 0.12717016041278839111 0.206300392746925354 0.28303697705268859863 0.3546581268310546875 0.34619924426078796387 0.32146129012107849121 0.32539322972297668457 0.33937782049179077148 0.34340560436248779297 0.34262448549270629883 0.35195705294609069824 0.34529799222946166992 0.3537953495979309082 0.34454339742660522461 0.35573798418045043945 0.33641779422760009766 0.3205910027027130127 0.30748575925827026367 0.29381257295608520508 0.30325058102607727051 0.29868534207344055176 0.30243170261383056641 0.28810393810272216797 0.2857068181037902832 0.31561592221260070801 0.35077625513076782227 0.36602115631103515625 0.36969974637031555176 0.41156047582626342773 0.41807162761688232422 0.41775786876678466797 0.42067512869834899902 0.39205083250999450684 0.36026149988174438477 0.36672359704971313477 0.36059805750846862793 0.36593386530876159668 0.3738956749439239502 0.38585844635963439941 0.40178856253623962402 0.39231717586517333984 0.36024722456932067871 0.37547948956489562988 0.37970340251922607422 0.39284721016883850098 0.41015198826789855957 0.41057920455932617188 0.40621224045753479004 0.40914073586463928223 0.33629751205444335938 0.34739390015602111816 0.31161987781524658203 0.27251061797142028809 0.29412484169006347656 0.31529542803764343262 0.28975090384483337402 0.30211341381072998047 0.3026993870735168457 0.29014864563941955566 0.29022037982940673828 0.30701246857643127441 0.3157037198543548584 0.32956391572952270508 0.35996598005294799805 0.38515359163284301758 0.3861681520938873291 0.40148881077766418457 0.41384920477867126465 0.36561161279678344727 0.27278053760528564453 0.36537960171699523926 0.39787152409553527832 0.39527013897895812988 0.39407637715339660645 0.40249723196029663086 0.39999875426292419434 0.38945758342742919922 0.37646451592445373535 0.34618341922760009766 0.28450408577919006348 0.24182884395122528076 0.33245575428009033203 0.39039570093154907227 0.37695011496543884277 0.37451457977294921875 0.35907819867134094238 0.36159431934356689453 0.36715501546859741211 0.37502136826515197754 0.34912866353988647461 0.37187820672988891602 0.39018982648849487305 0.38947823643684387207 0.39962351322174072266 0.38919526338577270508 0.3895486295223236084 0.39134374260902404785 0.38935819268226623535 0.40124905109405517578 0.40051898360252380371 0.41127783060073852539 0.39500856399536132813 0.36210450530052185059 0.35610681772232055664 0.41110667586326599121 0.40962716937065124512 0.36494541168212890625 0.3608284294605255127 0.1431134343147277832 
nan 0.17098450660705566406 0.27312424778938293457 0.31082627177238464355 0.33117732405662536621 0.33748155832290649414 0.35728421807289123535 0.35647815465927124023 0.34811985492706298828 0.35032919049263000488 0.35109639167785644531 0.35183188319206237793 0.3647817075252532959 0.36321499943733215332 0.35165390372276306152 0.37992277741432189941 0.40211814641952514648 0.41540497541427612305 0.41970735788345336914 0.42239746451377868652 0.42523929476737976074 0.43058279156684875488 0.42333233356475830078 0.42915377020835876465 0.43004828691482543945 0.38732951879501342773 0.37086609005928039551 0.38073569536209106445 0.39819672703742980957 0.39027753472328186035 0.38760036230087280273 0.40286359190940856934 0.4153315424919128418 0.39771810173988342285 0.36899507045745849609 0.37096351385116577148 0.38611480593681335449 0.36750951409339904785 0.35514408349990844727 0.36716392636299133301 0.39155423641204833984 0.3797512054443359375 0.38677617907524108887 0.39999860525131225586 0.42822286486625671387 0.40994998812675476074 0.36500287055969238281 0.35597079992294311523 0.36640569567680358887 0.37184488773345947266 0.38005331158638000488 0.40531507134437561035 0.39597997069358825684 0.37938103079795837402 0.38989609479904174805 0.38448312878608703613 0.34124097228050231934 0.3165721893310546875 0.23849143087863922119 0.10525055974721908569 0.090950623154640197754 0.11519012600183486938 0.21049548685550689697 0.33751687407493591309 0.35119268298149108887 0.32160478830337524414 0.30767133831977844238 0.32665321230888366699 0.34630873799324035645 0.35088479518890380859 0.34033444523811340332 0.33807998895645141602 0.35300838947296142578 0.35250782966613769531 0.36181494593620300293 0.3483022153377532959 0.32838353514671325684 0.30884960293769836426 0.29859918355941772461 0.30823975801467895508 0.31348219513893127441 0.31448021531105041504 0.29354837536811828613 0.31204953789710998535 0.32652941346168518066 0.34114307165145874023 0.34907990694046020508 0.35256251692771911621 0.40321421623229980469 0.42709854245185852051 0.41611295938491821289 0.41006061434745788574 0.38880565762519836426 0.36560335755348205566 0.36141642928123474121 0.36352342367172241211 0.37852877378463745117 0.37907692790031433105 0.38085344433784484863 0.38756999373435974121 0.38878363370895385742 0.36853244900703430176 0.37361538410186767578 0.39216938614845275879 0.39370948076248168945 0.40089190006256103516 0.40130192041397094727 0.40110021829605102539 0.40639173984527587891 0.3696810603141784668 0.3832823634147644043 0.38540753722190856934 0.33680397272109985352 0.33136084675788879395 0.34509858489036560059 0.3198369443416595459 0.29885143041610717773 0.29448950290679931641 0.2904573976993560791 0.28299415111541748047 0.28767228126525878906 0.31672698259353637695 0.34971740841865539551 0.37023454904556274414 0.37931284308433532715 0.38441678881645202637 0.38768970966339111328 0.35681778192520141602 0.27206307649612426758 0.29688000679016113281 0.38206514716148376465 0.40170568227767944336 0.39516717195510864258 0.38476613163948059082 0.38957133889198303223 0.39327406883239746094 0.38764694333076477051 0.37159234285354614258 0.32082283496856689453 0.24824121594429016113 0.24822743237018585205 0.34989362955093383789 0.37915974855422973633 0.37689256668090820313 0.3846352696418762207 0.38395377993583679199 0.36829030513763427734 0.38241094350814819336 0.39163067936897277832 0.35617491602897644043 0.35875424742698669434 0.38092011213302612305 0.3897578120231628418 0.39533981680870056152 0.39671033620834350586 0.38553944230079650879 0.38216689229011535645 0.37957540154457092285 0.39383417367935180664 0.3864269256591796875 0.33852085471153259277 0.32189729809761047363 0.34363248944282531738 0.37205487489700317383 0.40268343687057495117 0.40465492010116577148 0.37982359528541564941 0.36304527521133422852 0.13847368955612182617 
nan 0.18319229781627655029 0.32411903142929077148 0.34145268797874450684 0.3478082120418548584 0.35939142107963562012 0.37569686770439147949 0.36677825450897216797 0.35169613361358642578 0.34482565522193908691 0.3476664423942565918 0.34003484249114990234 0.35195621848106384277 0.35996139049530029297 0.38529324531555175781 0.41432991623878479004 0.41960012912750244141 0.42259192466735839844 0.41853958368301391602 0.41702583432197570801 0.43123939633369445801 0.42852863669395446777 0.43553432822227478027 0.44974112510681152344 0.43448096513748168945 0.39255988597869873047 0.36395737528800964355 0.37487733364105224609 0.37331783771514892578 0.37305232882499694824 0.38046014308929443359 0.40101587772369384766 0.42247557640075683594 0.39996296167373657227 0.41237652301788330078 0.4211235344409942627 0.40496233105659484863 0.38068884611129760742 0.36722302436828613281 0.37929329276084899902 0.40408277511596679688 0.40029159188270568848 0.38150048255920410156 0.39486616849899291992 0.42443618178367614746 0.40716812014579772949 0.37383157014846801758 0.3521754145622253418 0.37401765584945678711 0.38990935683250427246 0.36275431513786315918 0.35809436440467834473 0.36539554595947265625 0.36156803369522094727 0.39539942145347595215 0.40218308568000793457 0.36442178487777709961 0.32577776908874511719 0.29281175136566162109 0.19126805663108825684 0.1354932636022567749 0.090486958622932434082 0.15781223773956298828 0.23490585386753082275 0.32610723376274108887 0.37548479437828063965 0.33528271317481994629 0.32460448145866394043 0.31837895512580871582 0.31931081414222717285 0.33744373917579650879 0.34459343552589416504 0.34518271684646606445 0.35382062196731567383 0.33857375383377075195 0.31386277079582214355 0.30330634117126464844 0.29463762044906616211 0.30314186215400695801 0.31275501847267150879 0.32305404543876647949 0.31496927142143249512 0.29351225495338439941 0.31880748271942138672 0.32396024465560913086 0.33140704035758972168 0.33795949816703796387 0.34779319167137145996 0.39793935418128967285 0.42768245935440063477 0.41342076659202575684 0.41065603494644165039 0.39956557750701904297 0.39704471826553344727 0.39268139004707336426 0.37083318829536437988 0.38025945425033569336 0.39208462834358215332 0.38538897037506103516 0.38915830850601196289 0.3987433314323425293 0.39171802997589111328 0.38600432872772216797 0.38086673617362976074 0.36999571323394775391 0.38902992010116577148 0.39152723550796508789 0.40041205286979675293 0.40665492415428161621 0.39748921990394592285 0.39034947752952575684 0.38612896203994750977 0.37654960155487060547 0.3499667048454284668 0.3174038231372833252 0.29949405789375305176 0.29939866065979003906 0.29339897632598876953 0.29576393961906433105 0.28603363037109375 0.2526276707649230957 0.31594029068946838379 0.36814567446708679199 0.37858825922012329102 0.38273757696151733398 0.37559625506401062012 0.35099145770072937012 0.27717918157577514648 0.31839418411254882813 0.37284144759178161621 0.38500180840492248535 0.3946316838264465332 0.40257793664932250977 0.39362037181854248047 0.39031493663787841797 0.38883772492408752441 0.37779772281646728516 0.36864995956420898438 0.29505583643913269043 0.2469886094331741333 0.31355381011962890625 0.36767855286598205566 0.3717975616455078125 0.37117809057235717773 0.37566587328910827637 0.37272220849990844727 0.38024678826332092285 0.4074522852897644043 0.38434699177742004395 0.35616102814674377441 0.34934031963348388672 0.36868080496788024902 0.39495536684989929199 0.40033227205276489258 0.39850923418998718262 0.38156387209892272949 0.36861631274223327637 0.36893284320831298828 0.35876348614692687988 0.32954740524291992188 0.31281822919845581055 0.33041325211524963379 0.30978029966354370117 0.32583519816398620605 0.35544273257255554199 0.35794621706008911133 0.37467244267463684082 0.36481377482414245605 0.1304661184549331665 
nan 0.19636847078800201416 0.33638596534729003906 0.3445834815502166748 0.34801325201988220215 0.35228934884071350098 0.35748684406280517578 0.36053928732872009277 0.35572063922882080078 0.35928693413734436035 0.34758731722831726074 0.35409641265869140625 0.37156730890274047852 0.38060009479522705078 0.40067040920257568359 0.39896908402442932129 0.39482629299163818359 0.39687773585319519043 0.39840582013130187988 0.41296952962875366211 0.42929559946060180664 0.4121443331241607666 0.42826497554779052734 0.4172102510929107666 0.38175144791603088379 0.36355563998222351074 0.3653195500373840332 0.37198325991630554199 0.35241582989692687988 0.36979833245277404785 0.38768625259399414063 0.39606815576553344727 0.41660836338996887207 0.4150600135326385498 0.43038168549537658691 0.42684099078178405762 0.38351535797119140625 0.3642285764217376709 0.37097951769828796387 0.36879080533981323242 0.37401285767555236816 0.39520063996315002441 0.39135318994522094727 0.39759492874145507813 0.39601838588714599609 0.39057713747024536133 0.38029235601425170898 0.38048833608627319336 0.36715644598007202148 0.3592287600040435791 0.3510920107364654541 0.35417926311492919922 0.37203520536422729492 0.38982957601547241211 0.41556271910667419434 0.41510501503944396973 0.38897645473480224609 0.34414663910865783691 0.32781878113746643066 0.33046042919158935547 0.29890155792236328125 0.13872539997100830078 0.1148181036114692688 0.15309371054172515869 0.24618393182754516602 0.35053500533103942871 0.3563117682933807373 0.34067779779434204102 0.31998074054718017578 0.31582248210906982422 0.3173395991325378418 0.3360729217529296875 0.33420169353485107422 0.33758866786956787109 0.33512416481971740723 0.3177617490291595459 0.29502797126770019531 0.24155594408512115479 0.28775435686111450195 0.33063179254531860352 0.33367756009101867676 0.32286691665649414063 0.32290989160537719727 0.33223953843116760254 0.31603252887725830078 0.31004792451858520508 0.32736316323280334473 0.3399492800235748291 0.38428732752799987793 0.40997523069381713867 0.41618707776069641113 0.41744744777679443359 0.41201406717300415039 0.40755322575569152832 0.41562554240226745605 0.38991940021514892578 0.37486684322357177734 0.37660104036331176758 0.38434708118438720703 0.39869093894958496094 0.41404184699058532715 0.41585233807563781738 0.40742987394332885742 0.38808742165565490723 0.38516002893447875977 0.40580782294273376465 0.40147939324378967285 0.39699733257293701172 0.40192517638206481934 0.40465310215950012207 0.38991475105285644531 0.35849216580390930176 0.33837935328483581543 0.32272329926490783691 0.29896908998489379883 0.28348803520202636719 0.28930422663688659668 0.3004849553108215332 0.32285338640213012695 0.2833550870418548584 0.25162655115127563477 0.29162329435348510742 0.36117291450500488281 0.37557992339134216309 0.36326909065246582031 0.30902656912803649902 0.246473655104637146 0.27427330613136291504 0.34699711203575134277 0.37116637825965881348 0.38308796286582946777 0.38935562968254089355 0.37998053431510925293 0.3818384706974029541 0.39325669407844543457 0.38379576802253723145 0.38793301582336425781 0.36637148261070251465 0.29023343324661254883 0.29066982865333557129 0.33289813995361328125 0.35753083229064941406 0.37692418694496154785 0.37285783886909484863 0.37690073251724243164 0.37023529410362243652 0.3877506554126739502 0.40108385682106018066 0.38828197121620178223 0.36939316987991333008 0.36337429285049438477 0.3665682673454284668 0.38156291842460632324 0.39272007346153259277 0.39343926310539245605 0.38402479887008666992 0.38255393505096435547 0.34135189652442932129 0.3172702789306640625 0.30046573281288146973 0.32275798916816711426 0.36411550641059875488 0.33796942234039306641 0.33329290151596069336 0.3541933596134185791 0.34048193693161010742 0.33710774779319763184 0.36220002174377441406 0.13253921270370483398 
nan 0.18923552334308624268 0.32742682099342346191 0.35001769661903381348 0.35663068294525146484 0.36007893085479736328 0.35142824053764343262 0.34293186664581298828 0.33285617828369140625 0.35691061615943908691 0.3516063392162322998 0.35978680849075317383 0.38337394595146179199 0.40144491195678710938 0.40222480893135070801 0.37848937511444091797 0.36539885401725769043 0.36487632989883422852 0.37930083274841308594 0.40505322813987731934 0.42089569568634033203 0.42316788434982299805 0.44020622968673706055 0.42489853501319885254 0.38531494140625 0.3442668914794921875 0.37649145722389221191 0.3906993865966796875 0.36765906214714050293 0.36523351073265075684 0.3791421353816986084 0.38837784528732299805 0.4032453000545501709 0.40645435452461242676 0.43387398123741149902 0.43268933892250061035 0.39966863393783569336 0.37608632445335388184 0.36195284128189086914 0.35738068819046020508 0.37170305848121643066 0.38928124308586120605 0.39381432533264160156 0.40050116181373596191 0.39061653614044189453 0.38643133640289306641 0.37671580910682678223 0.37387904524803161621 0.36527112126350402832 0.35826471447944641113 0.35625293850898742676 0.36432322859764099121 0.39292097091674804688 0.41438832879066467285 0.41709572076797485352 0.39566195011138916016 0.39701297879219055176 0.39218476414680480957 0.39214468002319335938 0.40243941545486450195 0.38027802109718322754 0.31554400920867919922 0.26533007621765136719 0.15330491960048675537 0.12703603506088256836 0.18757697939872741699 0.26139241456985473633 0.31277835369110107422 0.33264437317848205566 0.34012246131896972656 0.34687715768814086914 0.33809873461723327637 0.3165022730827331543 0.31268829107284545898 0.30996537208557128906 0.31354126334190368652 0.29243695735931396484 0.26148787140846252441 0.29447829723358154297 0.31643497943878173828 0.32658156752586364746 0.33415862917900085449 0.34480863809585571289 0.33925297856330871582 0.32626381516456604004 0.3102785646915435791 0.30958524346351623535 0.31249052286148071289 0.32566347718238830566 0.33702540397644042969 0.37175756692886352539 0.41307884454727172852 0.42745447158813476563 0.42666086554527282715 0.42672973871231079102 0.40519437193870544434 0.41226294636726379395 0.40540465712547302246 0.38107517361640930176 0.37451988458633422852 0.39415845274925231934 0.39214977622032165527 0.38569173216819763184 0.38859257102012634277 0.39517980813980102539 0.39297458529472351074 0.38985931873321533203 0.39669549465179443359 0.40955603122711181641 0.39898088574409484863 0.3601735234260559082 0.31106027960777282715 0.30910933017730712891 0.32784622907638549805 0.33015894889831542969 0.3210690915584564209 0.33052980899810791016 0.32838571071624755859 0.31945097446441650391 0.30574283003807067871 0.28283074498176574707 0.28318798542022705078 0.27215176820755004883 0.26400157809257507324 0.20917612314224243164 0.23546364903450012207 0.35516050457954406738 0.38068968057632446289 0.35734543204307556152 0.36250618100166320801 0.36871543526649475098 0.37295755743980407715 0.37653258442878723145 0.38049089908599853516 0.38496106863021850586 0.37090981006622314453 0.37417733669281005859 0.36360436677932739258 0.30027568340301513672 0.30636113882064819336 0.31462064385414123535 0.34882402420043945313 0.3822918236255645752 0.36896395683288574219 0.37073019146919250488 0.39782056212425231934 0.41983336210250854492 0.42044275999069213867 0.39653050899505615234 0.37275364995002746582 0.3693644404411315918 0.35372400283813476563 0.31497427821159362793 0.27149650454521179199 0.27264654636383056641 0.30198165774345397949 0.31480267643928527832 0.33466875553131103516 0.36812934279441833496 0.35141021013259887695 0.35941809415817260742 0.37273102998733520508 0.37532696127891540527 0.37583386898040771484 0.37565907835960388184 0.38348880410194396973 0.36433055996894836426 0.36110833287239074707 0.14037635922431945801 
nan 0.18746954202651977539 0.33282965421676635742 0.34570497274398803711 0.35248893499374389648 0.36481499671936035156 0.35705077648162841797 0.3452733159065246582 0.34177252650260925293 0.33753105998039245605 0.3510907292366027832 0.36570021510124206543 0.37862756848335266113 0.37787976861000061035 0.3632532656192779541 0.36526647210121154785 0.36242270469665527344 0.37882891297340393066 0.40100023150444030762 0.41368114948272705078 0.41605776548385620117 0.42374160885810852051 0.43152186274528503418 0.42229667305946350098 0.36956366896629333496 0.35164931416511535645 0.37696319818496704102 0.3729794621467590332 0.3659541010856628418 0.36056870222091674805 0.37842097878456115723 0.38331204652786254883 0.40033611655235290527 0.41250264644622802734 0.42954516410827636719 0.42641240358352661133 0.41363787651062011719 0.38599544763565063477 0.37912464141845703125 0.36440601944923400879 0.38674363493919372559 0.40751105546951293945 0.40200710296630859375 0.40229469537734985352 0.39928090572357177734 0.38172483444213867188 0.37108823657035827637 0.36636087298393249512 0.3679313361644744873 0.36251527070999145508 0.34981232881546020508 0.3499533534049987793 0.39564609527587890625 0.41850018501281738281 0.42765447497367858887 0.3985233604907989502 0.38572895526885986328 0.3879788815975189209 0.39939484000205993652 0.40359693765640258789 0.38654822111129760742 0.34895417094230651855 0.36563178896903991699 0.27846327424049377441 0.17972464859485626221 0.1077868044376373291 0.10175900906324386597 0.17255046963691711426 0.26250210404396057129 0.32043087482452392578 0.3457730412483215332 0.35513120889663696289 0.34222090244293212891 0.33149382472038269043 0.31202435493469238281 0.30702176690101623535 0.2815081179141998291 0.27519729733467102051 0.30257424712181091309 0.31284829974174499512 0.32664579153060913086 0.33899912238121032715 0.33503764867782592773 0.32065185904502868652 0.28359761834144592285 0.29760229587554931641 0.32549959421157836914 0.33415454626083374023 0.36113950610160827637 0.38933411240577697754 0.3894017338752746582 0.41156566143035888672 0.4284248650074005127 0.42579972743988037109 0.42243942618370056152 0.41257050633430480957 0.42577335238456726074 0.40868422389030456543 0.38734638690948486328 0.38188177347183227539 0.38136526942253112793 0.38227349519729614258 0.3758741915225982666 0.38663107156753540039 0.38973584771156311035 0.36478927731513977051 0.37850189208984375 0.39321249723434448242 0.41001236438751220703 0.40007665753364562988 0.35365989804267883301 0.30575621128082275391 0.30503946542739868164 0.31957343220710754395 0.32503405213356018066 0.33099693059921264648 0.33923548460006713867 0.32532683014869689941 0.31688675284385681152 0.32460457086563110352 0.29503649473190307617 0.23710559308528900146 0.20271033048629760742 0.14883299171924591064 0.14972312748432159424 0.29253089427947998047 0.38386261463165283203 0.38995960354804992676 0.36249065399169921875 0.35395956039428710938 0.35787999629974365234 0.36333730816841125488 0.36684846878051757813 0.37001380324363708496 0.38060429692268371582 0.37156310677528381348 0.36496189236640930176 0.35255959630012512207 0.27826175093650817871 0.29670509696006774902 0.31423327326774597168 0.34616798162460327148 0.38459607958793640137 0.36750489473342895508 0.37308502197265625 0.4110228121280670166 0.42480319738388061523 0.4204686582088470459 0.39152610301971435547 0.36203414201736450195 0.3563270270824432373 0.31879788637161254883 0.23765568435192108154 0.18782365322113037109 0.27088761329650878906 0.35557687282562255859 0.36422783136367797852 0.3745638430118560791 0.38829049468040466309 0.35049837827682495117 0.36374101042747497559 0.3712863922119140625 0.37373256683349609375 0.37120285630226135254 0.38073149323463439941 0.36967900395393371582 0.35873961448669433594 0.36964133381843566895 0.14494568109512329102 
nan 0.22708474099636077881 0.34672334790229797363 0.35623350739479064941 0.35193914175033569336 0.35966858267784118652 0.3583393096923828125 0.35817256569862365723 0.33948868513107299805 0.32933586835861206055 0.36134329438209533691 0.37642663717269897461 0.36288329958915710449 0.34597197175025939941 0.35160902142524719238 0.36802431941032409668 0.39622470736503601074 0.40145879983901977539 0.41018056869506835938 0.41784083843231201172 0.42440620064735412598 0.42597553133964538574 0.42395561933517456055 0.41061168909072875977 0.36676168441772460938 0.37040689587593078613 0.37373441457748413086 0.3659388124942779541 0.36042565107345581055 0.35973262786865234375 0.36702817678451538086 0.37245395779609680176 0.39818784594535827637 0.41347834467887878418 0.43598139286041259766 0.4327252805233001709 0.38281455636024475098 0.36745291948318481445 0.37051993608474731445 0.36805349588394165039 0.37244072556495666504 0.38600850105285644531 0.39488661289215087891 0.39899656176567077637 0.38678115606307983398 0.37721729278564453125 0.36051997542381286621 0.3557179570198059082 0.37446308135986328125 0.36314830183982849121 0.34826683998107910156 0.35463351011276245117 0.40259414911270141602 0.42501106858253479004 0.4336719810962677002 0.42859098315238952637 0.39708191156387329102 0.39264252781867980957 0.39541190862655639648 0.39253717660903930664 0.37222665548324584961 0.34417960047721862793 0.36746644973754882813 0.35332921147346496582 0.28746274113655090332 0.19395641982555389404 0.11812295764684677124 0.11531984806060791016 0.19739623367786407471 0.29613256454467773438 0.33120128512382507324 0.34315940737724304199 0.35006719827651977539 0.31739404797554016113 0.28349298238754272461 0.28763172030448913574 0.28474846482276916504 0.29094520211219787598 0.2989235222339630127 0.30603870749473571777 0.31118687987327575684 0.31914862990379333496 0.31683427095413208008 0.30426362156867980957 0.2879161834716796875 0.33738529682159423828 0.3931808173656463623 0.42027375102043151855 0.42706266045570373535 0.41884133219718933105 0.3964042365550994873 0.37991940975189208984 0.39359277486801147461 0.41506496071815490723 0.41369488835334777832 0.4142036736011505127 0.41715961694717407227 0.40671810507774353027 0.3857459723949432373 0.38113540410995483398 0.38165247440338134766 0.3827928006649017334 0.38208165764808654785 0.37187927961349487305 0.37469774484634399414 0.3626874089241027832 0.37347140908241271973 0.38560190796852111816 0.40266001224517822266 0.40918260812759399414 0.40577787160873413086 0.35702943801879882813 0.29448527097702026367 0.309551239013671875 0.32954689860343933105 0.33394899964332580566 0.31862640380859375 0.27553257346153259277 0.27682572603225708008 0.28876975178718566895 0.25266635417938232422 0.18917988240718841553 0.14656180143356323242 0.18411666154861450195 0.29896333813667297363 0.36094993352890014648 0.38938480615615844727 0.38273346424102783203 0.35113433003425598145 0.35233917832374572754 0.35821014642715454102 0.35973426699638366699 0.35876035690307617188 0.36219549179077148438 0.36973673105239868164 0.36969444155693054199 0.36788716912269592285 0.34571912884712219238 0.26506146788597106934 0.28040555119514465332 0.31712326407432556152 0.37007439136505126953 0.3897711634635925293 0.36942237615585327148 0.3872292935848236084 0.40195167064666748047 0.39945870637893676758 0.38636168837547302246 0.36457830667495727539 0.34233400225639343262 0.30213081836700439453 0.24274832010269165039 0.2448561936616897583 0.30242687463760375977 0.357547760009765625 0.38111102581024169922 0.38433229923248291016 0.39180418848991394043 0.37031143903732299805 0.36352044343948364258 0.37165999412536621094 0.36751759052276611328 0.36106285452842712402 0.35786262154579162598 0.35001093149185180664 0.35308793187141418457 0.34648263454437255859 0.33759644627571105957 0.13261602818965911865 
nan 0.29817739129066467285 0.33402326703071594238 0.35472148656845092773 0.35473284125328063965 0.35204005241394042969 0.36274635791778564453 0.37154728174209594727 0.34830960631370544434 0.33991929888725280762 0.35703709721565246582 0.37386491894721984863 0.36353844404220581055 0.34306585788726806641 0.34746354818344116211 0.37693694233894348145 0.41093957424163818359 0.4134114384651184082 0.41040220856666564941 0.40666297078132629395 0.4139944911003112793 0.4325835108757019043 0.43075859546661376953 0.40110838413238525391 0.36730432510375976563 0.36482587456703186035 0.36586922407150268555 0.37297552824020385742 0.35519230365753173828 0.35241898894309997559 0.36383682489395141602 0.37593033909797668457 0.38192448019981384277 0.40390148758888244629 0.42406511306762695313 0.42537888884544372559 0.37357500195503234863 0.3672828972339630127 0.36254045367240905762 0.36151841282844543457 0.37166368961334228516 0.37734967470169067383 0.3864561915397644043 0.38875997066497802734 0.36954212188720703125 0.35380041599273681641 0.3507251739501953125 0.35941106081008911133 0.37348228693008422852 0.35891360044479370117 0.34852483868598937988 0.3570302128791809082 0.39472728967666625977 0.42077717185020446777 0.43071869015693664551 0.43265050649642944336 0.40588939189910888672 0.3934338688850402832 0.38890576362609863281 0.38752841949462890625 0.37388432025909423828 0.36648526787757873535 0.37415182590484619141 0.37377572059631347656 0.3647054135799407959 0.3124224543571472168 0.20381997525691986084 0.1115810200572013855 0.16395178437232971191 0.24939276278018951416 0.28947618603706359863 0.26028737425804138184 0.22750814259052276611 0.17260424792766571045 0.21077622473239898682 0.24588558077812194824 0.27423551678657531738 0.28608569502830505371 0.27943599224090576172 0.28633481264114379883 0.29979318380355834961 0.30376574397087097168 0.29472908377647399902 0.28568574786186218262 0.31467413902282714844 0.339817047119140625 0.37418797612190246582 0.40383508801460266113 0.39461168646812438965 0.37065672874450683594 0.34420377016067504883 0.32999315857887268066 0.34094858169555664063 0.39816674590110778809 0.39909279346466064453 0.40194725990295410156 0.41407787799835205078 0.40104782581329345703 0.39366808533668518066 0.38438934087753295898 0.38894709944725036621 0.38549134135246276855 0.38186860084533691406 0.37911629676818847656 0.36911657452583312988 0.38359120488166809082 0.3815733492374420166 0.3689371645450592041 0.3858451545238494873 0.41969504952430725098 0.40736332535743713379 0.34043163061141967773 0.29162326455116271973 0.30755764245986938477 0.32850143313407897949 0.34170889854431152344 0.32924729585647583008 0.28397634625434875488 0.27398964762687683105 0.26870986819267272949 0.23617902398109436035 0.14881242811679840088 0.17349512875080108643 0.31314480304718017578 0.39518606662750244141 0.37702047824859619141 0.35136553645133972168 0.34845346212387084961 0.34239083528518676758 0.35082194209098815918 0.35854670405387878418 0.35731095075607299805 0.36886578798294067383 0.36314445734024047852 0.36327391862869262695 0.36565151810646057129 0.37086746096611022949 0.34498682618141174316 0.26637199521064758301 0.3077049553394317627 0.33026969432830810547 0.36621832847595214844 0.37560072541236877441 0.36127558350563049316 0.3878345787525177002 0.41467764973640441895 0.41163232922554016113 0.38176929950714111328 0.35821837186813354492 0.3298931419849395752 0.22207702696323394775 0.27071261405944824219 0.33458068966865539551 0.35188853740692138672 0.37570580840110778809 0.38445672392845153809 0.38259848952293395996 0.38937419652938842773 0.37157806754112243652 0.36672112345695495605 0.37397941946983337402 0.3540478050708770752 0.33974695205688476563 0.34314870834350585938 0.34168037772178649902 0.33168941736221313477 0.33340382575988769531 0.34044095873832702637 0.13412342965602874756 
nan 0.29126474261283874512 0.3378258049488067627 0.3447557985782623291 0.34227073192596435547 0.35235038399696350098 0.35722723603248596191 0.36540362238883972168 0.34970751404762268066 0.3417212069034576416 0.3649304807186126709 0.3802731633186340332 0.35496735572814941406 0.33812364935874938965 0.3426984250545501709 0.3787644505500793457 0.41171103715896606445 0.41378903388977050781 0.41128656268119812012 0.40781265497207641602 0.40483850240707397461 0.43106868863105773926 0.43141013383865356445 0.39804580807685852051 0.37573194503784179688 0.36271652579307556152 0.3721065223217010498 0.38217529654502868652 0.36215764284133911133 0.35625907778739929199 0.37185880541801452637 0.3788020014762878418 0.37009161710739135742 0.39501804113388061523 0.40984702110290527344 0.41706249117851257324 0.38741418719291687012 0.38015013933181762695 0.37050512433052062988 0.37024676799774169922 0.37435129284858703613 0.36850574612617492676 0.36658012866973876953 0.3725312650203704834 0.3575439155101776123 0.35742777585983276367 0.36120510101318359375 0.36334016919136047363 0.37062805891036987305 0.36031308770179748535 0.35820272564888000488 0.36345773935317993164 0.39339613914489746094 0.41340327262878417969 0.4233582913875579834 0.43154552578926086426 0.41109028458595275879 0.40129920840263366699 0.39739248156547546387 0.39682406187057495117 0.38577094674110412598 0.35651054978370666504 0.36786213517189025879 0.35656085610389709473 0.31493115425109863281 0.31338784098625183105 0.28292879462242126465 0.18867003917694091797 0.099505394697189331055 0.10972583293914794922 0.13789060711860656738 0.12368262559175491333 0.12267351150512695313 0.13014054298400878906 0.15839076042175292969 0.22007541358470916748 0.27003464102745056152 0.29298776388168334961 0.28365877270698547363 0.27315741777420043945 0.29421147704124450684 0.30357566475868225098 0.29640015959739685059 0.28431537747383117676 0.30814093351364135742 0.32575178146362304688 0.3673299252986907959 0.3885689079761505127 0.3584632575511932373 0.34533676505088806152 0.33363831043243408203 0.32686433196067810059 0.32039242982864379883 0.33998376131057739258 0.34806978702545166016 0.36698269844055175781 0.39310193061828613281 0.39102995395660400391 0.38945850729942321777 0.39002680778503417969 0.38402414321899414063 0.38339215517044067383 0.38118302822113037109 0.38533374667167663574 0.38564822077751159668 0.38205662369728088379 0.37976473569869995117 0.38160607218742370605 0.37540060281753540039 0.38644760847091674805 0.37379896640777587891 0.32576444745063781738 0.30726283788681030273 0.29954630136489868164 0.3023942410945892334 0.33113190531730651855 0.3363952338695526123 0.32256168127059936523 0.30701610445976257324 0.29367160797119140625 0.22087334096431732178 0.14611883461475372314 0.2633991241455078125 0.38687291741371154785 0.43167915940284729004 0.43988960981369018555 0.38596096634864807129 0.34743463993072509766 0.3343181610107421875 0.34085500240325927734 0.3470554351806640625 0.35198056697845458984 0.35222467780113220215 0.35427388548851013184 0.36711838841438293457 0.36472725868225097656 0.36213448643684387207 0.33099514245986938477 0.27768510580062866211 0.28320470452308654785 0.31320717930793762207 0.38485449552536010742 0.36466231942176818848 0.36140975356101989746 0.39476653933525085449 0.42812702059745788574 0.40995651483535766602 0.38222533464431762695 0.35822135210037231445 0.30431005358695983887 0.28030356764793395996 0.33825314044952392578 0.35190796852111816406 0.36848682165145874023 0.38502049446105957031 0.38808637857437133789 0.38849276304244995117 0.38680568337440490723 0.37853461503982543945 0.36571833491325378418 0.36145937442779541016 0.35054901242256164551 0.33373281359672546387 0.33114188909530639648 0.33108279109001159668 0.33538827300071716309 0.3512719273567199707 0.34924429655075073242 0.12470270693302154541 
nan 0.31581187248229980469 0.35051652789115905762 0.33829984068870544434 0.33718103170394897461 0.3468100428581237793 0.35441577434539794922 0.35933631658554077148 0.34971988201141357422 0.35398349165916442871 0.37345081567764282227 0.38565957546234130859 0.35557126998901367188 0.33290973305702209473 0.33573517203330993652 0.38330879807472229004 0.41308355331420898438 0.40959331393241882324 0.40454986691474914551 0.38281303644180297852 0.37378001213073730469 0.41711255908012390137 0.4251855313777923584 0.38487645983695983887 0.38379511237144470215 0.370113372802734375 0.37610670924186706543 0.38092362880706787109 0.36949962377548217773 0.3716882169246673584 0.38148641586303710938 0.3943767249584197998 0.38000324368476867676 0.38384091854095458984 0.39298167824745178223 0.40628546476364135742 0.39915260672569274902 0.37461757659912109375 0.37046042084693908691 0.3731899261474609375 0.36770761013031005859 0.36517855525016784668 0.36102321743965148926 0.36779424548149108887 0.35685196518898010254 0.3563708961009979248 0.36019149422645568848 0.36636641621589660645 0.36453887820243835449 0.35850003361701965332 0.36605605483055114746 0.37784886360168457031 0.40752702951431274414 0.41725218296051025391 0.42637732625007629395 0.43238520622253417969 0.41867184638977050781 0.39451828598976135254 0.39614847302436828613 0.40495142340660095215 0.3891595005989074707 0.35982108116149902344 0.35861644148826599121 0.36947435140609741211 0.36000576615333557129 0.34591087698936462402 0.32609909772872924805 0.25886705517768859863 0.17424906790256500244 0.12880223989486694336 0.10883299261331558228 0.11421561986207962036 0.12917916476726531982 0.13468435406684875488 0.12087178975343704224 0.11922317743301391602 0.20720273256301879883 0.28320911526679992676 0.30385738611221313477 0.29086509346961975098 0.28695791959762573242 0.28907725214958190918 0.28755980730056762695 0.27298963069915771484 0.29805365204811096191 0.32264599204063415527 0.36112836003303527832 0.36481007933616638184 0.35195651650428771973 0.35432374477386474609 0.34644466638565063477 0.32260721921920776367 0.30026641488075256348 0.31379741430282592773 0.31439644098281860352 0.31924596428871154785 0.36888897418975830078 0.38376373052597045898 0.38261863589286804199 0.39312711358070373535 0.3878962099552154541 0.37433281540870666504 0.38032728433609008789 0.38657510280609130859 0.38664701581001281738 0.38771086931228637695 0.37898615002632141113 0.37998417019844055176 0.37907227873802185059 0.34360465407371520996 0.33332976698875427246 0.32781162858009338379 0.32057157158851623535 0.30003949999809265137 0.2847805321216583252 0.3176606595516204834 0.33201643824577331543 0.32674592733383178711 0.3134009242057800293 0.3061421513557434082 0.22513562440872192383 0.14254796504974365234 0.22094339132308959961 0.34536847472190856934 0.40592971444129943848 0.44430071115493774414 0.42494907975196838379 0.37875145673751831055 0.36565855145454406738 0.36206817626953125 0.35091504454612731934 0.34606707096099853516 0.34775832295417785645 0.35388886928558349609 0.36026716232299804688 0.35907769203186035156 0.35737255215644836426 0.32828995585441589355 0.28480252623558044434 0.28259599208831787109 0.29468867182731628418 0.37571376562118530273 0.3492215573787689209 0.3556772768497467041 0.40052562952041625977 0.41585773229598999023 0.39881861209869384766 0.37051883339881896973 0.36271938681602478027 0.33364918828010559082 0.34307831525802612305 0.36114853620529174805 0.36346101760864257813 0.37564909458160400391 0.39301264286041259766 0.39574915170669555664 0.3943055272102355957 0.38674104213714599609 0.38897973299026489258 0.37911897897720336914 0.35937830805778503418 0.35967460274696350098 0.35375273227691650391 0.3452065587043762207 0.33601784706115722656 0.35202077031135559082 0.35098367929458618164 0.33950790762901306152 0.1169667467474937439 
nan 0.30920204520225524902 0.34301906824111938477 0.34221500158309936523 0.33364289999008178711 0.3302224278450012207 0.33709666132926940918 0.34666612744331359863 0.34504863619804382324 0.34725621342658996582 0.35549390316009521484 0.36322936415672302246 0.3446597754955291748 0.33895158767700195313 0.35118606686592102051 0.38986280560493469238 0.4074548184871673584 0.40075847506523132324 0.39649027585983276367 0.38348087668418884277 0.37772196531295776367 0.38054549694061279297 0.36580535769462585449 0.35891759395599365234 0.3742987215518951416 0.36791369318962097168 0.35865452885627746582 0.35810983180999755859 0.35823142528533935547 0.37550073862075805664 0.39267307519912719727 0.40932515263557434082 0.39337703585624694824 0.39090391993522644043 0.38920703530311584473 0.39030283689498901367 0.38582298159599304199 0.37191355228424072266 0.37154972553253173828 0.38139399886131286621 0.37097623944282531738 0.37173867225646972656 0.37523385882377624512 0.37496173381805419922 0.36175626516342163086 0.35660025477409362793 0.3538112938404083252 0.36210080981254577637 0.35248455405235290527 0.34512534737586975098 0.35295143723487854004 0.36896732449531555176 0.39852675795555114746 0.42063301801681518555 0.4312064051628112793 0.42386510968208312988 0.41632786393165588379 0.39026537537574768066 0.38993439078330993652 0.40373575687408447266 0.39832332730293273926 0.38394823670387268066 0.38141867518424987793 0.3930314481258392334 0.38006305694580078125 0.35836467146873474121 0.33453279733657836914 0.29243040084838867188 0.26263058185577392578 0.21233995258808135986 0.16027937829494476318 0.13713592290878295898 0.13200068473815917969 0.14908652007579803467 0.19213899970054626465 0.13926737010478973389 0.13328796625137329102 0.2197834700345993042 0.3073978126049041748 0.30747908353805541992 0.2885519564151763916 0.28814288973808288574 0.29609912633895874023 0.28368133306503295898 0.29025232791900634766 0.302215576171875 0.31829047203063964844 0.34726756811141967773 0.35712856054306030273 0.35799634456634521484 0.33994448184967041016 0.29874461889266967773 0.28198805451393127441 0.29615539312362670898 0.31453791260719299316 0.32170736789703369141 0.36237135529518127441 0.37580975890159606934 0.3780492246150970459 0.38273742794990539551 0.3944835662841796875 0.37674495577812194824 0.3772055208683013916 0.39758741855621337891 0.40220591425895690918 0.39693671464920043945 0.37917283177375793457 0.37715560197830200195 0.35881596803665161133 0.33212456107139587402 0.31938731670379638672 0.31258744001388549805 0.3198006749153137207 0.30460846424102783203 0.28842955827713012695 0.30608001351356506348 0.30937424302101135254 0.30265086889266967773 0.31374633312225341797 0.30905497074127197266 0.26971951127052307129 0.1464783400297164917 0.19164958596229553223 0.31325715780258178711 0.36541402339935302734 0.40465784072875976563 0.40906456112861633301 0.40671449899673461914 0.41261243820190429688 0.37714594602584838867 0.35655364394187927246 0.34409275650978088379 0.34786912798881530762 0.36262425780296325684 0.36010593175888061523 0.36008271574974060059 0.35008561611175537109 0.32866737246513366699 0.2843684852123260498 0.26414528489112854004 0.31249454617500305176 0.35833001136779785156 0.35281297564506530762 0.37470456957817077637 0.39996382594108581543 0.40200713276863098145 0.39962238073348999023 0.37893515825271606445 0.35860130190849304199 0.3231334686279296875 0.35207512974739074707 0.37231269478797912598 0.36815267801284790039 0.36698484420776367188 0.38134697079658508301 0.38908773660659790039 0.39475849270820617676 0.39905333518981933594 0.40321868658065795898 0.39857813715934753418 0.38763993978500366211 0.37716987729072570801 0.36557573080062866211 0.36829203367233276367 0.36658433079719543457 0.36118409037590026855 0.35562336444854736328 0.33463832736015319824 0.12110578268766403198 
nan 0.29835239052772521973 0.33661097288131713867 0.34221753478050231934 0.34638458490371704102 0.3248291015625 0.32190564274787902832 0.34272035956382751465 0.34300318360328674316 0.33483988046646118164 0.33839333057403564453 0.34328964352607727051 0.35220932960510253906 0.36499840021133422852 0.36847075819969177246 0.38768988847732543945 0.4052085578441619873 0.39901974797248840332 0.38970518112182617188 0.37719804048538208008 0.36084282398223876953 0.35736098885536193848 0.36033669114112854004 0.35989302396774291992 0.35938379168510437012 0.35872381925582885742 0.35349503159523010254 0.35804328322410583496 0.36256766319274902344 0.36258608102798461914 0.37832117080688476563 0.38171443343162536621 0.37574478983879089355 0.39283210039138793945 0.39387786388397216797 0.3722228705883026123 0.37003949284553527832 0.38651680946350097656 0.37575617432594299316 0.36446401476860046387 0.36142900586128234863 0.37001302838325500488 0.37273770570755004883 0.37713736295700073242 0.36031931638717651367 0.33949190378189086914 0.34119230508804321289 0.35301983356475830078 0.3575630486011505127 0.33768221735954284668 0.33988800644874572754 0.35430404543876647949 0.37499397993087768555 0.4098822474479675293 0.43315839767456054688 0.42959284782409667969 0.42103546857833862305 0.40214514732360839844 0.40407457947731018066 0.40252736210823059082 0.39689865708351135254 0.39000505208969116211 0.38995629549026489258 0.4010162651538848877 0.40007638931274414063 0.38073626160621643066 0.36831200122833251953 0.35649123787879943848 0.31947621703147888184 0.29719263315200805664 0.28248146176338195801 0.27753460407257080078 0.28541260957717895508 0.29877522587776184082 0.2972183525562286377 0.27401703596115112305 0.18102200329303741455 0.1493577808141708374 0.19180180132389068604 0.24876132607460021973 0.29669493436813354492 0.31033921241760253906 0.3154296875 0.28414815664291381836 0.26289674639701843262 0.26787498593330383301 0.28447005152702331543 0.30046278238296508789 0.3243071138858795166 0.3372345268726348877 0.32933664321899414063 0.29474923014640808105 0.2601114809513092041 0.26769366860389709473 0.31775787472724914551 0.34756693243980407715 0.35837584733963012695 0.36364701390266418457 0.38517472147941589355 0.35400983691215515137 0.35999381542205810547 0.34608936309814453125 0.34119325876235961914 0.35404574871063232422 0.36627840995788574219 0.38530492782592773438 0.40329733490943908691 0.36638614535331726074 0.33662635087966918945 0.33020180463790893555 0.33293923735618591309 0.31836450099945068359 0.31617185473442077637 0.31530630588531494141 0.3088054656982421875 0.30290612578392028809 0.30683881044387817383 0.31514459848403930664 0.30991104245185852051 0.29952919483184814453 0.30795577168464660645 0.22857517004013061523 0.12629014253616333008 0.18276208639144897461 0.27341672778129577637 0.367465972900390625 0.41663813591003417969 0.43329516053199768066 0.44477605819702148438 0.43048718571662902832 0.38214793801307678223 0.3710390627384185791 0.41308411955833435059 0.4261048734188079834 0.42812338471412658691 0.41538316011428833008 0.38244673609733581543 0.30175703763961791992 0.35859385132789611816 0.37777286767959594727 0.39321908354759216309 0.38508206605911254883 0.38943743705749511719 0.39406001567840576172 0.39383983612060546875 0.36617279052734375 0.36204522848129272461 0.37205052375793457031 0.34154805541038513184 0.31544101238250732422 0.3579915165901184082 0.37118807435035705566 0.37835603952407836914 0.37500390410423278809 0.38426190614700317383 0.38692432641983032227 0.38844913244247436523 0.37858280539512634277 0.37486809492111206055 0.37617099285125732422 0.3705552220344543457 0.36944589018821716309 0.38875284790992736816 0.39914545416831970215 0.39733168482780456543 0.38355234265327453613 0.37556919455528259277 0.35514011979103088379 0.13128699362277984619 
nan 0.30488348007202148438 0.34460076689720153809 0.35173267126083374023 0.35472926497459411621 0.35399878025054931641 0.35142803192138671875 0.34576639533042907715 0.33491760492324829102 0.34642508625984191895 0.35391879081726074219 0.34932348132133483887 0.35644200444221496582 0.35890448093414306641 0.36134237051010131836 0.37703686952590942383 0.39663657546043395996 0.40062502026557922363 0.38642328977584838867 0.38108962774276733398 0.36765724420547485352 0.36344698071479797363 0.35757416486740112305 0.36066636443138122559 0.35287564992904663086 0.34983450174331665039 0.35982239246368408203 0.36323380470275878906 0.3644841611385345459 0.36302149295806884766 0.36680617928504943848 0.36062568426132202148 0.35896053910255432129 0.38304477930068969727 0.38113412261009216309 0.36841154098510742188 0.38020628690719604492 0.4020582735538482666 0.39197739958763122559 0.37250635027885437012 0.37111735343933105469 0.37119635939598083496 0.37168511748313903809 0.37136852741241455078 0.35984089970588684082 0.3458665311336517334 0.34143161773681640625 0.35253426432609558105 0.36207023262977600098 0.3571198582649230957 0.34629935026168823242 0.36599591374397277832 0.37933996319770812988 0.40509337186813354492 0.4291553497314453125 0.43029552698135375977 0.41565346717834472656 0.37901610136032104492 0.38627889752388000488 0.3990542292594909668 0.40032926201820373535 0.39353504776954650879 0.39591044187545776367 0.40134274959564208984 0.40235412120819091797 0.37921148538589477539 0.37374746799468994141 0.37945359945297241211 0.37419036030769348145 0.34172222018241882324 0.33286073803901672363 0.33293455839157104492 0.33688452839851379395 0.32786297798156738281 0.3351739048957824707 0.33798113465309143066 0.22805804014205932617 0.12885162234306335449 0.16058640182018280029 0.24403776228427886963 0.29015183448791503906 0.29410076141357421875 0.30614507198333740234 0.29192939400672912598 0.27112439274787902832 0.27784457802772521973 0.2808837592601776123 0.26520264148712158203 0.27707818150520324707 0.31268826127052307129 0.32264876365661621094 0.32419630885124206543 0.2587591707706451416 0.28247410058975219727 0.34737679362297058105 0.39038741588592529297 0.36613002419471740723 0.33620592951774597168 0.37790894508361816406 0.37112212181091308594 0.37128970026969909668 0.35220247507095336914 0.34897434711456298828 0.35094392299652099609 0.35388237237930297852 0.35134139657020568848 0.37825858592987060547 0.35558402538299560547 0.34080517292022705078 0.3474038243293762207 0.33853691816329956055 0.3171024322509765625 0.32800415158271789551 0.33605152368545532227 0.33086228370666503906 0.31938165426254272461 0.31882420182228088379 0.33020165562629699707 0.31562516093254089355 0.29970794916152954102 0.31299105286598205566 0.29087579250335693359 0.18048797547817230225 0.13423207402229309082 0.15429998934268951416 0.27465894818305969238 0.38735672831535339355 0.42386469244956970215 0.42180618643760681152 0.41745936870574951172 0.38609641790390014648 0.37174421548843383789 0.41987273097038269043 0.44367337226867675781 0.4531529843807220459 0.45376530289649963379 0.43201863765716552734 0.33415126800537109375 0.40066602826118469238 0.40959617495536804199 0.39335176348686218262 0.38488531112670898438 0.39677962660789489746 0.40514603257179260254 0.39600795507431030273 0.36123207211494445801 0.35825330018997192383 0.37759387493133544922 0.35125792026519775391 0.30774089694023132324 0.35725635290145874023 0.37445899844169616699 0.37895795702934265137 0.38541883230209350586 0.38973218202590942383 0.39542204141616821289 0.39055296778678894043 0.37663361430168151855 0.36580014228820800781 0.36201995611190795898 0.35849589109420776367 0.3704007565975189209 0.4004669189453125 0.40504547953605651855 0.38897943496704101563 0.38911548256874084473 0.38657015562057495117 0.37440061569213867188 0.14003066718578338623 
nan 0.27938982844352722168 0.33153459429740905762 0.36710214614868164063 0.36440271139144897461 0.35865771770477294922 0.35560423135757446289 0.34534507989883422852 0.33430731296539306641 0.34435367584228515625 0.35793924331665039063 0.3574549555778503418 0.35405129194259643555 0.35332500934600830078 0.35728594660758972168 0.36633667349815368652 0.39269524812698364258 0.39930245280265808105 0.38721492886543273926 0.3730360865592956543 0.3500588834285736084 0.3568814694881439209 0.35026144981384277344 0.36496728658676147461 0.36084082722663879395 0.35641524195671081543 0.35932463407516479492 0.36543187499046325684 0.36010214686393737793 0.35640618205070495605 0.36122733354568481445 0.37097853422164916992 0.36951941251754760742 0.36907669901847839355 0.37593883275985717773 0.36660265922546386719 0.38595110177993774414 0.39873149991035461426 0.40131282806396484375 0.3915787041187286377 0.36354032158851623535 0.36553874611854553223 0.3745059967041015625 0.37443643808364868164 0.35550349950790405273 0.3336200714111328125 0.32986128330230712891 0.34615117311477661133 0.35836705565452575684 0.37067502737045288086 0.36614778637886047363 0.37789487838745117188 0.3812834620475769043 0.38319116830825805664 0.41547194123268127441 0.42701128125190734863 0.43091598153114318848 0.41870659589767456055 0.40101087093353271484 0.40127140283584594727 0.40380233526229858398 0.40241697430610656738 0.399631500244140625 0.40242666006088256836 0.41558587551116943359 0.38452512025833129883 0.37195825576782226563 0.36739483475685119629 0.36477947235107421875 0.3547553718090057373 0.34381949901580810547 0.34817931056022644043 0.35191133618354797363 0.33689096570014953613 0.34177878499031066895 0.34756356477737426758 0.25271579623222351074 0.16181528568267822266 0.15327523648738861084 0.24052976071834564209 0.26510187983512878418 0.27358585596084594727 0.30286848545074462891 0.29527014493942260742 0.282619476318359375 0.28347894549369812012 0.30032527446746826172 0.27822262048721313477 0.26779970526695251465 0.29792433977127075195 0.33127698302268981934 0.37630382180213928223 0.3441861569881439209 0.40415221452713012695 0.41942837834358215332 0.41874769330024719238 0.37355670332908630371 0.31466725468635559082 0.33113765716552734375 0.34840610623359680176 0.35029762983322143555 0.33718457818031311035 0.33548453450202941895 0.33182999491691589355 0.32069301605224609375 0.34924980998039245605 0.35238859057426452637 0.35442063212394714355 0.33633530139923095703 0.31581121683120727539 0.31321927905082702637 0.3419761955738067627 0.33401802182197570801 0.33587974309921264648 0.33145317435264587402 0.31285110116004943848 0.30128803849220275879 0.30715364217758178711 0.28591927886009216309 0.29323559999465942383 0.32566967606544494629 0.33451667428016662598 0.31033635139465332031 0.23812358081340789795 0.15095753967761993408 0.18868255615234375 0.27652183175086975098 0.3799546360969543457 0.40951114892959594727 0.39793345332145690918 0.35560804605484008789 0.32728916406631469727 0.32742163538932800293 0.39523181319236755371 0.45287686586380004883 0.45466414093971252441 0.45129558444023132324 0.39602401852607727051 0.39240056276321411133 0.41594925522804260254 0.41052007675170898438 0.38754829764366149902 0.40492618083953857422 0.4125137031078338623 0.40640974044799804688 0.36934328079223632813 0.35959595441818237305 0.37815088033676147461 0.3699747622013092041 0.32577788829803466797 0.36114075779914855957 0.38628348708152770996 0.39549854397773742676 0.39892578125 0.39045369625091552734 0.40279790759086608887 0.40706586837768554688 0.40035369992256164551 0.37534186244010925293 0.36552339792251586914 0.36418932676315307617 0.36539295315742492676 0.38160988688468933105 0.39041742682456970215 0.3685258328914642334 0.34630367159843444824 0.36221271753311157227 0.37185424566268920898 0.14444874227046966553 
nan 0.27376335859298706055 0.33517238497734069824 0.36332985758781433105 0.36957636475563049316 0.36635193228721618652 0.35683453083038330078 0.35352903604507446289 0.35357955098152160645 0.34997859597206115723 0.35213029384613037109 0.36053168773651123047 0.35774877667427062988 0.35606557130813598633 0.35625660419464111328 0.37842127680778503418 0.40784078836441040039 0.40052789449691772461 0.38314595818519592285 0.37167707085609436035 0.36605602502822875977 0.36147153377532958984 0.35805901885032653809 0.3572260439395904541 0.36351442337036132813 0.3610877692699432373 0.36934295296669006348 0.3695792853832244873 0.36399251222610473633 0.35739248991012573242 0.35523018240928649902 0.3514582514762878418 0.36803993582725524902 0.36428681015968322754 0.36615791916847229004 0.36397963762283325195 0.38189113140106201172 0.38639140129089355469 0.39314407110214233398 0.38533616065979003906 0.35770270228385925293 0.35887646675109863281 0.3698145449161529541 0.36338728666305541992 0.34382408857345581055 0.34475931525230407715 0.33880126476287841797 0.34251645207405090332 0.3564097285270690918 0.36857137084007263184 0.37709820270538330078 0.38087597489356994629 0.3857015073299407959 0.38957238197326660156 0.40920206904411315918 0.41853955388069152832 0.42249605059623718262 0.41830337047576904297 0.39293619990348815918 0.3874072730541229248 0.3939056098461151123 0.39344006776809692383 0.39082619547843933105 0.39422842860221862793 0.40340304374694824219 0.39243623614311218262 0.37814250588417053223 0.34883132576942443848 0.30298352241516113281 0.33259379863739013672 0.35833701491355895996 0.3651103973388671875 0.37332648038864135742 0.36095702648162841797 0.34093490242958068848 0.3401082456111907959 0.30273544788360595703 0.20935848355293273926 0.1681966930627822876 0.25504636764526367188 0.26888650655746459961 0.27078256011009216309 0.29061013460159301758 0.29070341587066650391 0.29295408725738525391 0.28955590724945068359 0.29182630777359008789 0.28847688436508178711 0.26600614190101623535 0.28030624985694885254 0.31879949569702148438 0.39943873882293701172 0.41893634200096130371 0.42761415243148803711 0.40945446491241455078 0.39297181367874145508 0.3320249021053314209 0.2942797541618347168 0.29606136679649353027 0.30461516976356506348 0.31200015544891357422 0.31005838513374328613 0.3226089775562286377 0.33964669704437255859 0.31345063447952270508 0.34396398067474365234 0.34855720400810241699 0.34376123547554016113 0.32493320107460021973 0.32164686918258666992 0.31159695982933044434 0.35516002774238586426 0.33991634845733642578 0.32571563124656677246 0.3247470855712890625 0.31325647234916687012 0.29160892963409423828 0.27001866698265075684 0.25080314278602600098 0.27785074710845947266 0.32906579971313476563 0.3365752100944519043 0.32688495516777038574 0.29818871617317199707 0.25088939070701599121 0.23635034263134002686 0.19460529088973999023 0.30767661333084106445 0.37977635860443115234 0.34228554368019104004 0.31224018335342407227 0.33436897397041320801 0.30506849288940429688 0.3236039280891418457 0.42803964018821716309 0.4546470940113067627 0.46378305554389953613 0.40549814701080322266 0.40639391541481018066 0.42288872599601745605 0.42808696627616882324 0.40812242031097412109 0.41418799757957458496 0.42556884884834289551 0.41708576679229736328 0.37231603264808654785 0.37695971131324768066 0.38232263922691345215 0.37178573012351989746 0.32233908772468566895 0.36276829242706298828 0.38627505302429199219 0.39391288161277770996 0.40568578243255615234 0.38513496518135070801 0.39950901269912719727 0.4131412506103515625 0.40735208988189697266 0.3699702918529510498 0.37382259964942932129 0.37029400467872619629 0.36709713935852050781 0.3808688819408416748 0.39111426472663879395 0.34967318177223205566 0.33832538127899169922 0.3678938746452331543 0.37713927030563354492 0.14355868101119995117 
nan 0.27819329500198364258 0.33768737316131591797 0.35329362750053405762 0.36256286501884460449 0.36531460285186767578 0.35636734962463378906 0.35109859704971313477 0.35611873865127563477 0.35145139694213867188 0.35567212104797363281 0.3611672818660736084 0.36008459329605102539 0.35170605778694152832 0.35683289170265197754 0.38315626978874206543 0.41379314661026000977 0.4032929539680480957 0.37657079100608825684 0.36621436476707458496 0.3748842775821685791 0.36630582809448242188 0.36058697104454040527 0.36091318726539611816 0.36214631795883178711 0.35795870423316955566 0.36493924260139465332 0.36583667993545532227 0.36178216338157653809 0.35787498950958251953 0.3579654991626739502 0.36058750748634338379 0.36852931976318359375 0.36699181795120239258 0.36238619685173034668 0.36295220255851745605 0.37621554732322692871 0.38480490446090698242 0.39191046357154846191 0.39165642857551574707 0.36908128857612609863 0.36002963781356811523 0.36378577351570129395 0.35632255673408508301 0.34635373950004577637 0.34565684199333190918 0.33682531118392944336 0.32294616103172302246 0.35581636428833007813 0.36990043520927429199 0.38331240415573120117 0.38100567460060119629 0.38585311174392700195 0.39092597365379333496 0.39872848987579345703 0.40369698405265808105 0.40997272729873657227 0.40178415179252624512 0.38618168234825134277 0.3856093287467956543 0.39117151498794555664 0.38750627636909484863 0.38684022426605224609 0.39105546474456787109 0.39532703161239624023 0.38264507055282592773 0.37125131487846374512 0.35499173402786254883 0.29703187942504882813 0.31237593293190002441 0.3574479520320892334 0.37586903572082519531 0.37385806441307067871 0.36899602413177490234 0.35023364424705505371 0.3334744572639465332 0.31347891688346862793 0.23350942134857177734 0.14600887894630432129 0.20099051296710968018 0.26263079047203063965 0.26316943764686584473 0.27777945995330810547 0.2805919945240020752 0.2980760037899017334 0.30260092020034790039 0.29120025038719177246 0.29092431068420410156 0.27385208010673522949 0.26840174198150634766 0.31036496162414550781 0.35628426074981689453 0.38420912623405456543 0.40856304764747619629 0.37182652950286865234 0.35090348124504089355 0.31187239289283752441 0.27588257193565368652 0.27960854768753051758 0.3020286262035369873 0.33167240023612976074 0.3355929255485534668 0.34719440340995788574 0.36382293701171875 0.35415944457054138184 0.33549347519874572754 0.3576056063175201416 0.35323172807693481445 0.35018718242645263672 0.34667465090751647949 0.34078958630561828613 0.35567212104797363281 0.35574612021446228027 0.31669351458549499512 0.31537511944770812988 0.31398698687553405762 0.31049782037734985352 0.2768420875072479248 0.27542656660079956055 0.2978934943675994873 0.3198204338550567627 0.32075840234756469727 0.33658641576766967773 0.34116020798683166504 0.34007555246353149414 0.33561655879020690918 0.23673018813133239746 0.2583694756031036377 0.30624523758888244629 0.29940238595008850098 0.36754903197288513184 0.37739425897598266602 0.35531947016716003418 0.31246861815452575684 0.37520492076873779297 0.43215107917785644531 0.41208940744400024414 0.34607961773872375488 0.39043819904327392578 0.37925714254379272461 0.41045916080474853516 0.41701874136924743652 0.40165597200393676758 0.4241421818733215332 0.40792003273963928223 0.37296310067176818848 0.39114174246788024902 0.39451286196708679199 0.38614952564239501953 0.32181853055953979492 0.35973241925239562988 0.37577560544013977051 0.37456864118576049805 0.39178383350372314453 0.38630115985870361328 0.37943813204765319824 0.38161697983741760254 0.38231265544891357422 0.36614990234375 0.39015340805053710938 0.37883472442626953125 0.35905355215072631836 0.38481494784355163574 0.38354498147964477539 0.35314384102821350098 0.36177736520767211914 0.38321778178215026855 0.37226355075836181641 0.14142106473445892334 
nan 0.28023183345794677734 0.33227297663688659668 0.3551330864429473877 0.35688191652297973633 0.35670495033264160156 0.35419607162475585938 0.36149260401725769043 0.36745953559875488281 0.36870241165161132813 0.37068796157836914063 0.36734038591384887695 0.3549855649471282959 0.34154516458511352539 0.3468628227710723877 0.35419160127639770508 0.37069809436798095703 0.38711857795715332031 0.37256205081939697266 0.36624562740325927734 0.36800220608711242676 0.35951194167137145996 0.35431802272796630859 0.35740754008293151855 0.36215725541114807129 0.36688825488090515137 0.3680476844310760498 0.36363491415977478027 0.35453525185585021973 0.35647183656692504883 0.35990187525749206543 0.36145195364952087402 0.35427299141883850098 0.36455047130584716797 0.36717483401298522949 0.36940148472785949707 0.3654619753360748291 0.37077692151069641113 0.37043327093124389648 0.38175910711288452148 0.36820563673973083496 0.35498136281967163086 0.35765379667282104492 0.36277419328689575195 0.35706040263175964355 0.33834531903266906738 0.33915093541145324707 0.35191908478736877441 0.37088274955749511719 0.37372097373008728027 0.36390334367752075195 0.36222642660140991211 0.36888554692268371582 0.37624287605285644531 0.37822631001472473145 0.39023044705390930176 0.40310409665107727051 0.39992415904998779297 0.39224547147750854492 0.37713098526000976563 0.37460753321647644043 0.38363057374954223633 0.38350790739059448242 0.39073151350021362305 0.40686550736427307129 0.38613110780715942383 0.37178406119346618652 0.37546017765998840332 0.36138719320297241211 0.35896077752113342285 0.36954873800277709961 0.36953833699226379395 0.36513027548789978027 0.36637258529663085938 0.36144149303436279297 0.35218003392219543457 0.34316560626029968262 0.31259137392044067383 0.21016107499599456787 0.1382344663143157959 0.16786247491836547852 0.21547949314117431641 0.24093337357044219971 0.2545292973518371582 0.29484117031097412109 0.31319510936737060547 0.3229007422924041748 0.30500680208206176758 0.28688392043113708496 0.2907905280590057373 0.31521570682525634766 0.33787515759468078613 0.35729217529296875 0.36973413825035095215 0.35064902901649475098 0.33315524458885192871 0.33549538254737854004 0.33578541874885559082 0.33603948354721069336 0.33543315529823303223 0.33980292081832885742 0.32931908965110778809 0.31786817312240600586 0.3035272061824798584 0.29978844523429870605 0.33914259076118469238 0.35397961735725402832 0.35143691301345825195 0.34178474545478820801 0.3398647010326385498 0.3548622429370880127 0.34694996476173400879 0.35258400440216064453 0.3234074711799621582 0.31513193249702453613 0.30640694499015808105 0.31189304590225219727 0.30503138899803161621 0.29649826884269714355 0.29506361484527587891 0.29643458127975463867 0.32295238971710205078 0.3596598207950592041 0.37603986263275146484 0.36264666914939880371 0.3193378150463104248 0.25133812427520751953 0.2277425229549407959 0.23214636743068695068 0.31828328967094421387 0.38483506441116333008 0.36547356843948364258 0.35390606522560119629 0.35925123095512390137 0.35345846414566040039 0.33360275626182556152 0.31183505058288574219 0.34167245030403137207 0.35949748754501342773 0.34590563178062438965 0.35584861040115356445 0.38495695590972900391 0.38235628604888916016 0.3853887021541595459 0.37359094619750976563 0.36218011379241943359 0.39332649111747741699 0.41830480098724365234 0.39685180783271789551 0.34475925564765930176 0.36699917912483215332 0.3630295097827911377 0.36189022660255432129 0.37823927402496337891 0.3991680145263671875 0.38565576076507568359 0.37057021260261535645 0.36646494269371032715 0.3615373075008392334 0.35874319076538085938 0.35925009846687316895 0.35229009389877319336 0.3707879185676574707 0.36439025402069091797 0.34744280576705932617 0.36918058991432189941 0.38338616490364074707 0.37408652901649475098 0.14242054522037506104 
nan 0.22173573076725006104 0.27975514531135559082 0.34242871403694152832 0.34334850311279296875 0.3542410433292388916 0.36921724677085876465 0.37218424677848815918 0.37653690576553344727 0.3651129305362701416 0.37538185715675354004 0.37562206387519836426 0.36145728826522827148 0.35358157753944396973 0.34340596199035644531 0.33557882905006408691 0.33614996075630187988 0.36246061325073242188 0.36484545469284057617 0.37288466095924377441 0.37836170196533203125 0.36023214459419250488 0.35482141375541687012 0.35938790440559387207 0.35868760943412780762 0.3661473691463470459 0.37142035365104675293 0.36445179581642150879 0.35636350512504577637 0.35810163617134094238 0.36535203456878662109 0.35280954837799072266 0.34944987297058105469 0.37066718935966491699 0.36673074960708618164 0.37322321534156799316 0.36847490072250366211 0.34672248363494873047 0.32755798101425170898 0.34087619185447692871 0.36049878597259521484 0.36557367444038391113 0.34359049797058105469 0.3671576082706451416 0.37118759751319885254 0.37156027555465698242 0.37262067198753356934 0.37024849653244018555 0.3674163818359375 0.36894273757934570313 0.36896345019340515137 0.37433293461799621582 0.38644167780876159668 0.39867255091667175293 0.3873405754566192627 0.39330196380615234375 0.40148016810417175293 0.39520528912544250488 0.39701694250106811523 0.3872884213924407959 0.37287417054176330566 0.38035291433334350586 0.3949235081672668457 0.39161038398742675781 0.4105587005615234375 0.41540688276290893555 0.38769456744194030762 0.3987522423267364502 0.39517292380332946777 0.37286275625228881836 0.36367103457450866699 0.36876162886619567871 0.3667252957820892334 0.36743927001953125 0.37578049302101135254 0.36460408568382263184 0.35627114772796630859 0.35600000619888305664 0.35015717148780822754 0.30461609363555908203 0.20812749862670898438 0.13691282272338867188 0.12436176836490631104 0.15796333551406860352 0.25615236163139343262 0.29945787787437438965 0.30893242359161376953 0.30047062039375305176 0.28147548437118530273 0.28408363461494445801 0.30164498090744018555 0.31928732991218566895 0.32979428768157958984 0.33832430839538574219 0.33366155624389648438 0.3406893610954284668 0.34689617156982421875 0.34359386563301086426 0.3443686068058013916 0.3360328972339630127 0.34347397089004516602 0.366283416748046875 0.36549988389015197754 0.33480590581893920898 0.32375228404998779297 0.32694733142852783203 0.33006459474563598633 0.33373013138771057129 0.34063267707824707031 0.33686161041259765625 0.33583930134773254395 0.34740293025970458984 0.35364183783531188965 0.34955140948295593262 0.34303724765777587891 0.33061110973358154297 0.31452867388725280762 0.36328849196434020996 0.38528403639793395996 0.36478081345558166504 0.33181479573249816895 0.33494010567665100098 0.36786404252052307129 0.39618575572967529297 0.37167751789093017578 0.26968014240264892578 0.19736100733280181885 0.19506564736366271973 0.21521052718162536621 0.32882207632064819336 0.38778972625732421875 0.37562450766563415527 0.37356173992156982422 0.38611760735511779785 0.39938074350357055664 0.39558073878288269043 0.39357602596282958984 0.38287118077278137207 0.34993258118629455566 0.35514339804649353027 0.36986082792282104492 0.37766230106353759766 0.34162765741348266602 0.329616546630859375 0.33004212379455566406 0.34553968906402587891 0.39471301436424255371 0.42533028125762939453 0.38309949636459350586 0.34159809350967407227 0.35308337211608886719 0.35167846083641052246 0.34954476356506347656 0.3544553220272064209 0.36529532074928283691 0.37103635072708129883 0.36784830689430236816 0.3662261664867401123 0.33780133724212646484 0.33839115500450134277 0.35072192549705505371 0.35355499386787414551 0.36578714847564697266 0.38244634866714477539 0.37626832723617553711 0.37954699993133544922 0.39457347989082336426 0.39046260714530944824 0.14738537371158599854 
nan 0.17225800454616546631 0.23126688599586486816 0.32961025834083557129 0.33834135532379150391 0.35233476758003234863 0.36874508857727050781 0.36931461095809936523 0.36789405345916748047 0.34995770454406738281 0.36377444863319396973 0.37076917290687561035 0.36261990666389465332 0.35554733872413635254 0.34740561246871948242 0.33583530783653259277 0.33761301636695861816 0.36780768632888793945 0.36248847842216491699 0.36431860923767089844 0.36505848169326782227 0.35610595345497131348 0.35395964980125427246 0.35804426670074462891 0.35990056395530700684 0.34524455666542053223 0.35894367098808288574 0.36238819360733032227 0.35674339532852172852 0.35854712128639221191 0.36089569330215454102 0.34853860735893249512 0.34763485193252563477 0.36949482560157775879 0.360553741455078125 0.36813604831695556641 0.37210214138031005859 0.36013877391815185547 0.34070029854774475098 0.34700566530227661133 0.36647450923919677734 0.38513043522834777832 0.35684916377067565918 0.36941617727279663086 0.37321561574935913086 0.38547793030738830566 0.39846748113632202148 0.38876271247863769531 0.36782473325729370117 0.36117157340049743652 0.36029851436614990234 0.36176913976669311523 0.3695150911808013916 0.35934582352638244629 0.33372017741203308105 0.3353811800479888916 0.35911110043525695801 0.38742652535438537598 0.3930600285530090332 0.39418098330497741699 0.38739946484565734863 0.38765549659729003906 0.3966712653636932373 0.39032545685768127441 0.41033947467803955078 0.42984300851821899414 0.39979287981986999512 0.41431596875190734863 0.42208087444305419922 0.37741878628730773926 0.35559687018394470215 0.35108286142349243164 0.35748571157455444336 0.37273046374320983887 0.38773807883262634277 0.38046282529830932617 0.36778867244720458984 0.36397755146026611328 0.36792489886283874512 0.36045029759407043457 0.28765195608139038086 0.18202660977840423584 0.12363403290510177612 0.12974917888641357422 0.24362364411354064941 0.28881242871284484863 0.29940852522850036621 0.29133901000022888184 0.2704137265682220459 0.2665233314037322998 0.28951936960220336914 0.30271685123443603516 0.30801168084144592285 0.33094426989555358887 0.3287671208381652832 0.33550417423248291016 0.34718158841133117676 0.35417968034744262695 0.35416376590728759766 0.33970543742179870605 0.34709227085113525391 0.38941338658332824707 0.38030630350112915039 0.34600770473480224609 0.33594560623168945313 0.33025747537612915039 0.31834813952445983887 0.32471296191215515137 0.35538202524185180664 0.34870615601539611816 0.3290042877197265625 0.31478920578956604004 0.33570593595504760742 0.34653365612030029297 0.3442484438419342041 0.38245546817779541016 0.37390440702438354492 0.40260308980941772461 0.38915261626243591309 0.36204311251640319824 0.33407774567604064941 0.34739091992378234863 0.38800522685050964355 0.40936195850372314453 0.37020441889762878418 0.26054644584655761719 0.19341601431369781494 0.18085472285747528076 0.22693653404712677002 0.35466757416725158691 0.39496964216232299805 0.39456257224082946777 0.39472210407257080078 0.39990940690040588379 0.4197883307933807373 0.43293076753616333008 0.4246387481689453125 0.40778896212577819824 0.38732561469078063965 0.39239060878753662109 0.40422803163528442383 0.3952776491641998291 0.34071743488311767578 0.32321435213088989258 0.31734120845794677734 0.34202980995178222656 0.38210964202880859375 0.38423815369606018066 0.33244103193283081055 0.3380852043628692627 0.35751938819885253906 0.34914511442184448242 0.34269282221794128418 0.34138900041580200195 0.34382605552673339844 0.34954121708869934082 0.35318350791931152344 0.35210075974464416504 0.3398596644401550293 0.33855351805686950684 0.35083848237991333008 0.38320633769035339355 0.37962630391120910645 0.39522033929824829102 0.39589577913284301758 0.40272909402847290039 0.40891715884208679199 0.40177416801452636719 0.15120947360992431641 
nan 0.17385183274745941162 0.23432168364524841309 0.31113091111183166504 0.32254502177238464355 0.33767920732498168945 0.35400617122650146484 0.3515885770320892334 0.35645246505737304688 0.36309835314750671387 0.36073857545852661133 0.36002644896507263184 0.3661327064037322998 0.3594264984130859375 0.35303947329521179199 0.34718504548072814941 0.35150215029716491699 0.38522693514823913574 0.3665955960750579834 0.36346408724784851074 0.36299237608909606934 0.34775194525718688965 0.35708504915237426758 0.35936334729194641113 0.36201360821723937988 0.34809988737106323242 0.34865576028823852539 0.35615769028663635254 0.35500815510749816895 0.36014509201049804688 0.35185292363166809082 0.3408769071102142334 0.35014605522155761719 0.37543836236000061035 0.36365088820457458496 0.3579368889331817627 0.36283382773399353027 0.36280646920204162598 0.35211843252182006836 0.35445567965507507324 0.36028695106506347656 0.36966079473495483398 0.352207183837890625 0.34796324372291564941 0.34075257182121276855 0.36040040850639343262 0.37584352493286132813 0.37128490209579467773 0.3676109015941619873 0.36564928293228149414 0.35998651385307312012 0.34966441988945007324 0.36188477277755737305 0.33790671825408935547 0.29697173833847045898 0.31412005424499511719 0.35578334331512451172 0.39196953177452087402 0.3963782191276550293 0.39590001106262207031 0.39963144063949584961 0.38537368178367614746 0.39301586151123046875 0.39520168304443359375 0.41419973969459533691 0.41511738300323486328 0.39703199267387390137 0.42089131474494934082 0.43251189589500427246 0.40123084187507629395 0.35842436552047729492 0.3449211418628692627 0.35699990391731262207 0.37416106462478637695 0.38289162516593933105 0.37579926848411560059 0.37152934074401855469 0.36314940452575683594 0.3657283782958984375 0.37094578146934509277 0.31530869007110595703 0.21518924832344055176 0.12761154770851135254 0.10079856216907501221 0.21319040656089782715 0.27885800600051879883 0.28945943713188171387 0.29704949259757995605 0.27257359027862548828 0.25820904970169067383 0.28663611412048339844 0.29576981067657470703 0.29574435949325561523 0.31589213013648986816 0.32360762357711791992 0.32317611575126647949 0.33428502082824707031 0.33939540386199951172 0.33517399430274963379 0.33796977996826171875 0.34824538230895996094 0.36615255475044250488 0.35442465543746948242 0.35178512334823608398 0.34402537345886230469 0.33736795186996459961 0.32998311519622802734 0.3497467339038848877 0.35521680116653442383 0.34196123480796813965 0.32841545343399047852 0.32872793078422546387 0.34566277265548706055 0.36386635899543762207 0.38015505671501159668 0.40336936712265014648 0.39223194122314453125 0.40066429972648620605 0.3756764531135559082 0.35590100288391113281 0.33077198266983032227 0.34920239448547363281 0.41128718852996826172 0.41519519686698913574 0.32383847236633300781 0.19684350490570068359 0.14750735461711883545 0.1404908299446105957 0.21901772916316986084 0.36490091681480407715 0.39972710609436035156 0.3897406160831451416 0.39184769988059997559 0.39265725016593933105 0.4157091677188873291 0.42781585454940795898 0.43053993582725524902 0.4153957366943359375 0.41415122151374816895 0.41629341244697570801 0.42043629288673400879 0.40216588973999023438 0.33322998881340026855 0.32590639591217041016 0.32723259925842285156 0.33535787463188171387 0.3460718691349029541 0.37094917893409729004 0.34472715854644775391 0.36297810077667236328 0.35065320134162902832 0.34326687455177307129 0.33607161045074462891 0.33414018154144287109 0.34245830774307250977 0.34499332308769226074 0.34814274311065673828 0.34704849123954772949 0.35084050893783569336 0.36052331328392028809 0.36991530656814575195 0.36939412355422973633 0.36755716800689697266 0.40165650844573974609 0.39019823074340820313 0.38954329490661621094 0.41400414705276489258 0.41389104723930358887 0.15506905317306518555 
nan 0.26956549286842346191 0.30619573593139648438 0.31327736377716064453 0.31275773048400878906 0.32983815670013427734 0.34818959236145019531 0.34795531630516052246 0.35547599196434020996 0.36843016743659973145 0.35851806402206420898 0.36502379179000854492 0.36980664730072021484 0.35915869474411010742 0.35978856682777404785 0.36119797825813293457 0.36750492453575134277 0.38264486193656921387 0.37224236130714416504 0.35937574505805969238 0.36197549104690551758 0.3586756289005279541 0.37656217813491821289 0.37683784961700439453 0.36317926645278930664 0.36249792575836181641 0.35437723994255065918 0.3495432436466217041 0.35397994518280029297 0.35196650028228759766 0.35216447710990905762 0.34904330968856811523 0.35435831546783447266 0.37190172076225280762 0.3606739044189453125 0.34982576966285705566 0.35363423824310302734 0.36984995007514953613 0.36445879936218261719 0.36970674991607666016 0.36669194698333740234 0.3543599545955657959 0.35291892290115356445 0.35034266114234924316 0.34635081887245178223 0.34158381819725036621 0.35163617134094238281 0.35430681705474853516 0.36326956748962402344 0.36716088652610778809 0.35615745186805725098 0.3498897552490234375 0.35722151398658752441 0.34140953421592712402 0.31367963552474975586 0.31186282634735107422 0.35858821868896484375 0.3899580538272857666 0.39079704880714416504 0.39791315793991088867 0.41015312075614929199 0.38662755489349365234 0.38449609279632568359 0.39606955647468566895 0.4048588871955871582 0.39302310347557067871 0.39501875638961791992 0.42250272631645202637 0.43154266476631164551 0.41666659712791442871 0.37412440776824951172 0.35370627045631408691 0.34746089577674865723 0.35744115710258483887 0.36761391162872314453 0.37706893682479858398 0.37816348671913146973 0.37503510713577270508 0.38149094581604003906 0.37879231572151184082 0.34778437018394470215 0.30793982744216918945 0.20407004654407501221 0.10583899170160293579 0.15178710222244262695 0.218137398362159729 0.26654106378555297852 0.29049295186996459961 0.2851543724536895752 0.28039887547492980957 0.28251469135284423828 0.29233428835868835449 0.29001200199127197266 0.30764946341514587402 0.31820377707481384277 0.31058022379875183105 0.31892156600952148438 0.32650452852249145508 0.32180491089820861816 0.31953054666519165039 0.33065828680992126465 0.34324169158935546875 0.34108802676200866699 0.35626849532127380371 0.35223907232284545898 0.34156492352485656738 0.33027857542037963867 0.35419595241546630859 0.36221134662628173828 0.33357581496238708496 0.33338096737861633301 0.34342560172080993652 0.36007505655288696289 0.36737573146820068359 0.39077657461166381836 0.4010950922966003418 0.38160157203674316406 0.39934936165809631348 0.37033936381340026855 0.34824389219284057617 0.33218124508857727051 0.35760277509689331055 0.38440391421318054199 0.37079343199729919434 0.22571305930614471436 0.088885836303234100342 0.092362664639949798584 0.085924521088600158691 0.18105022609233856201 0.35582894086837768555 0.38537064194679260254 0.36101981997489929199 0.35657683014869689941 0.34821060299873352051 0.38770693540573120117 0.40882855653762817383 0.41199901700019836426 0.41218149662017822266 0.41351896524429321289 0.42087849974632263184 0.43147718906402587891 0.41668209433555603027 0.34618622064590454102 0.32458454370498657227 0.32799986004829406738 0.32523325085639953613 0.33080914616584777832 0.32490202784538269043 0.34500512480735778809 0.36907160282135009766 0.30309686064720153809 0.33210670948028564453 0.34986582398414611816 0.36273834109306335449 0.34879562258720397949 0.33707359433174133301 0.34030121564865112305 0.34652110934257507324 0.3713086545467376709 0.39202526211738586426 0.39050897955894470215 0.37686300277709960938 0.37680014967918395996 0.38526022434234619141 0.36303466558456420898 0.3722108006477355957 0.40851297974586486816 0.41372656822204589844 0.25373569130897521973 
nan 0.28732928633689880371 0.32442578673362731934 0.32720464468002319336 0.34606638550758361816 0.35534149408340454102 0.3452968299388885498 0.33832412958145141602 0.34003427624702453613 0.34457489848136901855 0.35724553465843200684 0.36344543099403381348 0.36557465791702270508 0.35266664624214172363 0.34511795639991760254 0.35199657082557678223 0.3554019629955291748 0.36354246735572814941 0.3710962831974029541 0.36148625612258911133 0.3599644005298614502 0.36875095963478088379 0.38676887750625610352 0.38756725192070007324 0.38340032100677490234 0.36931720376014709473 0.35988351702690124512 0.35749775171279907227 0.35772126913070678711 0.35677033662796020508 0.35639432072639465332 0.35598763823509216309 0.36081099510192871094 0.38002875447273254395 0.36954063177108764648 0.34811437129974365234 0.35336834192276000977 0.37668627500534057617 0.38155511021614074707 0.39256381988525390625 0.37790584564208984375 0.35459938645362854004 0.35104143619537353516 0.35357880592346191406 0.34786555171012878418 0.32771059870719909668 0.3415240943431854248 0.35581827163696289063 0.35362303256988525391 0.34831914305686950684 0.34149762988090515137 0.33637699484825134277 0.3350461125373840332 0.32160893082618713379 0.29803606867790222168 0.33138886094093322754 0.37607264518737792969 0.38922455906867980957 0.39161252975463867188 0.40863457322120666504 0.42219653725624084473 0.40414324402809143066 0.39176872372627258301 0.39933928847312927246 0.40180057287216186523 0.3876101374626159668 0.39883014559745788574 0.41297075152397155762 0.40255782008171081543 0.40183016657829284668 0.40350463986396789551 0.37834668159484863281 0.35268756747245788574 0.34888318181037902832 0.35567843914031982422 0.36390295624732971191 0.37601199746131896973 0.37744629383087158203 0.38514626026153564453 0.36779060959815979004 0.35414326190948486328 0.34647381305694580078 0.29841151833534240723 0.23246888816356658936 0.14004024863243103027 0.10876369476318359375 0.17279745638370513916 0.25819745659828186035 0.28549805283546447754 0.30248415470123291016 0.30528882145881652832 0.29913151264190673828 0.27914860844612121582 0.26753529906272888184 0.27795290946960449219 0.2915528714656829834 0.3054771125316619873 0.30130481719970703125 0.29106169939041137695 0.3067722022533416748 0.32115757465362548828 0.32891961932182312012 0.33236026763916015625 0.37221282720565795898 0.36650109291076660156 0.36170995235443115234 0.34920018911361694336 0.34551948308944702148 0.33422645926475524902 0.33621814846992492676 0.34745347499847412109 0.36120551824569702148 0.36702591180801391602 0.34920707345008850098 0.35515835881233215332 0.35475546121597290039 0.35660460591316223145 0.38702037930488586426 0.38550356030464172363 0.38062742352485656738 0.37527650594711303711 0.34859314560890197754 0.29616630077362060547 0.26610195636749267578 0.14963470399379730225 0.10736838728189468384 0.1268968433141708374 0.10241087526082992554 0.2055311053991317749 0.34730055928230285645 0.34437361359596252441 0.32728531956672668457 0.32265704870223999023 0.32197555899620056152 0.36106169223785400391 0.40360933542251586914 0.3954639732837677002 0.41092544794082641602 0.40339714288711547852 0.42466700077056884766 0.43042573332786560059 0.4139804542064666748 0.39060261845588684082 0.35487657785415649414 0.32284373044967651367 0.30950501561164855957 0.31411772966384887695 0.32449069619178771973 0.34743276238441467285 0.40799370408058166504 0.32058912515640258789 0.29885137081146240234 0.33136805891990661621 0.33755600452423095703 0.32140427827835083008 0.32161805033683776855 0.3423213958740234375 0.35365065932273864746 0.36890587210655212402 0.36008629202842712402 0.36992543935775756836 0.38253459334373474121 0.38165622949600219727 0.36615777015686035156 0.34767842292785644531 0.3614749908447265625 0.41745671629905700684 0.40319555997848510742 0.37157019972801208496 
nan 0.29103210568428039551 0.33084189891815185547 0.32746019959449768066 0.34109139442443847656 0.34801033139228820801 0.34441417455673217773 0.35338166356086730957 0.33777016401290893555 0.33866789937019348145 0.34878394007682800293 0.35454478859901428223 0.35660889744758605957 0.3542270958423614502 0.34669187664985656738 0.3487879633903503418 0.35386964678764343262 0.36638095974922180176 0.3661606907844543457 0.35140058398246765137 0.353118896484375 0.36288520693778991699 0.38462269306182861328 0.38099038600921630859 0.37011206150054931641 0.37149801850318908691 0.37115824222564697266 0.36675018072128295898 0.35735520720481872559 0.36450794339179992676 0.36444333195686340332 0.35094815492630004883 0.36176222562789916992 0.37414556741714477539 0.36614227294921875 0.34512656927108764648 0.3482151329517364502 0.37675720453262329102 0.38767951726913452148 0.41544330120086669922 0.37312006950378417969 0.34895998239517211914 0.35234433412551879883 0.35365155339241027832 0.34404471516609191895 0.31526771187782287598 0.34107753634452819824 0.36448597908020019531 0.34946402907371520996 0.34325009584426879883 0.34444168210029602051 0.34458401799201965332 0.33870619535446166992 0.33607313036918640137 0.32521229982376098633 0.36479014158248901367 0.39450678229331970215 0.39392250776290893555 0.38953933119773864746 0.40277099609375 0.41300633549690246582 0.39345034956932067871 0.38585996627807617188 0.40302169322967529297 0.40967017412185668945 0.39984676241874694824 0.40985855460166931152 0.41194987297058105469 0.38334617018699645996 0.39020636677742004395 0.4022445976734161377 0.39193004369735717773 0.36196410655975341797 0.35166057944297790527 0.3650690913200378418 0.3628864586353302002 0.37374514341354370117 0.38208985328674316406 0.38240861892700195313 0.3842023313045501709 0.37349313497543334961 0.36875629425048828125 0.35532110929489135742 0.32983508706092834473 0.25074625015258789063 0.19048602879047393799 0.12830215692520141602 0.12015026062726974487 0.16587109863758087158 0.2344461977481842041 0.27314943075180053711 0.29768419265747070313 0.2872015535831451416 0.2616341710090637207 0.27151352167129516602 0.28656905889511108398 0.30311191082000732422 0.31545078754425048828 0.32266867160797119141 0.32784727215766906738 0.31826379895210266113 0.3148085176944732666 0.3373209834098815918 0.3655472099781036377 0.3724053800106048584 0.36286741495132446289 0.35805553197860717773 0.35349887609481811523 0.32447168231010437012 0.3433926999568939209 0.3522027432918548584 0.35418388247489929199 0.3537788093090057373 0.35771894454956054688 0.3605562746524810791 0.35953542590141296387 0.3626168370246887207 0.36856219172477722168 0.37886038422584533691 0.37857031822204589844 0.37952119112014770508 0.35168591141700744629 0.29708847403526306152 0.26648408174514770508 0.24237637221813201904 0.21587254106998443604 0.14226169884204864502 0.1127580106258392334 0.17922160029411315918 0.29991972446441650391 0.31950691342353820801 0.30473631620407104492 0.32017228007316589355 0.32633942365646362305 0.34814953804016113281 0.38848647475242614746 0.40033197402954101563 0.40396142005920410156 0.40707060694694519043 0.41978970170021057129 0.42157015204429626465 0.40191888809204101563 0.39668416976928710938 0.39583805203437805176 0.33556729555130004883 0.3046957850456237793 0.29514366388320922852 0.31009024381637573242 0.32561838626861572266 0.34515342116355895996 0.37349659204483032227 0.36695203185081481934 0.34452602267265319824 0.33561965823173522949 0.28845602273941040039 0.30236077308654785156 0.32812678813934326172 0.33694359660148620605 0.3453280329704284668 0.35234019160270690918 0.36408287286758422852 0.37618887424468994141 0.3453858494758605957 0.32799351215362548828 0.34253540635108947754 0.34871703386306762695 0.37104550004005432129 0.3553517460823059082 0.35433673858642578125 
nan 0.29767334461212158203 0.3353970646858215332 0.33872747421264648438 0.32743668556213378906 0.333057403564453125 0.34475350379943847656 0.35663506388664245605 0.35240185260772705078 0.35877212882041931152 0.35901051759719848633 0.35437124967575073242 0.34554964303970336914 0.3496367037296295166 0.3437837064266204834 0.33443999290466308594 0.33589515089988708496 0.35803434252738952637 0.364681243896484375 0.34753489494323730469 0.32525786757469177246 0.34788608551025390625 0.37350568175315856934 0.37307202816009521484 0.36852481961250305176 0.3662242889404296875 0.36559608578681945801 0.36463364958763122559 0.349300384521484375 0.35109189152717590332 0.34164053201675415039 0.33035013079643249512 0.34637182950973510742 0.3578624427318572998 0.35178020596504211426 0.35337042808532714844 0.3494148552417755127 0.36230173707008361816 0.37866964936256408691 0.39882463216781616211 0.36018332839012145996 0.34924960136413574219 0.35052123665809631348 0.3517099916934967041 0.34971982240676879883 0.34416082501411437988 0.34615734219551086426 0.34422382712364196777 0.34806165099143981934 0.36091849207878112793 0.35994318127632141113 0.34930655360221862793 0.34371453523635864258 0.34278312325477600098 0.35187196731567382813 0.38211721181869506836 0.38704094290733337402 0.39678779244422912598 0.39739248156547546387 0.40375348925590515137 0.4191741943359375 0.40738764405250549316 0.39509567618370056152 0.38883286714553833008 0.40707221627235412598 0.40554839372634887695 0.39794456958770751953 0.39817759394645690918 0.39432322978973388672 0.39353403449058532715 0.38590767979621887207 0.3877404630184173584 0.38204801082611083984 0.37676006555557250977 0.38903447985649108887 0.36711958050727844238 0.37405049800872802734 0.38397648930549621582 0.38132321834564208984 0.38039872050285339355 0.36994370818138122559 0.36654466390609741211 0.35967648029327392578 0.35034483671188354492 0.3120492100715637207 0.26565924286842346191 0.19316120445728302002 0.12295054644346237183 0.10728050768375396729 0.14360442757606506348 0.19409346580505371094 0.26521551609039306641 0.29002407193183898926 0.26060828566551208496 0.27708503603935241699 0.28162121772766113281 0.30674657225608825684 0.34218198060989379883 0.35098320245742797852 0.33602836728096008301 0.31662186980247497559 0.31525707244873046875 0.33460700511932373047 0.35906898975372314453 0.36576178669929504395 0.34523928165435791016 0.34801387786865234375 0.35889345407485961914 0.34023576974868774414 0.3394241631031036377 0.33814474940299987793 0.34064793586730957031 0.34180480241775512695 0.35730081796646118164 0.35600745677947998047 0.35883808135986328125 0.36025732755661010742 0.36091011762619018555 0.38018175959587097168 0.38234922289848327637 0.38285914063453674316 0.33202052116394042969 0.30221995711326599121 0.28255671262741088867 0.2670885622501373291 0.21758449077606201172 0.13358835875988006592 0.1336116492748260498 0.12654247879981994629 0.23411601781845092773 0.30650660395622253418 0.30701035261154174805 0.32084077596664428711 0.32421731948852539063 0.33195987343788146973 0.36135432124137878418 0.39222601056098937988 0.39937576651573181152 0.40534582734107971191 0.41178774833679199219 0.41189590096473693848 0.3986810147762298584 0.39315900206565856934 0.40213558077812194824 0.3588536381721496582 0.30544975399971008301 0.29184386134147644043 0.30627092719078063965 0.31548938155174255371 0.33123642206192016602 0.36419135332107543945 0.3693129122257232666 0.35737019777297973633 0.34533357620239257813 0.29088011384010314941 0.31007272005081176758 0.33932256698608398438 0.35420140624046325684 0.35064497590065002441 0.36644896864891052246 0.37559986114501953125 0.37848109006881713867 0.3472931981086730957 0.31953468918800354004 0.3259277045726776123 0.32773518562316894531 0.33719640970230102539 0.33914849162101745605 0.34767761826515197754 
nan 0.30781924724578857422 0.34415864944458007813 0.33749270439147949219 0.3236967921257019043 0.32964149117469787598 0.34584814310073852539 0.3502781987190246582 0.35081702470779418945 0.35785761475563049316 0.35433825850486755371 0.35468277335166931152 0.35844898223876953125 0.34707918763160705566 0.33637887239456176758 0.31311461329460144043 0.29569721221923828125 0.33523252606391906738 0.37125247716903686523 0.35555177927017211914 0.30558496713638305664 0.32930275797843933105 0.35757949948310852051 0.35739472508430480957 0.35405761003494262695 0.35721489787101745605 0.35826846957206726074 0.36220750212669372559 0.35700246691703796387 0.34997838735580444336 0.32650664448738098145 0.29826104640960693359 0.30850616097450256348 0.33633768558502197266 0.3514893651008605957 0.36128595471382141113 0.35529044270515441895 0.34756126999855041504 0.36587440967559814453 0.36481377482414245605 0.35097745060920715332 0.34984052181243896484 0.34894868731498718262 0.34969019889831542969 0.35454031825065612793 0.35490947961807250977 0.34699448943138122559 0.33429238200187683105 0.3442408144474029541 0.36060276627540588379 0.35944697260856628418 0.34947666525840759277 0.34024319052696228027 0.34307283163070678711 0.35471066832542419434 0.38919869065284729004 0.4002730250358581543 0.39993080496788024902 0.40142232179641723633 0.40040481090545654297 0.41304036974906921387 0.40509271621704101563 0.38562333583831787109 0.38258466124534606934 0.40479436516761779785 0.40617969632148742676 0.38912546634674072266 0.38570246100425720215 0.40153932571411132813 0.39487525820732116699 0.38300675153732299805 0.38128700852394104004 0.39460343122482299805 0.39565855264663696289 0.37978023290634155273 0.35485312342643737793 0.36993235349655151367 0.38143116235733032227 0.37786492705345153809 0.37143576145172119141 0.35918501019477844238 0.34352073073387145996 0.34528061747550964355 0.34138980507850646973 0.34265488386154174805 0.33778166770935058594 0.32275810837745666504 0.30268377065658569336 0.27535551786422729492 0.2518793940544128418 0.19279453158378601074 0.13932591676712036133 0.18612964451313018799 0.21497575938701629639 0.25521272420883178711 0.26883819699287414551 0.29865109920501708984 0.32378819584846496582 0.32948520779609680176 0.33956348896026611328 0.33704221248626708984 0.32540413737297058105 0.30531448125839233398 0.31548446416854858398 0.33866620063781738281 0.35276338458061218262 0.35796180367469787598 0.35566869378089904785 0.3426164090633392334 0.33908787369728088379 0.3396383821964263916 0.34947982430458068848 0.35376375913619995117 0.36141762137413024902 0.36820212006568908691 0.36484187841415405273 0.35341733694076538086 0.36085548996925354004 0.36377534270286560059 0.36765915155410766602 0.36534178256988525391 0.33270046114921569824 0.31664702296257019043 0.30885705351829528809 0.27459180355072021484 0.22086212038993835449 0.15081676840782165527 0.19640982151031494141 0.20909643173217773438 0.15481388568878173828 0.24332199990749359131 0.30562478303909301758 0.31649935245513916016 0.31556949019432067871 0.31251752376556396484 0.32550588250160217285 0.3422940671443939209 0.36631324887275695801 0.40196719765663146973 0.41311821341514587402 0.41262263059616088867 0.39522904157638549805 0.38575372099876403809 0.39702057838439941406 0.38910442590713500977 0.34971925616264343262 0.31283721327781677246 0.30756935477256774902 0.31905421614646911621 0.32832500338554382324 0.33021563291549682617 0.34414446353912353516 0.36515906453132629395 0.36413815617561340332 0.31997334957122802734 0.32480785250663757324 0.32725310325622558594 0.36646476387977600098 0.35804268717765808105 0.34942045807838439941 0.36553105711936950684 0.38067972660064697266 0.3615970909595489502 0.32936003804206848145 0.33446776866912841797 0.33357509970664978027 0.32748937606811523438 0.32867711782455444336 0.32939040660858154297 
nan 0.30222913622856140137 0.33981609344482421875 0.32156795263290405273 0.31519439816474914551 0.32067462801933288574 0.3374004065990447998 0.34112384915351867676 0.34523946046829223633 0.34898337721824645996 0.34851336479187011719 0.3521016538143157959 0.36216592788696289063 0.3564853966236114502 0.34827879071235656738 0.34373617172241210938 0.34664595127105712891 0.34520816802978515625 0.36044985055923461914 0.32716572284698486328 0.32378506660461425781 0.33509290218353271484 0.3499253392219543457 0.34691613912582397461 0.34761187434196472168 0.35170534253120422363 0.34878948330879211426 0.35977274179458618164 0.37010118365287780762 0.36397969722747802734 0.3671893775463104248 0.34942632913589477539 0.34394523501396179199 0.34964579343795776367 0.36295664310455322266 0.36130130290985107422 0.35362410545349121094 0.3517284095287322998 0.3628171384334564209 0.35880631208419799805 0.35291519761085510254 0.35577821731567382813 0.3541717529296875 0.35559168457984924316 0.35719859600067138672 0.3544362485408782959 0.34855237603187561035 0.34069284796714782715 0.35262411832809448242 0.36142653226852416992 0.35706886649131774902 0.34909105300903320313 0.32838204503059387207 0.33136311173439025879 0.35994690656661987305 0.38790646195411682129 0.39919769763946533203 0.38499879837036132813 0.38551005721092224121 0.39680647850036621094 0.40792980790138244629 0.38058975338935852051 0.35811609029769897461 0.36933597922325134277 0.40274840593338012695 0.39471471309661865234 0.39590036869049072266 0.38913044333457946777 0.38665235042572021484 0.3938871920108795166 0.39537218213081359863 0.37086567282676696777 0.37816229462623596191 0.39385834336280822754 0.37928226590156555176 0.34753820300102233887 0.35247099399566650391 0.36199304461479187012 0.37258434295654296875 0.37016639113426208496 0.3598340153694152832 0.34356266260147094727 0.32341313362121582031 0.31815671920776367188 0.3371143639087677002 0.34737294912338256836 0.34316527843475341797 0.34669739007949829102 0.33259305357933044434 0.30457159876823425293 0.27665492892265319824 0.1530596613883972168 0.14105245471000671387 0.22037820518016815186 0.23902077972888946533 0.2633215785026550293 0.29094481468200683594 0.32416376471519470215 0.32805296778678894043 0.32467734813690185547 0.29173931479454040527 0.28898742794990539551 0.28466185927391052246 0.29345279932022094727 0.3187516331672668457 0.31344297528266906738 0.33154603838920593262 0.34189087152481079102 0.34435522556304931641 0.34952175617218017578 0.35261321067810058594 0.35081183910369873047 0.36468738317489624023 0.38405683636665344238 0.38854253292083740234 0.37127003073692321777 0.35548248887062072754 0.35545852780342102051 0.34765464067459106445 0.34862703084945678711 0.36137932538986206055 0.35169142484664916992 0.32934483885765075684 0.32141759991645812988 0.30054378509521484375 0.22009980678558349609 0.13667967915534973145 0.16902312636375427246 0.17415319383144378662 0.12149435281753540039 0.23926953971385955811 0.29466369748115539551 0.28579080104827880859 0.29231241345405578613 0.31259527802467346191 0.3305301666259765625 0.3289420008659362793 0.33330571651458740234 0.36354777216911315918 0.39977058768272399902 0.41200742125511169434 0.39468249678611755371 0.37274351716041564941 0.38866132497787475586 0.3821951746940612793 0.3733622431755065918 0.35667183995246887207 0.3375987708568572998 0.33884412050247192383 0.3415202796459197998 0.33182582259178161621 0.32891225814819335938 0.33092620968818664551 0.35506111383438110352 0.38484144210815429688 0.35064792633056640625 0.30259823799133300781 0.34888410568237304688 0.35583356022834777832 0.3627847135066986084 0.37297934293746948242 0.369873046875 0.36044737696647644043 0.33951643109321594238 0.33361801505088806152 0.33721241354942321777 0.33667600154876708984 0.34977489709854125977 0.34988728165626525879 
nan 0.31184929609298706055 0.3485901951789855957 0.32633721828460693359 0.33054631948471069336 0.33324041962623596191 0.33656018972396850586 0.34819173812866210938 0.35768714547157287598 0.35895904898643493652 0.35293421149253845215 0.35707378387451171875 0.36610049009323120117 0.35452437400817871094 0.35265824198722839355 0.35190704464912414551 0.34759849309921264648 0.34629204869270324707 0.34965825080871582031 0.31255766749382019043 0.31944516301155090332 0.33530601859092712402 0.34878930449485778809 0.35017624497413635254 0.35426047444343566895 0.34774965047836303711 0.34836673736572265625 0.35468384623527526855 0.3681328892707824707 0.36941435933113098145 0.37725412845611572266 0.36491823196411132813 0.35134321451187133789 0.35433840751647949219 0.36184030771255493164 0.36082798242568969727 0.34697288274765014648 0.32524988055229187012 0.32984152436256408691 0.34791418910026550293 0.35881379246711730957 0.36728015542030334473 0.35894528031349182129 0.35449275374412536621 0.3623593449592590332 0.3623600304126739502 0.34053719043731689453 0.32531398534774780273 0.35100686550140380859 0.36513066291809082031 0.36453667283058166504 0.35404723882675170898 0.3381068110466003418 0.33980700373649597168 0.3515650331974029541 0.39065393805503845215 0.39562016725540161133 0.38398396968841552734 0.3947079777717590332 0.41152948141098022461 0.40838325023651123047 0.38486471772193908691 0.36039528250694274902 0.35859009623527526855 0.37621268630027770996 0.38147413730621337891 0.38047251105308532715 0.39439004659652709961 0.38872629404067993164 0.39195156097412109375 0.40469247102737426758 0.38146129250526428223 0.37232181429862976074 0.37686511874198913574 0.38803112506866455078 0.36203277111053466797 0.34118187427520751953 0.35145351290702819824 0.37208008766174316406 0.37689101696014404297 0.35938036441802978516 0.34222099184989929199 0.32785907387733459473 0.31678527593612670898 0.32453906536102294922 0.34020730853080749512 0.34319993853569030762 0.3494694828987121582 0.32993137836456298828 0.31026995182037353516 0.29647561907768249512 0.18429481983184814453 0.16674581170082092285 0.23060919344425201416 0.20746718347072601318 0.20956589281558990479 0.23185367882251739502 0.29085636138916015625 0.30505484342575073242 0.31074222922325134277 0.27783289551734924316 0.25984758138656616211 0.26445028185844421387 0.2920627593994140625 0.32513535022735595703 0.32319572567939758301 0.32737240195274353027 0.33894780278205871582 0.3369859158992767334 0.34442570805549621582 0.34229758381843566895 0.33423507213592529297 0.34195634722709655762 0.36565610766410827637 0.37588724493980407715 0.36900818347930908203 0.36744073033332824707 0.37165313959121704102 0.35909095406532287598 0.33841863274574279785 0.35086303949356079102 0.3526032865047454834 0.34314903616905212402 0.32858863472938537598 0.31212821602821350098 0.24588871002197265625 0.16779907047748565674 0.12049107998609542847 0.096207559108734130859 0.15627428889274597168 0.30645444989204406738 0.31842878460884094238 0.29393860697746276855 0.28582409024238586426 0.32672587037086486816 0.35625678300857543945 0.35697329044342041016 0.33910775184631347656 0.36714565753936767578 0.38626691699028015137 0.39833316206932067871 0.3829250335693359375 0.36374074220657348633 0.37606990337371826172 0.38246881961822509766 0.38225767016410827637 0.38028457760810852051 0.3594252467155456543 0.3370761871337890625 0.33838754892349243164 0.32129964232444763184 0.32533437013626098633 0.32756850123405456543 0.34023597836494445801 0.3327446281909942627 0.31736624240875244141 0.30533578991889953613 0.33352586627006530762 0.36310788989067077637 0.39114326238632202148 0.3871937096118927002 0.36777946352958679199 0.3687171638011932373 0.36519721150398254395 0.35175603628158569336 0.35361510515213012695 0.34686377644538879395 0.3470802009105682373 0.34229555726051330566 
nan 0.31463122367858886719 0.35664168000221252441 0.33512032032012939453 0.34020823240280151367 0.34670078754425048828 0.34511390328407287598 0.34841275215148925781 0.35405045747756958008 0.3643341362476348877 0.35172769427299499512 0.34532755613327026367 0.34616261720657348633 0.35436126589775085449 0.35349118709564208984 0.34397622942924499512 0.34356483817100524902 0.34561717510223388672 0.34699067473411560059 0.30991157889366149902 0.3224156796932220459 0.33284276723861694336 0.34999102354049682617 0.35273879766464233398 0.36146682500839233398 0.360317230224609375 0.3537127077579498291 0.36073467135429382324 0.36170619726181030273 0.36949500441551208496 0.36721587181091308594 0.35935345292091369629 0.35185375809669494629 0.34808579087257385254 0.34823730587959289551 0.35044303536415100098 0.33866706490516662598 0.30613020062446594238 0.32730454206466674805 0.35215193033218383789 0.36382222175598144531 0.36288604140281677246 0.34779533743858337402 0.34475076198577880859 0.35592299699783325195 0.34990793466567993164 0.32251146435737609863 0.31216594576835632324 0.35593235492706298828 0.36112681031227111816 0.36588808894157409668 0.37118127942085266113 0.34857085347175598145 0.34312093257904052734 0.34943291544914245605 0.38316446542739868164 0.39642035961151123047 0.38417729735374450684 0.3941548764705657959 0.40381702780723571777 0.40782773494720458984 0.40929460525512695313 0.37957242131233215332 0.36600604653358459473 0.36376464366912841797 0.3671130836009979248 0.37725147604942321777 0.39269146323204040527 0.38217315077781677246 0.37892007827758789063 0.40015485882759094238 0.3833650052547454834 0.3741270899772644043 0.38571640849113464355 0.38731026649475097656 0.37631785869598388672 0.3577403724193572998 0.35350370407104492188 0.36780810356140136719 0.37446680665016174316 0.36540061235427856445 0.35999402403831481934 0.33969318866729736328 0.32703727483749389648 0.32594135403633117676 0.33256092667579650879 0.33811262249946594238 0.34295681118965148926 0.33889651298522949219 0.31105437874794006348 0.30262455344200134277 0.20270918309688568115 0.18416386842727661133 0.22986376285552978516 0.17838537693023681641 0.20572891831398010254 0.25607931613922119141 0.22044537961483001709 0.25524157285690307617 0.30204874277114868164 0.29256579279899597168 0.26274386048316955566 0.27578625082969665527 0.31226974725723266602 0.31400117278099060059 0.31595972180366516113 0.31811130046844482422 0.32711523771286010742 0.33236008882522583008 0.32696732878684997559 0.33473101258277893066 0.33672770857810974121 0.33614683151245117188 0.35657602548599243164 0.36962741613388061523 0.37038403749465942383 0.38679140806198120117 0.3787250220775604248 0.35452917218208312988 0.33248639106750488281 0.34922641515731811523 0.34880098700523376465 0.3557453155517578125 0.33540052175521850586 0.31099250912666320801 0.25274416804313659668 0.19520519673824310303 0.10616917163133621216 0.085898526012897491455 0.22121003270149230957 0.31594449281692504883 0.31089681386947631836 0.30067172646522521973 0.30853623151779174805 0.33383235335350036621 0.33914023637771606445 0.36572217941284179688 0.37798258662223815918 0.38543409109115600586 0.39454409480094909668 0.39673125743865966797 0.39309051632881164551 0.37767836451530456543 0.38827970623970031738 0.38450637459754943848 0.38436895608901977539 0.37828934192657470703 0.38481721282005310059 0.37997603416442871094 0.34330219030380249023 0.3228791356086730957 0.33277919888496398926 0.32448166608810424805 0.32248744368553161621 0.28438073396682739258 0.28036397695541381836 0.3136774599552154541 0.32854422926902770996 0.34701806306838989258 0.37341985106468200684 0.36628201603889465332 0.35287651419639587402 0.3698654472827911377 0.37697955965995788574 0.35184472799301147461 0.35328620672225952148 0.35234421491622924805 0.35511392354965209961 0.34742558002471923828 
nan 0.29743787646293640137 0.34233403205871582031 0.33447936177253723145 0.32130521535873413086 0.34711971879005432129 0.35387238860130310059 0.36042818427085876465 0.36302798986434936523 0.36674454808235168457 0.35911038517951965332 0.35646286606788635254 0.34181761741638183594 0.35755228996276855469 0.35569903254508972168 0.3511492311954498291 0.34714728593826293945 0.3450024724006652832 0.35134461522102355957 0.3258724510669708252 0.32575792074203491211 0.33248007297515869141 0.3503132164478302002 0.35304746031761169434 0.35485440492630004883 0.35852438211441040039 0.35611647367477416992 0.36498019099235534668 0.36966687440872192383 0.36144980788230895996 0.36019995808601379395 0.36059299111366271973 0.36017078161239624023 0.3460330665111541748 0.34769487380981445313 0.34886097908020019531 0.33788561820983886719 0.32413893938064575195 0.3376223444938659668 0.34995344281196594238 0.36507761478424072266 0.36278739571571350098 0.35536402463912963867 0.3584620058536529541 0.35926023125648498535 0.33858728408813476563 0.29851117730140686035 0.29160988330841064453 0.34729984402656555176 0.35455819964408874512 0.36380815505981445313 0.37207132577896118164 0.35448786616325378418 0.35398346185684204102 0.36049216985702514648 0.36569982767105102539 0.39857301115989685059 0.39605310559272766113 0.390380859375 0.3925755918025970459 0.41187587380409240723 0.41369321942329406738 0.36995160579681396484 0.36358472704887390137 0.36368650197982788086 0.35962268710136413574 0.36908805370330810547 0.37921038269996643066 0.36859375238418579102 0.36939424276351928711 0.39686533808708190918 0.3894488215446472168 0.37865626811981201172 0.38393926620483398438 0.38110840320587158203 0.38704290986061096191 0.38383322954177856445 0.37521952390670776367 0.37211441993713378906 0.37296244502067565918 0.36898854374885559082 0.37516915798187255859 0.38099920749664306641 0.35559195280075073242 0.34324333071708679199 0.3388423919677734375 0.34475436806678771973 0.35082477331161499023 0.3337841033935546875 0.30501857399940490723 0.29019916057586669922 0.21866321563720703125 0.16493590176105499268 0.19534927606582641602 0.19356200098991394043 0.25612947344779968262 0.31278428435325622559 0.2305110245943069458 0.21029751002788543701 0.26863679289817810059 0.29739150404930114746 0.2702484428882598877 0.27896216511726379395 0.29563096165657043457 0.28434294462203979492 0.32462912797927856445 0.33868274092674255371 0.3300787508487701416 0.31790959835052490234 0.31860780715942382813 0.3340765833854675293 0.33452078700065612793 0.33988049626350402832 0.36642953753471374512 0.37568694353103637695 0.36551102995872497559 0.37527704238891601563 0.36463513970375061035 0.34412690997123718262 0.32795175909996032715 0.35073682665824890137 0.34710985422134399414 0.34191483259201049805 0.32582074403762817383 0.29933634400367736816 0.24699987471103668213 0.16183991730213165283 0.088031150400638580322 0.11850538104772567749 0.24493113160133361816 0.3240623176097869873 0.31936416029930114746 0.31056767702102661133 0.33175238966941833496 0.35598698258399963379 0.35934713482856750488 0.37408924102783203125 0.37646192312240600586 0.3892682492733001709 0.38948795199394226074 0.39241120219230651855 0.3993027806282043457 0.38606351613998413086 0.39014261960983276367 0.39036324620246887207 0.38532415032386779785 0.3741168975830078125 0.38193655014038085938 0.40446940064430236816 0.35764053463935852051 0.31920695304870605469 0.32293006777763366699 0.3100014030933380127 0.31225508451461791992 0.31827020645141601563 0.30212062597274780273 0.32519856095314025879 0.33249184489250183105 0.35085827112197875977 0.3839518427848815918 0.37548682093620300293 0.36291879415512084961 0.3693999946117401123 0.36112627387046813965 0.3324095606803894043 0.34108313918113708496 0.37386029958724975586 0.3463586270809173584 0.32792335748672485352 
nan 0.28824988007545471191 0.33208391070365905762 0.32818233966827392578 0.30635276436805725098 0.3413155674934387207 0.35589605569839477539 0.36400762200355529785 0.35974082350730895996 0.35728368163108825684 0.36370861530303955078 0.35828864574432373047 0.35020506381988525391 0.36754104495048522949 0.36700662970542907715 0.35288476943969726563 0.35923478007316589355 0.35439661145210266113 0.36458939313888549805 0.34844961762428283691 0.33113366365432739258 0.33907783031463623047 0.35194611549377441406 0.35009074211120605469 0.35510963201522827148 0.35098749399185180664 0.34334048628807067871 0.34717166423797607422 0.35889685153961181641 0.36238661408424377441 0.36048051714897155762 0.35720291733741760254 0.36754962801933288574 0.3628622889518737793 0.3661581575870513916 0.35524955391883850098 0.34995007514953613281 0.34231355786323547363 0.35007378458976745605 0.35727554559707641602 0.35496559739112854004 0.34375339746475219727 0.35377275943756103516 0.35785815119743347168 0.35856240987777709961 0.34764829277992248535 0.29743108153343200684 0.29125052690505981445 0.35253441333770751953 0.35738512873649597168 0.36042505502700805664 0.36648276448249816895 0.35567945241928100586 0.35872870683670043945 0.36866232752799987793 0.3580646216869354248 0.39980387687683105469 0.40831851959228515625 0.39893981814384460449 0.40280809998512268066 0.41524964570999145508 0.40535905957221984863 0.37031435966491699219 0.3570862114429473877 0.35413175821304321289 0.34822171926498413086 0.35605886578559875488 0.37003624439239501953 0.37056717276573181152 0.36197677254676818848 0.37943860888481140137 0.38723403215408325195 0.37910988926887512207 0.37679749727249145508 0.37852495908737182617 0.38210514187812805176 0.39372724294662475586 0.38528162240982055664 0.38146689534187316895 0.38260832428932189941 0.38215887546539306641 0.38239133358001708984 0.40536162257194519043 0.38609609007835388184 0.3616574704647064209 0.3562799990177154541 0.36457514762878417969 0.35967928171157836914 0.34269422292709350586 0.31137138605117797852 0.28648579120635986328 0.23399570584297180176 0.15339617431163787842 0.19476555287837982178 0.25204649567604064941 0.33279156684875488281 0.33770227432250976563 0.28676864504814147949 0.23168827593326568604 0.22280928492546081543 0.28875845670700073242 0.2891915738582611084 0.28835511207580566406 0.27556905150413513184 0.25758853554725646973 0.31574282050132751465 0.34542760252952575684 0.32769936323165893555 0.30941438674926757813 0.3280608057975769043 0.32824060320854187012 0.31476998329162597656 0.33260911703109741211 0.36291933059692382813 0.36651715636253356934 0.36315134167671203613 0.36336043477058410645 0.35715484619140625 0.32239103317260742188 0.32012280821800231934 0.34827190637588500977 0.3464164435863494873 0.34123018383979797363 0.33407297730445861816 0.31756982207298278809 0.24203781783580780029 0.10180009156465530396 0.08407732844352722168 0.18043839931488037109 0.26670598983764648438 0.32158637046813964844 0.3375529944896697998 0.3070277869701385498 0.32014816999435424805 0.37166208028793334961 0.37091961503028869629 0.34009721875190734863 0.34462347626686096191 0.36163944005966186523 0.37495541572570800781 0.38658130168914794922 0.39710590243339538574 0.39332067966461181641 0.37978336215019226074 0.37963157892227172852 0.37941619753837585449 0.37231525778770446777 0.37763845920562744141 0.4155788421630859375 0.37235465645790100098 0.31782865524291992188 0.30645218491554260254 0.28347867727279663086 0.30716854333877563477 0.3308531343936920166 0.32186987996101379395 0.33759701251983642578 0.34440451860427856445 0.35087278485298156738 0.37763383984565734863 0.38478204607963562012 0.3743089139461517334 0.36513653397560119629 0.35001352429389953613 0.33132305741310119629 0.35133421421051025391 0.3674628138542175293 0.3148619532585144043 0.2836621403694152832 
nan 0.29214623570442199707 0.33052936196327209473 0.32602250576019287109 0.32339388132095336914 0.33530938625335693359 0.35283592343330383301 0.35570374131202697754 0.34475600719451904297 0.3469187617301940918 0.36319786310195922852 0.37138211727142333984 0.36998337507247924805 0.36996674537658691406 0.37597158551216125488 0.37498363852500915527 0.37620052695274353027 0.35670673847198486328 0.36103349924087524414 0.33143961429595947266 0.3461825251579284668 0.34715351462364196777 0.34195825457572937012 0.34537193179130554199 0.3485616147518157959 0.34479191899299621582 0.34508740901947021484 0.34424692392349243164 0.34756872057914733887 0.36398857831954956055 0.36673450469970703125 0.36254599690437316895 0.36737263202667236328 0.36245885491371154785 0.36668419837951660156 0.35812959074974060059 0.34991955757141113281 0.34795707464218139648 0.34964811801910400391 0.3411165773868560791 0.33897268772125244141 0.35096630454063415527 0.35571300983428955078 0.36002910137176513672 0.36215823888778686523 0.35250878334045410156 0.33612158894538879395 0.34101670980453491211 0.36298790574073791504 0.36288043856620788574 0.35518974065780639648 0.35714617371559143066 0.35181671380996704102 0.35711264610290527344 0.37429344654083251953 0.37301871180534362793 0.39534643292427062988 0.39962497353553771973 0.39384835958480834961 0.40045851469039916992 0.40879765152931213379 0.398212432861328125 0.3639087975025177002 0.34396597743034362793 0.35891619324684143066 0.35283872485160827637 0.36128073930740356445 0.36912494897842407227 0.37521117925643920898 0.37204056978225708008 0.37365484237670898438 0.38544768095016479492 0.3809229433536529541 0.36507377028465270996 0.37223333120346069336 0.38079202175140380859 0.38448387384414672852 0.37815961241722106934 0.37667366862297058105 0.37574315071105957031 0.37089335918426513672 0.37301754951477050781 0.40869149565696716309 0.41184452176094055176 0.39424180984497070313 0.37617716193199157715 0.37244117259979248047 0.37506327033042907715 0.3593991398811340332 0.33895510435104370117 0.32167729735374450684 0.2672627866268157959 0.1894397437572479248 0.25110161304473876953 0.27930635213851928711 0.32093825936317443848 0.3107617497444152832 0.26126506924629211426 0.24371768534183502197 0.19318474829196929932 0.26831036806106567383 0.29345145821571350098 0.29307687282562255859 0.30221933126449584961 0.28923547267913818359 0.31678014993667602539 0.33849543333053588867 0.33823880553245544434 0.33389323949813842773 0.34249326586723327637 0.34129172563552856445 0.33338385820388793945 0.34363418817520141602 0.34174561500549316406 0.34205329418182373047 0.34611657261848449707 0.3514830172061920166 0.34618577361106872559 0.3322843015193939209 0.34490540623664855957 0.35029062628746032715 0.33756354451179504395 0.33323490619659423828 0.3396714627742767334 0.32656049728393554688 0.26798859238624572754 0.1093718409538269043 0.089215405285358428955 0.14635139703750610352 0.24261078238487243652 0.28557640314102172852 0.29626426100730895996 0.2913652956485748291 0.31218791007995605469 0.34219521284103393555 0.3607044219970703125 0.36655771732330322266 0.36639937758445739746 0.35049983859062194824 0.35731625556945800781 0.36227887868881225586 0.34683117270469665527 0.35833394527435302734 0.36062565445899963379 0.36488845944404602051 0.36903819441795349121 0.37876412272453308105 0.38036733865737915039 0.4030253291130065918 0.42315712571144104004 0.35199388861656188965 0.31906139850616455078 0.31859722733497619629 0.30293673276901245117 0.28768172860145568848 0.31137391924858093262 0.32319304347038269043 0.33005276322364807129 0.33931681513786315918 0.34760293364524841309 0.34595081210136413574 0.34147587418556213379 0.33847317099571228027 0.31572329998016357422 0.31908190250396728516 0.32452920079231262207 0.3235645592212677002 0.30754411220550537109 0.30720651149749755859 
nan 0.28252440690994262695 0.3191222846508026123 0.32134130597114562988 0.33818542957305908203 0.34483024477958679199 0.36693245172500610352 0.3534787595272064209 0.34456163644790649414 0.34140354394912719727 0.35599049925804138184 0.36868327856063842773 0.3701731562614440918 0.36534348130226135254 0.36682027578353881836 0.36915367841720581055 0.3596083521842956543 0.34114804863929748535 0.35832524299621582031 0.33853098750114440918 0.35254216194152832031 0.36099660396575927734 0.36542248725891113281 0.36001828312873840332 0.35288655757904052734 0.34916833043098449707 0.35819223523139953613 0.35101470351219177246 0.35775581002235412598 0.36873927712440490723 0.369480133056640625 0.36999303102493286133 0.37188863754272460938 0.36291471123695373535 0.35884290933609008789 0.35743972659111022949 0.34620824456214904785 0.34847939014434814453 0.34958550333976745605 0.33951017260551452637 0.35016560554504394531 0.35880440473556518555 0.36184516549110412598 0.36033326387405395508 0.3517055511474609375 0.35246121883392333984 0.35261228680610656738 0.35374858975410461426 0.36725229024887084961 0.37454044818878173828 0.38827246427536010742 0.3892078697681427002 0.35407724976539611816 0.34479290246963500977 0.36605274677276611328 0.3699703216552734375 0.38232830166816711426 0.38505324721336364746 0.37325915694236755371 0.39183893799781799316 0.38640835881233215332 0.38766196370124816895 0.38078853487968444824 0.36065179109573364258 0.36284357309341430664 0.37197709083557128906 0.37801474332809448242 0.36523473262786865234 0.3718713223934173584 0.37098062038421630859 0.37815403938293457031 0.39727100729942321777 0.39164057374000549316 0.36727985739707946777 0.35527235269546508789 0.35985487699508666992 0.36530068516731262207 0.36149740219116210938 0.36063110828399658203 0.36032888293266296387 0.36567023396492004395 0.36005163192749023438 0.37852242588996887207 0.38801628351211547852 0.40232390165328979492 0.39557832479476928711 0.3841215670108795166 0.38471624255180358887 0.36755385994911193848 0.34728384017944335938 0.33311134576797485352 0.2770519554615020752 0.18017382919788360596 0.20575496554374694824 0.22779671847820281982 0.19828826189041137695 0.197170257568359375 0.2379334867000579834 0.24712538719177246094 0.20663248002529144287 0.26499760150909423828 0.26410412788391113281 0.27269786596298217773 0.28978824615478515625 0.29329547286033630371 0.33212304115295410156 0.35468128323554992676 0.34711435437202453613 0.33943039178848266602 0.35857611894607543945 0.36410763859748840332 0.34133839607238769531 0.33946442604064941406 0.33105105161666870117 0.33400970697402954102 0.33690506219863891602 0.3349399864673614502 0.32935857772827148438 0.34390154480934143066 0.3433055579662322998 0.35745841264724731445 0.34767565131187438965 0.34439623355865478516 0.34037691354751586914 0.30884477496147155762 0.24309113621711730957 0.12631678581237792969 0.096026428043842315674 0.12141286581754684448 0.21111452579498291016 0.27491152286529541016 0.28695470094680786133 0.28791737556457519531 0.31534501910209655762 0.34990549087524414063 0.36401134729385375977 0.38358667492866516113 0.38161414861679077148 0.33811366558074951172 0.346981048583984375 0.36318761110305786133 0.32933989167213439941 0.33704942464828491211 0.36769989132881164551 0.36989450454711914063 0.36518636345863342285 0.37647113204002380371 0.37701642513275146484 0.38035479187965393066 0.42560720443725585938 0.36623787879943847656 0.31911763548851013184 0.33119720220565795898 0.32408896088600158691 0.28493353724479675293 0.29026016592979431152 0.30818593502044677734 0.33553093671798706055 0.34781143069267272949 0.33761376142501831055 0.32536447048187255859 0.31797730922698974609 0.32723319530487060547 0.32539102435111999512 0.32882907986640930176 0.33029752969741821289 0.32496574521064758301 0.30277577042579650879 0.30628949403762817383 
nan 0.28442710638046264648 0.30775237083435058594 0.30055212974548339844 0.34070909023284912109 0.36323478817939758301 0.36614304780960083008 0.36541372537612915039 0.36212751269340515137 0.36172506213188171387 0.36000466346740722656 0.35308662056922912598 0.35261002182960510254 0.36261856555938720703 0.36796659231185913086 0.37671166658401489258 0.36064961552619934082 0.3503818213939666748 0.35700407624244689941 0.32796418666839599609 0.33503732085227966309 0.35560128092765808105 0.36282706260681152344 0.36485117673873901367 0.36872041225433349609 0.3559347987174987793 0.34985387325286865234 0.35088843107223510742 0.35801467299461364746 0.3614978790283203125 0.36781007051467895508 0.37061041593551635742 0.37690699100494384766 0.3709577023983001709 0.36452454328536987305 0.3577652275562286377 0.35600528120994567871 0.34752359986305236816 0.33433970808982849121 0.32916876673698425293 0.33072480559349060059 0.34070631861686706543 0.36117663979530334473 0.35374176502227783203 0.35028600692749023438 0.35687741637229919434 0.35610383749008178711 0.34698146581649780273 0.36080768704414367676 0.38721674680709838867 0.40521737933158874512 0.39168560504913330078 0.36369562149047851563 0.36181974411010742188 0.36724457144737243652 0.37392914295196533203 0.37194073200225830078 0.36716106534004211426 0.38364583253860473633 0.39209845662117004395 0.36408519744873046875 0.36238753795623779297 0.37668782472610473633 0.3764801025390625 0.38237115740776062012 0.36963260173797607422 0.36023434996604919434 0.35364499688148498535 0.35625633597373962402 0.35994806885719299316 0.38354966044425964355 0.39358875155448913574 0.39620056748390197754 0.38264060020446777344 0.35937568545341491699 0.35395616292953491211 0.3603623807430267334 0.35821843147277832031 0.355449676513671875 0.35351097583770751953 0.37235629558563232422 0.38125064969062805176 0.37203511595726013184 0.37633568048477172852 0.3926219642162322998 0.38817489147186279297 0.38574543595314025879 0.38700544834136962891 0.36965313553810119629 0.34562072157859802246 0.33884766697883605957 0.30249172449111938477 0.19151167571544647217 0.18047359585762023926 0.18235887587070465088 0.13395765423774719238 0.13740991055965423584 0.20365443825721740723 0.24246080219745635986 0.20155456662178039551 0.24014899134635925293 0.25409531593322753906 0.26485362648963928223 0.28104892373085021973 0.29690012335777282715 0.34254130721092224121 0.35749748349189758301 0.35237902402877807617 0.33407360315322875977 0.34819582104682922363 0.35110229253768920898 0.34341856837272644043 0.33380585908889770508 0.3347454071044921875 0.34645363688468933105 0.34467741847038269043 0.33822616934776306152 0.3235410153865814209 0.34168827533721923828 0.35097554326057434082 0.36376720666885375977 0.36104336380958557129 0.35379678010940551758 0.33709764480590820313 0.31186652183532714844 0.27014571428298950195 0.19642867147922515869 0.1095107346773147583 0.11530344188213348389 0.20436157286167144775 0.26438221335411071777 0.27235025167465209961 0.28769207000732421875 0.31727892160415649414 0.34860128164291381836 0.35610669851303100586 0.37401121854782104492 0.37884852290153503418 0.35700181126594543457 0.36294579505920410156 0.35412484407424926758 0.32690131664276123047 0.32830655574798583984 0.3504785001277923584 0.36787953972816467285 0.36073487997055053711 0.37903195619583129883 0.38580209016799926758 0.38757398724555969238 0.42292866110801696777 0.35713762044906616211 0.31706571578979492188 0.33484068512916564941 0.33203643560409545898 0.29165750741958618164 0.24090649187564849854 0.25265133380889892578 0.33184403181076049805 0.35354781150817871094 0.34343117475509643555 0.33186161518096923828 0.31081065535545349121 0.3194160759449005127 0.34214198589324951172 0.34363603591918945313 0.33758613467216491699 0.32550600171089172363 0.31268766522407531738 0.30961906909942626953 
nan 0.28336942195892333984 0.32302677631378173828 0.32548499107360839844 0.34202748537063598633 0.35424095392227172852 0.36180260777473449707 0.36586645245552062988 0.37001028656959533691 0.36586990952491760254 0.36040395498275756836 0.35245546698570251465 0.3536516726016998291 0.36709237098693847656 0.36679735779762268066 0.36201387643814086914 0.35603693127632141113 0.34830588102340698242 0.35304409265518188477 0.32867950201034545898 0.32116079330444335938 0.33263027667999267578 0.35810184478759765625 0.37405297160148620605 0.37446451187133789063 0.36335012316703796387 0.35992008447647094727 0.35400015115737915039 0.3566563725471496582 0.36681228876113891602 0.37093785405158996582 0.36960849165916442871 0.37140622735023498535 0.36372339725494384766 0.35616743564605712891 0.35182404518127441406 0.36866262555122375488 0.36912500858306884766 0.35731554031372070313 0.33489951491355895996 0.31988757848739624023 0.32695025205612182617 0.3586457669734954834 0.36845448613166809082 0.37700963020324707031 0.3756186366081237793 0.3703136742115020752 0.34665060043334960938 0.35066902637481689453 0.38805997371673583984 0.4043852388858795166 0.39055576920509338379 0.36448052525520324707 0.3687311708927154541 0.36090746521949768066 0.36647048592567443848 0.36766755580902099609 0.3518447577953338623 0.36021688580513000488 0.38731533288955688477 0.35637179017066955566 0.34904485940933227539 0.37095379829406738281 0.38102602958679199219 0.38763815164566040039 0.369533538818359375 0.35413214564323425293 0.35727334022521972656 0.36156234145164489746 0.36101061105728149414 0.38691568374633789063 0.39449909329414367676 0.38308835029602050781 0.37335607409477233887 0.36807098984718322754 0.3612874448299407959 0.36537000536918640137 0.36378362774848937988 0.36239463090896606445 0.36543771624565124512 0.37090858817100524902 0.38841718435287475586 0.38271754980087280273 0.38837271928787231445 0.38633131980895996094 0.38381999731063842773 0.38428166508674621582 0.40473276376724243164 0.38959518074989318848 0.347095489501953125 0.33004230260848999023 0.28606402873992919922 0.21991319954395294189 0.1549387127161026001 0.16780084371566772461 0.21692511439323425293 0.19903998076915740967 0.16740845143795013428 0.19881005585193634033 0.17327186465263366699 0.23473608493804931641 0.26582759618759155273 0.26729381084442138672 0.28131586313247680664 0.28561946749687194824 0.31851169466972351074 0.33733212947845458984 0.34435927867889404297 0.33381149172782897949 0.33698436617851257324 0.33920148015022277832 0.35626935958862304688 0.34107252955436706543 0.33465045690536499023 0.3294912874698638916 0.3283882439136505127 0.32871294021606445313 0.30631294846534729004 0.31134212017059326172 0.33945268392562866211 0.35704404115676879883 0.36323699355125427246 0.36037647724151611328 0.34113401174545288086 0.33373057842254638672 0.31908676028251647949 0.26358261704444885254 0.14983986318111419678 0.08816979825496673584 0.17856194078922271729 0.25594979524612426758 0.2562535405158996582 0.27431219816207885742 0.29443791508674621582 0.33755400776863098145 0.37551620602607727051 0.36547735333442687988 0.35854142904281616211 0.3741849064826965332 0.36230903863906860352 0.32494953274726867676 0.32195267081260681152 0.33760753273963928223 0.34222364425659179688 0.35585239529609680176 0.35631653666496276855 0.3821106255054473877 0.38917574286460876465 0.4008197486400604248 0.38832375407218933105 0.33598795533180236816 0.32905474305152893066 0.3377850651741027832 0.32967263460159301758 0.31476545333862304688 0.26919624209403991699 0.22658707201480865479 0.2873121798038482666 0.34174817800521850586 0.33901461958885192871 0.33177220821380615234 0.32315266132354736328 0.31829172372817993164 0.3324890434741973877 0.32743218541145324707 0.3313712775707244873 0.32942765951156616211 0.31733348965644836426 0.30333057045936584473 
nan 0.31058397889137268066 0.35094597935676574707 0.35353237390518188477 0.36431032419204711914 0.35857132077217102051 0.35620534420013427734 0.35626274347305297852 0.35312911868095397949 0.33852112293243408203 0.33788588643074035645 0.35486561059951782227 0.35255733132362365723 0.35811027884483337402 0.35057875514030456543 0.34979075193405151367 0.35652634501457214355 0.35749858617782592773 0.35779339075088500977 0.33038592338562011719 0.3201669156551361084 0.32411238551139831543 0.34686607122421264648 0.36606392264366149902 0.36589226126670837402 0.36335971951484680176 0.35522481799125671387 0.35076922178268432617 0.35830396413803100586 0.36890894174575805664 0.36989757418632507324 0.35954552888870239258 0.3602243959903717041 0.3620891869068145752 0.36097937822341918945 0.35920107364654541016 0.37183609604835510254 0.37252521514892578125 0.37598860263824462891 0.3444633185863494873 0.31979653239250183105 0.32710346579551696777 0.35912564396858215332 0.37168711423873901367 0.387050628662109375 0.38516059517860412598 0.3815028071403503418 0.37583515048027038574 0.38416141271591186523 0.40179955959320068359 0.4043330848217010498 0.38068497180938720703 0.3557453453540802002 0.35984715819358825684 0.35499086976051330566 0.3619537055492401123 0.36987709999084472656 0.35760009288787841797 0.35617393255233764648 0.36317211389541625977 0.35504543781280517578 0.3462747037410736084 0.35912874341011047363 0.37119787931442260742 0.37090075016021728516 0.36032500863075256348 0.35676473379135131836 0.36079984903335571289 0.36923006176948547363 0.3777936100959777832 0.39248889684677124023 0.4033114314079284668 0.38594216108322143555 0.38168135285377502441 0.37211382389068603516 0.36966454982757568359 0.36781641840934753418 0.36567452549934387207 0.3644962310791015625 0.36351811885833740234 0.3683764040470123291 0.38261112570762634277 0.38808169960975646973 0.38763284683227539063 0.3823534548282623291 0.37989094853401184082 0.37962102890014648438 0.40675625205039978027 0.40781402587890625 0.3723334968090057373 0.34489730000495910645 0.30581796169281005859 0.27996018528938293457 0.22709247469902038574 0.22750066220760345459 0.27015659213066101074 0.26822185516357421875 0.20659199357032775879 0.17589958012104034424 0.12623386085033416748 0.15690934658050537109 0.24122183024883270264 0.27400708198547363281 0.31852501630783081055 0.30578148365020751953 0.26858484745025634766 0.2890008091926574707 0.29806846380233764648 0.28577941656112670898 0.30212435126304626465 0.31962251663208007813 0.31929749250411987305 0.32079210877418518066 0.32563686370849609375 0.32446816563606262207 0.32810834050178527832 0.33108827471733093262 0.32031869888305664063 0.32416829466819763184 0.34184342622756958008 0.36591222882270812988 0.3657570183277130127 0.34515962004661560059 0.34652954339981079102 0.3539320528507232666 0.33860349655151367188 0.32234618067741394043 0.26666462421417236328 0.12753543257713317871 0.13423919677734375 0.23170797526836395264 0.26223096251487731934 0.29255890846252441406 0.3232784271240234375 0.31773209571838378906 0.34385639429092407227 0.34547609090805053711 0.3471571505069732666 0.34703263640403747559 0.32647758722305297852 0.2962303459644317627 0.30241855978965759277 0.32348459959030151367 0.34271550178527832031 0.36120656132698059082 0.35616561770439147949 0.36125510931015014648 0.36905148625373840332 0.39641922712326049805 0.3852653205394744873 0.33381801843643188477 0.33210405707359313965 0.34317785501480102539 0.33288443088531494141 0.28279504179954528809 0.24350497126579284668 0.21522116661071777344 0.26459583640098571777 0.3323841392993927002 0.33483159542083740234 0.33444821834564208984 0.33108755946159362793 0.32582843303680419922 0.3179098963737487793 0.31732168793678283691 0.33153432607650756836 0.32154533267021179199 0.32110550999641418457 0.34027019143104553223 
nan 0.31712713837623596191 0.35515102744102478027 0.36198720335960388184 0.3667405247688293457 0.3563868105411529541 0.34304660558700561523 0.34339475631713867188 0.33911997079849243164 0.31816250085830688477 0.32568219304084777832 0.34092956781387329102 0.34182834625244140625 0.35399174690246582031 0.35283994674682617188 0.34538108110427856445 0.34947109222412109375 0.35319769382476806641 0.37071487307548522949 0.3365662693977355957 0.3253027498722076416 0.33030834794044494629 0.34218648076057434082 0.34201335906982421875 0.34935563802719116211 0.36310350894927978516 0.34801971912384033203 0.35631853342056274414 0.37166473269462585449 0.35671481490135192871 0.35575345158576965332 0.3591969907283782959 0.36147165298461914063 0.36293578147888183594 0.35691875219345092773 0.36438637971878051758 0.37150755524635314941 0.36605376005172729492 0.36127212643623352051 0.34840404987335205078 0.32415303587913513184 0.33374622464179992676 0.35555440187454223633 0.36487931013107299805 0.38445830345153808594 0.37575572729110717773 0.37340712547302246094 0.38847458362579345703 0.38790822029113769531 0.39807087182998657227 0.40079391002655029297 0.38688945770263671875 0.37745583057403564453 0.38378161191940307617 0.36441817879676818848 0.35144373774528503418 0.35835850238800048828 0.35411465167999267578 0.35527709126472473145 0.35905879735946655273 0.3591149449348449707 0.35445579886436462402 0.36122795939445495605 0.36962309479713439941 0.37147009372711181641 0.36501973867416381836 0.35837543010711669922 0.37248688936233520508 0.37727692723274230957 0.38595920801162719727 0.39212152361869812012 0.39906641840934753418 0.39363688230514526367 0.37609604001045227051 0.36420872807502746582 0.36678722500801086426 0.36598426103591918945 0.36852210760116577148 0.36833900213241577148 0.36688575148582458496 0.37612363696098327637 0.3869972527027130127 0.38751810789108276367 0.38558813929557800293 0.39543274044990539551 0.39776217937469482422 0.3864224553108215332 0.38535198569297790527 0.37706232070922851563 0.36170417070388793945 0.35957801342010498047 0.3549296259880065918 0.31617337465286254883 0.2722924649715423584 0.26371505856513977051 0.26436978578567504883 0.28939229249954223633 0.28855356574058532715 0.25966885685920715332 0.20835311710834503174 0.12775263190269470215 0.14373330771923065186 0.18891106545925140381 0.2500699460506439209 0.28367540240287780762 0.23614649474620819092 0.24410127103328704834 0.25894054770469665527 0.24312187731266021729 0.24395594000816345215 0.26089897751808166504 0.27030551433563232422 0.29013112187385559082 0.31663665175437927246 0.33834803104400634766 0.35742518305778503418 0.34280428290367126465 0.32755687832832336426 0.33131691813468933105 0.33648931980133056641 0.36786612868309020996 0.3678461909294128418 0.35358369350433349609 0.35179132223129272461 0.34632650017738342285 0.3121554255485534668 0.29617989063262939453 0.30284097790718078613 0.24293301999568939209 0.13027648627758026123 0.18956051766872406006 0.23032797873020172119 0.28130254149436950684 0.32621803879737854004 0.3137169182300567627 0.3272673487663269043 0.32841709256172180176 0.33387306332588195801 0.33942276239395141602 0.33565616607666015625 0.31150430440902709961 0.29597613215446472168 0.30781543254852294922 0.33321025967597961426 0.35288286209106445313 0.34847429394721984863 0.35718879103660583496 0.35469090938568115234 0.3924967348575592041 0.40915313363075256348 0.35526043176651000977 0.34021422266960144043 0.35473331809043884277 0.35437417030334472656 0.28012776374816894531 0.23800103366374969482 0.23047125339508056641 0.27072629332542419434 0.32964569330215454102 0.33491462469100952148 0.3432795107364654541 0.3480587005615234375 0.35062354803085327148 0.34387964010238647461 0.33781865239143371582 0.33302038908004760742 0.32111537456512451172 0.34173950552940368652 0.36959868669509887695 
nan 0.30978664755821228027 0.34908789396286010742 0.3630663752555847168 0.37008237838745117188 0.36470153927803039551 0.34749421477317810059 0.34002912044525146484 0.33765330910682678223 0.33440920710563659668 0.33644375205039978027 0.33758682012557983398 0.33748176693916320801 0.3425674140453338623 0.34476059675216674805 0.35655122995376586914 0.35536083579063415527 0.35331207513809204102 0.36584004759788513184 0.33782085776329040527 0.32831349968910217285 0.33280655741691589355 0.33864876627922058105 0.32069680094718933105 0.32513126730918884277 0.33883979916572570801 0.32554143667221069336 0.35540184378623962402 0.36679622530937194824 0.35525101423263549805 0.35813426971435546875 0.35821002721786499023 0.35886883735656738281 0.35460692644119262695 0.36488100886344909668 0.37163972854614257813 0.37011441588401794434 0.35943740606307983398 0.35272178053855895996 0.34761893749237060547 0.32821619510650634766 0.32850098609924316406 0.35828548669815063477 0.37665665149688720703 0.3793983757495880127 0.37809416651725769043 0.39063531160354614258 0.39323624968528747559 0.37964728474617004395 0.38956031203269958496 0.38752770423889160156 0.38514941930770874023 0.37607297301292419434 0.37560772895812988281 0.35814073681831359863 0.35162067413330078125 0.33157965540885925293 0.34265598654747009277 0.34635624289512634277 0.35415679216384887695 0.3616205751895904541 0.36117848753929138184 0.35815840959548950195 0.36113435029983520508 0.36601278185844421387 0.36407354474067687988 0.36655899882316589355 0.38396665453910827637 0.37620177865028381348 0.36754283308982849121 0.36262452602386474609 0.36871477961540222168 0.38384777307510375977 0.3683694303035736084 0.36222165822982788086 0.37489184737205505371 0.37186226248741149902 0.36754190921783447266 0.36987784504890441895 0.37503394484519958496 0.37585565447807312012 0.36707738041877746582 0.36661940813064575195 0.3856467902660369873 0.39396905899047851563 0.3870894014835357666 0.38538193702697753906 0.38254061341285705566 0.36292874813079833984 0.34934738278388977051 0.35671973228454589844 0.36964133381843566895 0.35447713732719421387 0.3221206367015838623 0.30494028329849243164 0.27133566141128540039 0.27190515398979187012 0.30111390352249145508 0.31412169337272644043 0.31427580118179321289 0.23428152501583099365 0.11054398864507675171 0.09204196929931640625 0.12255886197090148926 0.19539159536361694336 0.22944904863834381104 0.23723144829273223877 0.24284052848815917969 0.22663995623588562012 0.22480477392673492432 0.23178799450397491455 0.24432833492755889893 0.27188694477081298828 0.29843625426292419434 0.31879955530166625977 0.35019472241401672363 0.34316474199295043945 0.33487811684608459473 0.33372467756271362305 0.34342744946479797363 0.35083234310150146484 0.3536091148853302002 0.36758258938789367676 0.34517017006874084473 0.31375467777252197266 0.30068325996398925781 0.29973646998405456543 0.30296948552131652832 0.29816830158233642578 0.15693116188049316406 0.078551590442657470703 0.13374958932399749756 0.22335332632064819336 0.27482959628105163574 0.30680358409881591797 0.32663667201995849609 0.31763258576393127441 0.32618325948715209961 0.35375300049781799316 0.36831375956535339355 0.3510907292366027832 0.32681441307067871094 0.30677938461303710938 0.30568465590476989746 0.323635101318359375 0.33675462007522583008 0.37980583310127258301 0.36663004755973815918 0.37180298566818237305 0.39877334237098693848 0.35834267735481262207 0.33803921937942504883 0.36091020703315734863 0.36782702803611755371 0.33137682080268859863 0.29010558128356933594 0.26514932513236999512 0.29591345787048339844 0.31428587436676025391 0.34376442432403564453 0.34373196959495544434 0.34427845478057861328 0.36312595009803771973 0.3703326880931854248 0.36290183663368225098 0.33521229028701782227 0.31854593753814697266 0.33179926872253417969 0.34720414876937866211 
nan 0.30458548665046691895 0.33958268165588378906 0.35308116674423217773 0.36483648419380187988 0.35978162288665771484 0.33785709738731384277 0.33524152636528015137 0.34798595309257507324 0.3490047752857208252 0.34343424439430236816 0.33959922194480895996 0.34290090203285217285 0.35189399123191833496 0.35728290677070617676 0.35974431037902832031 0.36802271008491516113 0.36862868070602416992 0.36527019739151000977 0.3347415924072265625 0.33572205901145935059 0.3341948390007019043 0.34449502825736999512 0.33677580952644348145 0.33697301149368286133 0.31857708096504211426 0.33390054106712341309 0.35960590839385986328 0.36135950684547424316 0.36623340845108032227 0.36084654927253723145 0.36089143157005310059 0.3610133826732635498 0.35865902900695800781 0.35098278522491455078 0.35915315151214599609 0.35254973173141479492 0.33618536591529846191 0.3469733893871307373 0.35868439078330993652 0.34262958168983459473 0.33055523037910461426 0.33777651190757751465 0.34118866920471191406 0.35342305898666381836 0.37394821643829345703 0.38478329777717590332 0.38617989420890808105 0.38513299822807312012 0.38846880197525024414 0.3898626863956451416 0.38536319136619567871 0.37825763225555419922 0.36929562687873840332 0.36484292149543762207 0.36462220549583435059 0.35666960477828979492 0.35650864243507385254 0.34452846646308898926 0.34979459643363952637 0.35482701659202575684 0.36094337701797485352 0.36064931750297546387 0.35208708047866821289 0.35408386588096618652 0.35022535920143127441 0.35886961221694946289 0.38050946593284606934 0.37093913555145263672 0.36362531781196594238 0.36771190166473388672 0.36169046163558959961 0.3827680051326751709 0.38452425599098205566 0.36852598190307617188 0.37435409426689147949 0.37414968013763427734 0.37199521064758300781 0.3771114647388458252 0.39340803027153015137 0.38686186075210571289 0.37005484104156494141 0.36925956606864929199 0.38157808780670166016 0.39071619510650634766 0.39151668548583984375 0.39376327395439147949 0.3854160606861114502 0.36750617623329162598 0.35568004846572875977 0.35788068175315856934 0.36829155683517456055 0.37446394562721252441 0.35000768303871154785 0.34713816642761230469 0.31350505352020263672 0.27511045336723327637 0.29151448607444763184 0.30447921156883239746 0.30410873889923095703 0.27849018573760986328 0.20755524933338165283 0.17378033697605133057 0.14498825371265411377 0.12693494558334350586 0.18574234843254089355 0.21877008676528930664 0.19801013171672821045 0.19107477366924285889 0.21666534245014190674 0.22256419062614440918 0.22576920688152313232 0.25624078512191772461 0.2893263697624206543 0.30820810794830322266 0.32961100339889526367 0.3342380225658416748 0.33464935421943664551 0.34941777586936950684 0.35178077220916748047 0.35063481330871582031 0.34897342324256896973 0.36757647991180419922 0.3515287935733795166 0.3169307708740234375 0.31673321127891540527 0.31657245755195617676 0.31169340014457702637 0.31081548333168029785 0.19284200668334960938 0.055998750030994415283 0.071021266281604766846 0.16772732138633728027 0.25402548909187316895 0.3450635075569152832 0.36001554131507873535 0.34696796536445617676 0.33544570207595825195 0.33857452869415283203 0.3565718233585357666 0.33488097786903381348 0.31582611799240112305 0.303424835205078125 0.30775496363639831543 0.3155320286750793457 0.33107957243919372559 0.38654550909996032715 0.38564947247505187988 0.36080259084701538086 0.39792907238006591797 0.36968332529067993164 0.35635480284690856934 0.36370524764060974121 0.37781602144241333008 0.35796135663986206055 0.33563029766082763672 0.28688260912895202637 0.29833322763442993164 0.31300759315490722656 0.33249780535697937012 0.32945486903190612793 0.34105631709098815918 0.35503032803535461426 0.37020120024681091309 0.3745651543140411377 0.35068649053573608398 0.33769422769546508789 0.3403243720531463623 0.34385117888450622559 
nan 0.31044635176658630371 0.35038098692893981934 0.34659379720687866211 0.3457546234130859375 0.34444129467010498047 0.33115476369857788086 0.3144842684268951416 0.32537868618965148926 0.34779766201972961426 0.34060376882553100586 0.33437752723693847656 0.33844074606895446777 0.35800975561141967773 0.36399212479591369629 0.35996186733245849609 0.36469608545303344727 0.37483501434326171875 0.35943004488945007324 0.34036019444465637207 0.35202628374099731445 0.34816208481788635254 0.35610884428024291992 0.36238637566566467285 0.35273429751396179199 0.34194076061248779297 0.34552285075187683105 0.35182121396064758301 0.35234469175338745117 0.36839753389358520508 0.35474291443824768066 0.3684171140193939209 0.37132340669631958008 0.35541436076164245605 0.33748379349708557129 0.31639131903648376465 0.31996619701385498047 0.32939651608467102051 0.3465258479118347168 0.36073148250579833984 0.35758310556411743164 0.34088337421417236328 0.32424527406692504883 0.32467544078826904297 0.33838060498237609863 0.3500041663646697998 0.34995287656784057617 0.38175678253173828125 0.38597992062568664551 0.38321068882942199707 0.39073151350021362305 0.38719215989112854004 0.37769463658332824707 0.3718567192554473877 0.36999967694282531738 0.37210434675216674805 0.36800885200500488281 0.36929085850715637207 0.35681608319282531738 0.34403288364410400391 0.3522281944751739502 0.3630320429801940918 0.36055034399032592773 0.36412391066551208496 0.35704123973846435547 0.35638815164566040039 0.3619212806224822998 0.36513626575469970703 0.35316264629364013672 0.34845659136772155762 0.36871001124382019043 0.37598183751106262207 0.39574521780014038086 0.39629566669464111328 0.36819541454315185547 0.36814361810684204102 0.38336491584777832031 0.37732881307601928711 0.37117740511894226074 0.3750960230827331543 0.3776232302188873291 0.3736470639705657959 0.37609693408012390137 0.37431818246841430664 0.38444641232490539551 0.39678230881690979004 0.40805187821388244629 0.39832669496536254883 0.37916937470436096191 0.36261633038520812988 0.3481953740119934082 0.35809385776519775391 0.37139421701431274414 0.36725914478302001953 0.37154245376586914063 0.36651459336280822754 0.33814835548400878906 0.30147761106491088867 0.29315522313117980957 0.29188010096549987793 0.27876126766204833984 0.24862866103649139404 0.23165072500705718994 0.22725005447864532471 0.16735531389713287354 0.11676641553640365601 0.12321000546216964722 0.13199053704738616943 0.14011383056640625 0.18231257796287536621 0.19156971573829650879 0.19039765000343322754 0.21459789574146270752 0.25703826546669006348 0.29479292035102844238 0.31846010684967041016 0.3342609107494354248 0.34119120240211486816 0.36168885231018066406 0.3587614595890045166 0.34950804710388183594 0.3426475226879119873 0.34711039066314697266 0.34425178170204162598 0.3372059166431427002 0.33529078960418701172 0.34130585193634033203 0.351879119873046875 0.34599137306213378906 0.26226210594177246094 0.091571688652038574219 0.066638112068176269531 0.086466848850250244141 0.16668067872524261475 0.35159075260162353516 0.38602235913276672363 0.3472945094108581543 0.33166903257369995117 0.34338709712028503418 0.34874451160430908203 0.34039935469627380371 0.33237129449844360352 0.29230803251266479492 0.29482132196426391602 0.30058464407920837402 0.31626036763191223145 0.3769906461238861084 0.37753629684448242188 0.36499193310737609863 0.38277980685234069824 0.34804403781890869141 0.34233772754669189453 0.34454494714736938477 0.36670449376106262207 0.34904524683952331543 0.339199066162109375 0.28932306170463562012 0.30322438478469848633 0.32014235854148864746 0.32931861281394958496 0.3414268195629119873 0.3462753593921661377 0.36206999421119689941 0.38448074460029602051 0.39308968186378479004 0.38894221186637878418 0.36235961318016052246 0.35527235269546508789 0.35918101668357849121 
nan 0.31223067641258239746 0.35577192902565002441 0.36026793718338012695 0.35517579317092895508 0.34532046318054199219 0.31987407803535461426 0.26120418310165405273 0.27844643592834472656 0.32948929071426391602 0.32669562101364135742 0.32899975776672363281 0.33860951662063598633 0.34707668423652648926 0.36183997988700866699 0.36653131246566772461 0.36700153350830078125 0.37299150228500366211 0.34397721290588378906 0.34518873691558837891 0.3507633507251739502 0.34542223811149597168 0.35260146856307983398 0.36145287752151489258 0.3512388765811920166 0.34176236391067504883 0.33905211091041564941 0.34098413586616516113 0.33606252074241638184 0.3709169924259185791 0.36639574170112609863 0.36503976583480834961 0.35779899358749389648 0.35412752628326416016 0.34216776490211486816 0.32108601927757263184 0.33258226513862609863 0.34449836611747741699 0.34889319539070129395 0.35073134303092956543 0.34000387787818908691 0.33077287673950195313 0.32504314184188842773 0.33063179254531860352 0.35011702775955200195 0.36071223020553588867 0.38058584928512573242 0.3973782956600189209 0.38983288407325744629 0.38156259059906005859 0.38950026035308837891 0.38216179609298706055 0.37947261333465576172 0.37940505146980285645 0.37656486034393310547 0.38602480292320251465 0.37990012764930725098 0.37243747711181640625 0.35748413205146789551 0.35043326020240783691 0.3480497896671295166 0.35362884402275085449 0.36227726936340332031 0.35942921042442321777 0.36183637380599975586 0.37065663933753967285 0.36648210883140563965 0.35831338167190551758 0.36698567867279052734 0.35830450057983398438 0.36406487226486206055 0.35614505410194396973 0.35562524199485778809 0.36336368322372436523 0.34490358829498291016 0.35154399275779724121 0.36650747060775756836 0.36797654628753662109 0.35614034533500671387 0.34553977847099304199 0.36181849241256713867 0.37075528502464294434 0.37425884604454040527 0.36390379071235656738 0.36952057480812072754 0.38735240697860717773 0.39645120501518249512 0.39385002851486206055 0.38343048095703125 0.35689240694046020508 0.35420626401901245117 0.3596229255199432373 0.36755010485649108887 0.37791723012924194336 0.37326219677925109863 0.37788701057434082031 0.36780002713203430176 0.35319149494171142578 0.33513429760932922363 0.30501782894134521484 0.28559145331382751465 0.27809244394302368164 0.26657792925834655762 0.26646462082862854004 0.24188837409019470215 0.16554081439971923828 0.11282712966203689575 0.14073279500007629395 0.14860731363296508789 0.11780195683240890503 0.11657509952783584595 0.11140450090169906616 0.16147664189338684082 0.23114506900310516357 0.26198732852935791016 0.31231003999710083008 0.33992373943328857422 0.34957706928253173828 0.36369341611862182617 0.35306352376937866211 0.35792535543441772461 0.35510161519050598145 0.34730041027069091797 0.34138834476470947266 0.31751400232315063477 0.33694365620613098145 0.33812630176544189453 0.33589667081832885742 0.34018948674201965332 0.30852404236793518066 0.18322153389453887939 0.12299621105194091797 0.093351662158966064453 0.094192557036876678467 0.29832336306571960449 0.38887393474578857422 0.37903493642807006836 0.35567820072174072266 0.34482911229133605957 0.35265067219734191895 0.35634708404541015625 0.34990289807319641113 0.3239555060863494873 0.32426175475120544434 0.32559096813201904297 0.32547539472579956055 0.35910901427268981934 0.36844354867935180664 0.36524140834808349609 0.3865655064582824707 0.35779038071632385254 0.34756004810333251953 0.34781813621520996094 0.34083026647567749023 0.33759695291519165039 0.34302800893783569336 0.29606726765632629395 0.26072269678115844727 0.31888031959533691406 0.33333301544189453125 0.34468010067939758301 0.3550173640251159668 0.37711572647094726563 0.40559011697769165039 0.40870082378387451172 0.38993722200393676758 0.36116299033164978027 0.36274230480194091797 0.3726310431957244873 
nan 0.30166384577751159668 0.34381195902824401855 0.36449167132377624512 0.3705158233642578125 0.36266881227493286133 0.32354488968849182129 0.29402342438697814941 0.31063228845596313477 0.33935680985450744629 0.34763029217720031738 0.34538415074348449707 0.34998157620429992676 0.35639247298240661621 0.36134481430053710938 0.37447342276573181152 0.3774051964282989502 0.36518356204032897949 0.32860991358757019043 0.33207756280899047852 0.35108339786529541016 0.33991342782974243164 0.3365885317325592041 0.35877597332000732422 0.34704899787902832031 0.35073629021644592285 0.35169360041618347168 0.34187802672386169434 0.33648228645324707031 0.35784143209457397461 0.36533328890800476074 0.36321225762367248535 0.35547724366188049316 0.35338899493217468262 0.33898663520812988281 0.33908253908157348633 0.34048578143119812012 0.34068152308464050293 0.34806936979293823242 0.35141503810882568359 0.33035346865653991699 0.32461977005004882813 0.31669113039970397949 0.33749994635581970215 0.35568466782569885254 0.37000250816345214844 0.39735162258148193359 0.39011710882186889648 0.37721690535545349121 0.38519877195358276367 0.37830579280853271484 0.3703982234001159668 0.37221544981002807617 0.37954992055892944336 0.38248682022094726563 0.37723505496978759766 0.38151246309280395508 0.37461134791374206543 0.35439145565032958984 0.34251630306243896484 0.34194648265838623047 0.3403224647045135498 0.3458194434642791748 0.35209882259368896484 0.36277437210083007813 0.36012381315231323242 0.34739720821380615234 0.35559692978858947754 0.36437729001045227051 0.35758057236671447754 0.36854755878448486328 0.3675079345703125 0.35676714777946472168 0.35677787661552429199 0.33914038538932800293 0.34617885947227478027 0.37056443095207214355 0.37943729758262634277 0.38219720125198364258 0.37393173575401306152 0.36080566048622131348 0.35874524712562561035 0.36634793877601623535 0.36426648497581481934 0.35807088017463684082 0.36569869518280029297 0.38525000214576721191 0.38537728786468505859 0.38182231783866882324 0.35801395773887634277 0.35296228528022766113 0.36296713352203369141 0.37127763032913208008 0.38664337992668151855 0.39287546277046203613 0.39014250040054321289 0.36612436175346374512 0.36115306615829467773 0.35717400908470153809 0.33678868412971496582 0.30882903933525085449 0.26382613182067871094 0.24680218100547790527 0.24728472530841827393 0.26535850763320922852 0.22934368252754211426 0.16515715420246124268 0.15995252132415771484 0.17784413695335388184 0.18524752557277679443 0.19457742571830749512 0.15518847107887268066 0.13358162343502044678 0.2295531928539276123 0.25327971577644348145 0.29738286137580871582 0.32377630472183227539 0.34775474667549133301 0.3573856353759765625 0.35010311007499694824 0.37994840741157531738 0.37151554226875305176 0.35081568360328674316 0.34602493047714233398 0.32495743036270141602 0.32768076658248901367 0.34458470344543457031 0.3430677950382232666 0.34224587678909301758 0.33037677407264709473 0.28087437152862548828 0.254093170166015625 0.19189244508743286133 0.10012394934892654419 0.28299298882484436035 0.37361600995063781738 0.38812848925590515137 0.37533178925514221191 0.33846181631088256836 0.34833723306655883789 0.35606852173805236816 0.348964691162109375 0.33063030242919921875 0.31985190510749816895 0.29959833621978759766 0.32187935709953308105 0.34816506505012512207 0.36806029081344604492 0.36794349551200866699 0.40001991391181945801 0.36559942364692687988 0.34533557295799255371 0.35657748579978942871 0.33886003494262695313 0.33556088805198669434 0.34580552577972412109 0.35408416390419006348 0.27782469987869262695 0.31580781936645507813 0.3286482691764831543 0.35804593563079833984 0.38015833497047424316 0.38229376077651977539 0.40310022234916687012 0.41060802340507507324 0.39276102185249328613 0.36579683423042297363 0.36151000857353210449 0.3598092496395111084 
nan 0.30483746528625488281 0.34842750430107116699 0.35487782955169677734 0.35867536067962646484 0.35138413310050964355 0.34599095582962036133 0.33879509568214416504 0.34835034608840942383 0.35677596926689147949 0.35267725586891174316 0.3665886223316192627 0.38044878840446472168 0.38758748769760131836 0.38052845001220703125 0.37901329994201660156 0.38309156894683837891 0.37322643399238586426 0.32594013214111328125 0.33521261811256408691 0.34942659735679626465 0.33428469300270080566 0.32356894016265869141 0.3462212681770324707 0.335002899169921875 0.33827513456344604492 0.34327593445777893066 0.34926760196685791016 0.35625019669532775879 0.36063551902770996094 0.36811429262161254883 0.36147162318229675293 0.31935593485832214355 0.32517182826995849609 0.34793990850448608398 0.3627611994743347168 0.35260763764381408691 0.34170415997505187988 0.33954882621765136719 0.33927121758460998535 0.32263481616973876953 0.32741829752922058105 0.32421880960464477539 0.33560949563980102539 0.35506793856620788574 0.3661499321460723877 0.37683337926864624023 0.38619983196258544922 0.37777268886566162109 0.38979512453079223633 0.37890002131462097168 0.36067050695419311523 0.36704081296920776367 0.37921768426895141602 0.39116194844245910645 0.37561118602752685547 0.36777660250663757324 0.36881390213966369629 0.35896474123001098633 0.33541452884674072266 0.34384709596633911133 0.35967177152633666992 0.35541611909866333008 0.34857809543609619141 0.31999161839485168457 0.29852339625358581543 0.28191825747489929199 0.31066748499870300293 0.34065783023834228516 0.3488369286060333252 0.36076599359512329102 0.36002400517463684082 0.34221544861793518066 0.33333098888397216797 0.32723385095596313477 0.3440087437629699707 0.37206369638442993164 0.38622084259986877441 0.38863402605056762695 0.38784629106521606445 0.37133392691612243652 0.35969454050064086914 0.3683268129825592041 0.36932894587516784668 0.35982966423034667969 0.37793111801147460938 0.3980808556079864502 0.39993390440940856934 0.3825823664665222168 0.36187261343002319336 0.35524961352348327637 0.37477505207061767578 0.37589731812477111816 0.38347104191780090332 0.39415696263313293457 0.39041975140571594238 0.37360227108001708984 0.35752695798873901367 0.35321179032325744629 0.35809120535850524902 0.33196607232093811035 0.27377071976661682129 0.25670647621154785156 0.24960944056510925293 0.25736635923385620117 0.25124251842498779297 0.23762057721614837646 0.22439104318618774414 0.2419280707836151123 0.22947604954242706299 0.23342138528823852539 0.19249430298805236816 0.14297483861446380615 0.22790443897247314453 0.25259149074554443359 0.27712923288345336914 0.30485031008720397949 0.33976247906684875488 0.35804426670074462891 0.36431598663330078125 0.38699182868003845215 0.37028720974922180176 0.35275262594223022461 0.35133120417594909668 0.33308359980583190918 0.32932242751121520996 0.34208840131759643555 0.34568363428115844727 0.3432172238826751709 0.32549783587455749512 0.29831331968307495117 0.28328225016593933105 0.24792632460594177246 0.16220574080944061279 0.22987155616283416748 0.34600797295570373535 0.37616586685180664063 0.37972494959831237793 0.34900951385498046875 0.35001641511917114258 0.34867784380912780762 0.34708613157272338867 0.32614567875862121582 0.31818053126335144043 0.30671834945678710938 0.31453406810760498047 0.33911570906639099121 0.3631350100040435791 0.36767634749412536621 0.39261215925216674805 0.36119964718818664551 0.3350321352481842041 0.34835946559906005859 0.3355693817138671875 0.34238135814666748047 0.35760951042175292969 0.42325034737586975098 0.37269613146781921387 0.31055423617362976074 0.31869626045227050781 0.37138420343399047852 0.39044493436813354492 0.38350901007652282715 0.3962186276912689209 0.39921662211418151855 0.38912954926490783691 0.36082422733306884766 0.34751123189926147461 0.34625491499900817871 
nan 0.30044549703598022461 0.33794730901718139648 0.34040251374244689941 0.33632186055183410645 0.34125575423240661621 0.34603551030158996582 0.35271948575973510742 0.3565337061882019043 0.36311396956443786621 0.3619759976863861084 0.36220446228981018066 0.37730306386947631836 0.38319876790046691895 0.3771292567253112793 0.37255120277404785156 0.37716284394264221191 0.36846840381622314453 0.34784173965454101563 0.33722734451293945313 0.35544171929359436035 0.34572929143905639648 0.32931450009346008301 0.34423732757568359375 0.33220237493515014648 0.32937031984329223633 0.338733673095703125 0.34089699387550354004 0.33668786287307739258 0.33833873271942138672 0.33185648918151855469 0.32853263616561889648 0.33080804347991943359 0.35751968622207641602 0.37292134761810302734 0.37243923544883728027 0.36261931061744689941 0.36139923334121704102 0.36383545398712158203 0.35488578677177429199 0.32501971721649169922 0.32754164934158325195 0.33437016606330871582 0.3427556157112121582 0.3579139411449432373 0.36813756823539733887 0.3853848576545715332 0.38463613390922546387 0.38975673913955688477 0.40049019455909729004 0.38754031062126159668 0.36405038833618164063 0.37850055098533630371 0.3886114656925201416 0.38936683535575866699 0.38806286454200744629 0.35487577319145202637 0.35416069626808166504 0.36705374717712402344 0.35332795977592468262 0.35850411653518676758 0.37048879265785217285 0.36193090677261352539 0.35047608613967895508 0.31750634312629699707 0.27525746822357177734 0.22591130435466766357 0.24186559021472930908 0.29028365015983581543 0.31841313838958740234 0.3375276029109954834 0.34424638748168945313 0.33193120360374450684 0.33182251453399658203 0.32644805312156677246 0.34357759356498718262 0.36017194390296936035 0.37380906939506530762 0.37718179821968078613 0.38221028447151184082 0.38216257095336914063 0.37406823039054870605 0.3711757361888885498 0.36421045660972595215 0.36199510097503662109 0.37588778138160705566 0.39218211174011230469 0.4090906977653503418 0.39742448925971984863 0.38244009017944335938 0.37038087844848632813 0.36625343561172485352 0.36588492989540100098 0.36797946691513061523 0.36736214160919189453 0.37351185083389282227 0.38146832585334777832 0.36942553520202636719 0.36124747991561889648 0.35851129889488220215 0.34563297033309936523 0.33224353194236755371 0.33593279123306274414 0.34176230430603027344 0.33044680953025817871 0.31404003500938415527 0.31799793243408203125 0.30670857429504394531 0.29357215762138366699 0.2859751582145690918 0.27073130011558532715 0.2450542747974395752 0.17483462393283843994 0.1980733722448348999 0.2242085188627243042 0.24956801533699035645 0.27870354056358337402 0.32107520103454589844 0.35178166627883911133 0.36324363946914672852 0.37116292119026184082 0.3706715703010559082 0.35685247182846069336 0.3607807159423828125 0.36023318767547607422 0.33875027298927307129 0.33875104784965515137 0.33610180020332336426 0.33410215377807617188 0.32786974310874938965 0.29586550593376159668 0.28743088245391845703 0.28188920021057128906 0.22272661328315734863 0.18609458208084106445 0.28891217708587646484 0.35105863213539123535 0.37742578983306884766 0.38644868135452270508 0.36901077628135681152 0.34237402677536010742 0.35695230960845947266 0.3447589874267578125 0.34055319428443908691 0.34597343206405639648 0.33352628350257873535 0.33931490778923034668 0.35606801509857177734 0.36463648080825805664 0.36828634142875671387 0.34925976395606994629 0.33344846963882446289 0.34674316644668579102 0.36150890588760375977 0.35607868432998657227 0.35414999723434448242 0.3718166053295135498 0.39190220832824707031 0.32570323348045349121 0.31742736697196960449 0.36963897943496704102 0.38737922906875610352 0.38426738977432250977 0.40201610326766967773 0.40039020776748657227 0.3936488032341003418 0.35328525304794311523 0.33568757772445678711 0.33887702226638793945 
nan 0.30428537726402282715 0.33811309933662414551 0.33240538835525512695 0.32731786370277404785 0.3466586768627166748 0.34396150708198547363 0.32146930694580078125 0.34245905280113220215 0.36117199063301086426 0.35775783658027648926 0.36233463883399963379 0.38079127669334411621 0.37319490313529968262 0.36911955475807189941 0.36836647987365722656 0.37554708123207092285 0.3595053553581237793 0.35619568824768066406 0.33942872285842895508 0.33190646767616271973 0.33165624737739562988 0.31338798999786376953 0.33240038156509399414 0.3463287651538848877 0.35329699516296386719 0.35001105070114135742 0.34818708896636962891 0.34643071889877319336 0.31023296713829040527 0.27378109097480773926 0.30983632802963256836 0.33793213963508605957 0.36694741249084472656 0.38351553678512573242 0.36445397138595581055 0.35497018694877624512 0.36701819300651550293 0.37022826075553894043 0.37005203962326049805 0.34969285130500793457 0.34357333183288574219 0.33515122532844543457 0.33950766921043395996 0.36631834506988525391 0.38358011841773986816 0.38622277975082397461 0.3907406926155090332 0.39235436916351318359 0.39168971776962280273 0.38755741715431213379 0.37770932912826538086 0.36964315176010131836 0.37482097744941711426 0.37796434760093688965 0.37535569071769714355 0.37572726607322692871 0.37954556941986083984 0.37164428830146789551 0.36325448751449584961 0.36156544089317321777 0.36432299017906188965 0.35495793819427490234 0.34949189424514770508 0.34151479601860046387 0.30595320463180541992 0.23420651257038116455 0.20881702005863189697 0.26153951883316040039 0.31671530008316040039 0.33780056238174438477 0.33770632743835449219 0.33570203185081481934 0.35940238833427429199 0.3603242337703704834 0.37505492568016052246 0.36126363277435302734 0.35343819856643676758 0.36117690801620483398 0.35906544327735900879 0.37477400898933410645 0.36506897211074829102 0.35853329300880432129 0.35476607084274291992 0.3666019439697265625 0.38021546602249145508 0.38972416520118713379 0.39795079827308654785 0.39958885312080383301 0.38223889470100402832 0.3689835965633392334 0.35472464561462402344 0.34332382678985595703 0.35667064785957336426 0.36102443933486938477 0.36906313896179199219 0.37676224112510681152 0.38240078091621398926 0.38426828384399414063 0.36040151119232177734 0.34651926159858703613 0.35828739404678344727 0.3674576878547668457 0.3716907501220703125 0.3553924560546875 0.34934133291244506836 0.36435133218765258789 0.36455869674682617188 0.35410928726196289063 0.31920793652534484863 0.27460896968841552734 0.27047926187515258789 0.25198701024055480957 0.20770262181758880615 0.16236545145511627197 0.14591017365455627441 0.2166319042444229126 0.30104410648345947266 0.34574419260025024414 0.35222876071929931641 0.36573010683059692383 0.37466707825660705566 0.37412974238395690918 0.35453677177429199219 0.33879935741424560547 0.34062266349792480469 0.34938222169876098633 0.3488903045654296875 0.35216161608695983887 0.33481144905090332031 0.32123035192489624023 0.32680594921112060547 0.32162693142890930176 0.26270285248756408691 0.13176774978637695313 0.14163023233413696289 0.28942185640335083008 0.37936374545097351074 0.40574195981025695801 0.39277052879333496094 0.38387712836265563965 0.3779557645320892334 0.37187045812606811523 0.3618507087230682373 0.35002398490905761719 0.35117599368095397949 0.36848807334899902344 0.37089845538139343262 0.35938704013824462891 0.34454566240310668945 0.34674596786499023438 0.35330462455749511719 0.3636684715747833252 0.37494695186614990234 0.3653990626335144043 0.3590355217456817627 0.35169187188148498535 0.35808005928993225098 0.3164997398853302002 0.29398655891418457031 0.35353437066078186035 0.38003739714622497559 0.39505630731582641602 0.40057095885276794434 0.40572619438171386719 0.40114220976829528809 0.3851636052131652832 0.35142350196838378906 0.32779660820960998535 
nan 0.30154383182525634766 0.33792471885681152344 0.33237004280090332031 0.32760390639305114746 0.35827109217643737793 0.35581475496292114258 0.3030719757080078125 0.32582855224609375 0.35237923264503479004 0.36961036920547485352 0.37820020318031311035 0.37631002068519592285 0.37098240852355957031 0.36805489659309387207 0.36863222718238830566 0.37011343240737915039 0.36060595512390136719 0.35710710287094116211 0.33907589316368103027 0.32116726040840148926 0.32469677925109863281 0.31592893600463867188 0.34064960479736328125 0.34911996126174926758 0.35544618964195251465 0.34957939386367797852 0.35092180967330932617 0.34917882084846496582 0.30628049373626708984 0.26754599809646606445 0.31160759925842285156 0.35452231764793395996 0.36476492881774902344 0.37639659643173217773 0.37228444218635559082 0.35722634196281433105 0.36274331808090209961 0.35323107242584228516 0.37152239680290222168 0.36641097068786621094 0.36272403597831726074 0.35000950098037719727 0.36213648319244384766 0.37641641497611999512 0.37743732333183288574 0.35897135734558105469 0.39085564017295837402 0.40622821450233459473 0.40131574869155883789 0.37545180320739746094 0.36652290821075439453 0.38753014802932739258 0.39410993456840515137 0.38617396354675292969 0.36049696803092956543 0.3700853884220123291 0.37962114810943603516 0.36651259660720825195 0.37190285325050354004 0.35226944088935852051 0.33576107025146484375 0.35397523641586303711 0.37636604905128479004 0.37835556268692016602 0.37160897254943847656 0.33266031742095947266 0.3012911677360534668 0.33744928240776062012 0.33698678016662597656 0.318515777587890625 0.31945821642875671387 0.33465263247489929199 0.36652168631553649902 0.37562853097915649414 0.38689115643501281738 0.39013135433197021484 0.39146921038627624512 0.38578432798385620117 0.37524339556694030762 0.38085737824440002441 0.37261047959327697754 0.37872007489204406738 0.38244938850402832031 0.36936596035957336426 0.35559722781181335449 0.36441940069198608398 0.37410873174667358398 0.37602406740188598633 0.37138533592224121094 0.36804041266441345215 0.35942590236663818359 0.35986760258674621582 0.36039894819259643555 0.36613738536834716797 0.36675870418548583984 0.36327221989631652832 0.36900559067726135254 0.37134730815887451172 0.36589717864990234375 0.3594805598258972168 0.36602291464805603027 0.36732628941535949707 0.36415237188339233398 0.36546528339385986328 0.35989978909492492676 0.36981272697448730469 0.36846905946731567383 0.36527770757675170898 0.34886184334754943848 0.33165922760963439941 0.31810867786407470703 0.29353025555610656738 0.26565659046173095703 0.23210546374320983887 0.18647968769073486328 0.17024688422679901123 0.25900492072105407715 0.31190812587738037109 0.3281103670597076416 0.34545990824699401855 0.35226839780807495117 0.35227578878402709961 0.35701003670692443848 0.36755451560020446777 0.35098496079444885254 0.34774604439735412598 0.346454620361328125 0.3426634669303894043 0.3469778895378112793 0.34747815132141113281 0.35121142864227294922 0.33459731936454772949 0.27656233310699462891 0.13375724852085113525 0.095913477241992950439 0.17474646866321563721 0.33495336771011352539 0.38682639598846435547 0.37713101506233215332 0.35878992080688476563 0.35190033912658691406 0.34981313347816467285 0.35509499907493591309 0.34016680717468261719 0.32635760307312011719 0.35939717292785644531 0.36492520570755004883 0.36628019809722900391 0.34042412042617797852 0.34430217742919921875 0.35588866472244262695 0.37275776267051696777 0.37380972504615783691 0.34941023588180541992 0.37066814303398132324 0.36394810676574707031 0.34340807795524597168 0.2960205078125 0.30370807647705078125 0.3264382481575012207 0.34005650877952575684 0.36572057008743286133 0.38916674256324768066 0.39793464541435241699 0.40397444367408752441 0.40210363268852233887 0.37363603711128234863 0.3738676607608795166 
nan 0.29985728859901428223 0.33474552631378173828 0.33028149604797363281 0.33405736088752746582 0.35793465375900268555 0.36420327425003051758 0.33110857009887695313 0.33939820528030395508 0.35375213623046875 0.3808409571647644043 0.38056281208992004395 0.36543440818786621094 0.35562852025032043457 0.36560261249542236328 0.36756542325019836426 0.36866626143455505371 0.3640956878662109375 0.36605495214462280273 0.33276191353797912598 0.3207301795482635498 0.33172777295112609863 0.32679525017738342285 0.34212869405746459961 0.34886768460273742676 0.35490781068801879883 0.34438946843147277832 0.3128611445426940918 0.31018567085266113281 0.30493772029876708984 0.30149355530738830566 0.32243871688842773438 0.34822285175323486328 0.35313314199447631836 0.36038821935653686523 0.36976101994514465332 0.37179729342460632324 0.36590576171875 0.35569772124290466309 0.36576339602470397949 0.37037917971611022949 0.37552019953727722168 0.37481281161308288574 0.39169326424598693848 0.3844471275806427002 0.37941718101501464844 0.36442771553993225098 0.38751947879791259766 0.39323559403419494629 0.39470133185386657715 0.37602031230926513672 0.37171468138694763184 0.39802101254463195801 0.3889802098274230957 0.38305696845054626465 0.37669533491134643555 0.38872501254081726074 0.38635981082916259766 0.37552964687347412109 0.36936366558074951172 0.36595004796981811523 0.37426713109016418457 0.37626180052757263184 0.39242115616798400879 0.39707961678504943848 0.39838844537734985352 0.37373074889183044434 0.35169395804405212402 0.36084687709808349609 0.36145764589309692383 0.3472315669059753418 0.35102128982543945313 0.36195722222328186035 0.36725085973739624023 0.3811086118221282959 0.38473358750343322754 0.39351290464401245117 0.39900568127632141113 0.39957138895988464355 0.38764834403991699219 0.38822686672210693359 0.37569507956504821777 0.38843318819999694824 0.39837318658828735352 0.38189390301704406738 0.35876950621604919434 0.35954323410987854004 0.36310049891471862793 0.36503991484642028809 0.36844989657402038574 0.37269258499145507813 0.36850377917289733887 0.35669890046119689941 0.35478469729423522949 0.35793286561965942383 0.3632539212703704834 0.36477038264274597168 0.35932958126068115234 0.36196666955947875977 0.35257589817047119141 0.35201919078826904297 0.36251771450042724609 0.36609184741973876953 0.36012542247772216797 0.36083012819290161133 0.36268755793571472168 0.36807808279991149902 0.36900532245635986328 0.35960799455642700195 0.34961497783660888672 0.34225377440452575684 0.35018104314804077148 0.34527066349983215332 0.28056454658508300781 0.25924763083457946777 0.22916500270366668701 0.11991473287343978882 0.22168649733066558838 0.29858443140983581543 0.32098183035850524902 0.34536096453666687012 0.34165969491004943848 0.32928350567817687988 0.3427009880542755127 0.35375928878784179688 0.34877616167068481445 0.3459987938404083252 0.34714144468307495117 0.35392311215400695801 0.35495498776435852051 0.33555939793586730957 0.34765344858169555664 0.34086960554122924805 0.27849936485290527344 0.13363444805145263672 0.086800061166286468506 0.13402765989303588867 0.26947546005249023438 0.35960569977760314941 0.34763294458389282227 0.33691284060478210449 0.34320312738418579102 0.3567969202995300293 0.36658698320388793945 0.34680676460266113281 0.32944795489311218262 0.34817409515380859375 0.36053320765495300293 0.36920663714408874512 0.35323134064674377441 0.34667417407035827637 0.36195385456085205078 0.37158632278442382813 0.38936135172843933105 0.34920081496238708496 0.36427670717239379883 0.3656215667724609375 0.34010037779808044434 0.30697748064994812012 0.27233040332794189453 0.29437628388404846191 0.31623366475105285645 0.33944362401962280273 0.37068268656730651855 0.37420865893363952637 0.3757610023021697998 0.4005947113037109375 0.39738333225250244141 0.39318624138832092285 
nan 0.30190736055374145508 0.33169132471084594727 0.33115658164024353027 0.32795837521553039551 0.3484179377555847168 0.35959428548812866211 0.35234284400939941406 0.3402321934700012207 0.34878331422805786133 0.36244696378707885742 0.36787641048431396484 0.3596954047679901123 0.35449454188346862793 0.35469365119934082031 0.36482608318328857422 0.38085654377937316895 0.38032078742980957031 0.37200629711151123047 0.32713401317596435547 0.33470526337623596191 0.34280252456665039063 0.31430277228355407715 0.33101636171340942383 0.34275552630424499512 0.3461742401123046875 0.32420241832733154297 0.29893800616264343262 0.31127649545669555664 0.31916958093643188477 0.32552170753479003906 0.31945124268531799316 0.3177210688591003418 0.33035647869110107422 0.34712338447570800781 0.36066138744354248047 0.37794360518455505371 0.37888509035110473633 0.37305480241775512695 0.37220731377601623535 0.36183327436447143555 0.37223741412162780762 0.39137732982635498047 0.39178425073623657227 0.38191884756088256836 0.38856810331344604492 0.38208520412445068359 0.38165119290351867676 0.38360205292701721191 0.39071381092071533203 0.39422142505645751953 0.38720294833183288574 0.38151919841766357422 0.3878129422664642334 0.3789030909538269043 0.36257976293563842773 0.37547802925109863281 0.3901532292366027832 0.3785934746265411377 0.36248072981834411621 0.35301482677459716797 0.35607504844665527344 0.36659985780715942383 0.38640698790550231934 0.39835935831069946289 0.40645182132720947266 0.38574296236038208008 0.35539874434471130371 0.36850249767303466797 0.36858627200126647949 0.37077361345291137695 0.37069156765937805176 0.3731499016284942627 0.36066663265228271484 0.37486970424652099609 0.37783885002136230469 0.39451989531517028809 0.40107697248458862305 0.38924905657768249512 0.37277626991271972656 0.36013555526733398438 0.3601468503475189209 0.36336368322372436523 0.37605559825897216797 0.37303298711776733398 0.36284074187278747559 0.36214464902877807617 0.37229299545288085938 0.36873954534530639648 0.37082010507583618164 0.37181398272514343262 0.37377709150314331055 0.35754862427711486816 0.35610887408256530762 0.35972854495048522949 0.36718410253524780273 0.36672121286392211914 0.36206889152526855469 0.36366000771522521973 0.3444671332836151123 0.34350559115409851074 0.36274364590644836426 0.37462219595909118652 0.36929774284362792969 0.36818581819534301758 0.36981257796287536621 0.37086772918701171875 0.35813221335411071777 0.35155415534973144531 0.34975945949554443359 0.34781375527381896973 0.34768140316009521484 0.34367573261260986328 0.31372714042663574219 0.29966259002685546875 0.22456945478916168213 0.113999977707862854 0.18254610896110534668 0.27139192819595336914 0.31611707806587219238 0.34559652209281921387 0.33923983573913574219 0.3344211578369140625 0.34189409017562866211 0.3512356877326965332 0.35782754421234130859 0.34730106592178344727 0.34826138615608215332 0.3551616668701171875 0.35119530558586120605 0.3249721527099609375 0.34595382213592529297 0.34387484192848205566 0.27159231901168823242 0.16370558738708496094 0.1207612454891204834 0.07670628279447555542 0.17804661393165588379 0.32544246315956115723 0.32300069928169250488 0.30281773209571838379 0.31421366333961486816 0.34730732440948486328 0.36559456586837768555 0.36460867524147033691 0.32884302735328674316 0.35694164037704467773 0.37361222505569458008 0.3856557011604309082 0.36938768625259399414 0.36398819088935852051 0.36987087130546569824 0.37662708759307861328 0.39658403396606445313 0.34043595194816589355 0.34356641769409179688 0.34709373116493225098 0.3309376835823059082 0.314769744873046875 0.28069013357162475586 0.29701212048530578613 0.31654468178749084473 0.3334534764289855957 0.35619595646858215332 0.36387223005294799805 0.37088760733604431152 0.39629393815994262695 0.40663215517997741699 0.40128305554389953613 
nan 0.29578930139541625977 0.33543804287910461426 0.34416130185127258301 0.34477439522743225098 0.35576164722442626953 0.35636207461357116699 0.35279110074043273926 0.34683263301849365234 0.35422003269195556641 0.36069414019584655762 0.36124578118324279785 0.36523810029029846191 0.36215743422508239746 0.34948995709419250488 0.36558550596237182617 0.38379460573196411133 0.38253319263458251953 0.36608383059501647949 0.32717052102088928223 0.34908136725425720215 0.35147491097450256348 0.32340577244758605957 0.32791924476623535156 0.32066211104393005371 0.31522527337074279785 0.30875119566917419434 0.3248132169246673584 0.33886882662773132324 0.3389924168586730957 0.33790469169616699219 0.33474889397621154785 0.32853859663009643555 0.33018842339515686035 0.35268804430961608887 0.36771449446678161621 0.36596214771270751953 0.37160444259643554688 0.37711596488952636719 0.37498289346694946289 0.36911386251449584961 0.38245284557342529297 0.40258347988128662109 0.39083406329154968262 0.3826090693473815918 0.39568123221397399902 0.39337244629859924316 0.39119705557823181152 0.37803319096565246582 0.38623127341270446777 0.38804739713668823242 0.39581260085105895996 0.37408527731895446777 0.3898283839225769043 0.38934254646301269531 0.36847329139709472656 0.36711975932121276855 0.39452081918716430664 0.38329413533210754395 0.36473864316940307617 0.36082804203033447266 0.35572913289070129395 0.37311038374900817871 0.38490304350852966309 0.37976685166358947754 0.38353407382965087891 0.38035658001899719238 0.35284644365310668945 0.35528105497360229492 0.36510092020034790039 0.36751544475555419922 0.3607273399829864502 0.3668982088565826416 0.35259598493576049805 0.36233279109001159668 0.37946158647537231445 0.38928005099296569824 0.39231786131858825684 0.3871771693229675293 0.38151302933692932129 0.38561126589775085449 0.38600271940231323242 0.38895961642265319824 0.38590130209922790527 0.36872178316116333008 0.35696071386337280273 0.36077541112899780273 0.37022075057029724121 0.36352545022964477539 0.37066406011581420898 0.3724511265754699707 0.3824952542781829834 0.36442080140113830566 0.35489538311958312988 0.36374837160110473633 0.36834439635276794434 0.36372902989387512207 0.36099544167518615723 0.35745790600776672363 0.35370528697967529297 0.3583609163761138916 0.35956183075904846191 0.35672158002853393555 0.36348271369934082031 0.35856777429580688477 0.35515031218528747559 0.3524487614631652832 0.34863680601119995117 0.34466984868049621582 0.33713120222091674805 0.34181007742881774902 0.34155729413032531738 0.32373401522636413574 0.31984531879425048828 0.32082945108413696289 0.24100445210933685303 0.12271967530250549316 0.1843738555908203125 0.27666607499122619629 0.30058977007865905762 0.33354410529136657715 0.33367443084716796875 0.34336522221565246582 0.35036337375640869141 0.35133033990859985352 0.35265037417411804199 0.3452625572681427002 0.34353390336036682129 0.34492623805999755859 0.33902120590209960938 0.34655141830444335938 0.3558267056941986084 0.35307466983795166016 0.30809620022773742676 0.23502810299396514893 0.19777533411979675293 0.10258428007364273071 0.096168383955955505371 0.21220344305038452148 0.26583150029182434082 0.29246261715888977051 0.31226453185081481934 0.32945585250854492188 0.34421464800834655762 0.34594541788101196289 0.31268560886383056641 0.35711973905563354492 0.36919426918029785156 0.39739114046096801758 0.38498392701148986816 0.38224798440933227539 0.38500013947486877441 0.37715736031532287598 0.39473611116409301758 0.32845428586006164551 0.31449028849601745605 0.31066721677780151367 0.32452365756034851074 0.34383419156074523926 0.32078346610069274902 0.26464867591857910156 0.28051698207855224609 0.29495772719383239746 0.29232516884803771973 0.322460174560546875 0.32942402362823486328 0.36749541759490966797 0.39672386646270751953 0.40324828028678894043 
nan 0.30043575167655944824 0.33704552054405212402 0.33954507112503051758 0.34257259964942932129 0.35387718677520751953 0.35537171363830566406 0.34886837005615234375 0.34945914149284362793 0.3432597815990447998 0.34690591692924499512 0.34861636161804199219 0.34332430362701416016 0.3497600257396697998 0.35497069358825683594 0.36525374650955200195 0.36549130082130432129 0.35391056537628173828 0.33062630891799926758 0.32228961586952209473 0.3435497283935546875 0.35229453444480895996 0.3197205662727355957 0.30719718337059020996 0.31737416982650756836 0.32241934537887573242 0.32469475269317626953 0.33490777015686035156 0.33812817931175231934 0.3325175940990447998 0.32998049259185791016 0.33536872267723083496 0.33878171443939208984 0.34515780210494995117 0.35405272245407104492 0.36087325215339660645 0.35398951172828674316 0.3624744713306427002 0.37163898348808288574 0.37440276145935058594 0.38880482316017150879 0.40830215811729431152 0.40083804726600646973 0.3801955878734588623 0.37523573637008666992 0.3814881742000579834 0.37513369321823120117 0.39425781369209289551 0.38697522878646850586 0.36591818928718566895 0.3630269169807434082 0.37432506680488586426 0.37224021553993225098 0.37760674953460693359 0.36710959672927856445 0.37685975432395935059 0.37186247110366821289 0.38671699166297912598 0.36940786242485046387 0.34804102778434753418 0.36484032869338989258 0.37851846218109130859 0.36540970206260681152 0.38232952356338500977 0.39302664995193481445 0.40193390846252441406 0.39724048972129821777 0.36906531453132629395 0.37469494342803955078 0.36529251933097839355 0.36761701107025146484 0.36404505372047424316 0.38249918818473815918 0.38168710470199584961 0.37966513633728027344 0.3933582007884979248 0.3978398442268371582 0.38159102201461791992 0.37262332439422607422 0.37032938003540039063 0.36780542135238647461 0.37806391716003417969 0.38592967391014099121 0.38414204120635986328 0.3657245635986328125 0.35591337084770202637 0.36253175139427185059 0.36424705386161804199 0.36414036154747009277 0.3681780695915222168 0.36633989214897155762 0.3638947904109954834 0.35467013716697692871 0.3442395627498626709 0.34803751111030578613 0.35802608728408813477 0.36088103055953979492 0.35998186469078063965 0.3643589317798614502 0.35968008637428283691 0.34713974595069885254 0.34368816018104553223 0.33651950955390930176 0.3482888340950012207 0.35680952668190002441 0.35868984460830688477 0.35774946212768554688 0.35533046722412109375 0.35061997175216674805 0.34793072938919067383 0.34970951080322265625 0.34472036361694335938 0.32552486658096313477 0.32976514101028442383 0.32847854495048522949 0.2712122797966003418 0.15157945454120635986 0.17595280706882476807 0.26558837294578552246 0.29374584555625915527 0.3351535797119140625 0.33925810456275939941 0.35271361470222473145 0.36335441470146179199 0.35525789856910705566 0.34345111250877380371 0.33784651756286621094 0.339427947998046875 0.34930109977722167969 0.3473002314567565918 0.3514652550220489502 0.35602629184722900391 0.34560334682464599609 0.33053731918334960938 0.3106727302074432373 0.28636595606803894043 0.20834392309188842773 0.11933946609497070313 0.12041327357292175293 0.15653350949287414551 0.22402520477771759033 0.29974076151847839355 0.33113932609558105469 0.3441149592399597168 0.34759727120399475098 0.34372892975807189941 0.35383772850036621094 0.35574904084205627441 0.37820643186569213867 0.3820355832576751709 0.38338476419448852539 0.38843646645545959473 0.38269925117492675781 0.36973282694816589355 0.34492030739784240723 0.31213217973709106445 0.29287073016166687012 0.31151130795478820801 0.33663794398307800293 0.3302395939826965332 0.2987645566463470459 0.28038671612739562988 0.27031800150871276855 0.24226044118404388428 0.29178312420845031738 0.32432800531387329102 0.37210384011268615723 0.39781549572944641113 0.39612728357315063477 
nan 0.29732972383499145508 0.33626168966293334961 0.3371664583683013916 0.34653767943382263184 0.35171604156494140625 0.34849077463150024414 0.34832620620727539063 0.34543687105178833008 0.33725118637084960938 0.34031158685684204102 0.34330824017524719238 0.33660152554512023926 0.34899190068244934082 0.36478623747825622559 0.36501902341842651367 0.35856640338897705078 0.3581275641918182373 0.32383188605308532715 0.33198881149291992188 0.34533807635307312012 0.33878347277641296387 0.32947084307670593262 0.3172684013843536377 0.31685748696327209473 0.33465355634689331055 0.34437260031700134277 0.34372907876968383789 0.32715278863906860352 0.3239924311637878418 0.33450400829315185547 0.34208545088768005371 0.35828033089637756348 0.37206137180328369141 0.3773823082447052002 0.36217007040977478027 0.34888279438018798828 0.35880655050277709961 0.36428976058959960938 0.37669277191162109375 0.39493107795715332031 0.39251369237899780273 0.38724172115325927734 0.3782094419002532959 0.35115477442741394043 0.34060913324356079102 0.36506381630897521973 0.39809691905975341797 0.38456428050994873047 0.36894628405570983887 0.35782474279403686523 0.36829826235771179199 0.36001047492027282715 0.35898551344871520996 0.36508983373641967773 0.38194090127944946289 0.39137616753578186035 0.38102236390113830566 0.35912913084030151367 0.35013672709465026855 0.36549469828605651855 0.37789666652679443359 0.37856471538543701172 0.37986868619918823242 0.38740038871765136719 0.3964131772518157959 0.39548233151435852051 0.38978171348571777344 0.39238679409027099609 0.38700473308563232422 0.38694629073143005371 0.37535038590431213379 0.38743284344673156738 0.39199081063270568848 0.39726108312606811523 0.4042555391788482666 0.39946952462196350098 0.38445055484771728516 0.37545740604400634766 0.37046298384666442871 0.36258158087730407715 0.36810579895973205566 0.37361007928848266602 0.3773575127124786377 0.37757423520088195801 0.37688359618186950684 0.36860901117324829102 0.37772440910339355469 0.37072294950485229492 0.36609566211700439453 0.36182746291160583496 0.3534393012523651123 0.36420071125030517578 0.3681087195873260498 0.35935932397842407227 0.3540108799934387207 0.36268052458763122559 0.37588402628898620605 0.37605381011962890625 0.36546361446380615234 0.34915074706077575684 0.29733118414878845215 0.27914285659790039063 0.33048456907272338867 0.35709071159362792969 0.36568188667297363281 0.36992573738098144531 0.36630806326866149902 0.36739197373390197754 0.36047658324241638184 0.35419663786888122559 0.34471267461776733398 0.32810604572296142578 0.33461931347846984863 0.3275953829288482666 0.29714220762252807617 0.22584475576877593994 0.14789250493049621582 0.2339258044958114624 0.27951297163963317871 0.31042948365211486816 0.32360860705375671387 0.34665051102638244629 0.35194662213325500488 0.32988408207893371582 0.34292629361152648926 0.34982568025588989258 0.35083225369453430176 0.35424971580505371094 0.36300200223922729492 0.36217731237411499023 0.35994246602058410645 0.3622760772705078125 0.35833534598350524902 0.32490333914756774902 0.28767737746238708496 0.24279099702835083008 0.19194045662879943848 0.1086959540843963623 0.059227850288152694702 0.13548579812049865723 0.2749951481819152832 0.32525289058685302734 0.319225311279296875 0.32414144277572631836 0.35386419296264648438 0.35531985759735107422 0.3550192713737487793 0.34328436851501464844 0.35213410854339599609 0.38288909196853637695 0.38050228357315063477 0.39277938008308410645 0.37716624140739440918 0.34234714508056640625 0.30660548806190490723 0.3180427253246307373 0.33483487367630004883 0.33294883370399475098 0.32588881254196166992 0.33183848857879638672 0.33356586098670959473 0.30261185765266418457 0.31493997573852539063 0.31608805060386657715 0.32310238480567932129 0.34963557124137878418 0.3698895871639251709 0.37010040879249572754 
nan 0.2574971616268157959 0.32650879025459289551 0.34051841497421264648 0.3456592261791229248 0.35636222362518310547 0.35499882698059082031 0.3494599461555480957 0.34752896428108215332 0.3371448218822479248 0.33639395236968994141 0.33342900872230529785 0.33713999390602111816 0.34928467869758605957 0.3672568202018737793 0.35626867413520812988 0.34391298890113830566 0.32836198806762695313 0.30353403091430664063 0.34476143121719360352 0.33859691023826599121 0.33640661835670471191 0.31736963987350463867 0.31678825616836547852 0.31364053487777709961 0.32874330878257751465 0.34072095155715942383 0.35291767120361328125 0.33376389741897583008 0.32318851351737976074 0.33993947505950927734 0.34546607732772827148 0.35793519020080566406 0.35311746597290039063 0.35480159521102905273 0.35345241427421569824 0.35783419013023376465 0.35656243562698364258 0.35694289207458496094 0.36380788683891296387 0.37348729372024536133 0.37302470207214355469 0.37040349841117858887 0.36212992668151855469 0.3348343968391418457 0.32356649637222290039 0.35474976897239685059 0.38937497138977050781 0.39482197165489196777 0.37112730741500854492 0.36818179488182067871 0.36325502395629882813 0.3455085456371307373 0.35057795047760009766 0.34811642765998840332 0.37162834405899047852 0.38850280642509460449 0.38615936040878295898 0.37940499186515808105 0.3744589388370513916 0.37278446555137634277 0.3676700294017791748 0.3740883171558380127 0.3734048306941986084 0.38487261533737182617 0.38810130953788757324 0.3943475186824798584 0.39227309823036193848 0.37451794743537902832 0.36595782637596130371 0.37194979190826416016 0.37057763338088989258 0.38332185149192810059 0.39203622937202453613 0.39347103238105773926 0.40341913700103759766 0.39274644851684570313 0.38745674490928649902 0.37771633267402648926 0.36941182613372802734 0.36528128385543823242 0.36987593770027160645 0.36896464228630065918 0.37240895628929138184 0.37837624549865722656 0.38684585690498352051 0.37891694903373718262 0.38041481375694274902 0.37383228540420532227 0.36531358957290649414 0.35560774803161621094 0.34514898061752319336 0.36487364768981933594 0.35433986783027648926 0.34146791696548461914 0.34884139895439147949 0.36015215516090393066 0.37409111857414245605 0.36925566196441650391 0.36778581142425537109 0.3641980588436126709 0.32533785700798034668 0.30881047248840332031 0.32881021499633789063 0.34516799449920654297 0.35673856735229492188 0.36301580071449279785 0.35516047477722167969 0.36562442779541015625 0.36820775270462036133 0.3594951629638671875 0.33809870481491088867 0.33097359538078308105 0.33890047669410705566 0.3272381126880645752 0.28569275140762329102 0.19769340753555297852 0.1235910952091217041 0.20915293693542480469 0.25271269679069519043 0.28537887334823608398 0.31559571623802185059 0.33079206943511962891 0.33709722757339477539 0.33350405097007751465 0.34378898143768310547 0.33847677707672119141 0.33394396305084228516 0.33816006779670715332 0.34785792231559753418 0.35676389932632446289 0.36366295814514160156 0.35739222168922424316 0.35525009036064147949 0.33365660905838012695 0.29660463333129882813 0.24642297625541687012 0.20094192028045654297 0.13112547993659973145 0.077205061912536621094 0.12708324193954467773 0.24755425751209259033 0.33065789937973022461 0.33012062311172485352 0.32165604829788208008 0.35037401318550109863 0.35440212488174438477 0.35509240627288818359 0.34289070963859558105 0.3498267829418182373 0.3837744593620300293 0.39687877893447875977 0.39970549941062927246 0.37854304909706115723 0.37544691562652587891 0.35284978151321411133 0.37263342738151550293 0.40142586827278137207 0.37040755152702331543 0.3420467674732208252 0.33640921115875244141 0.33029043674468994141 0.31529864668846130371 0.31945565342903137207 0.31067359447479248047 0.32513353228569030762 0.34630876779556274414 0.37382727861404418945 0.37454676628112792969 
nan 0.24371737241744995117 0.29654100537300109863 0.31551730632781982422 0.34780940413475036621 0.35416907072067260742 0.35967284440994262695 0.34853243827819824219 0.34917974472045898438 0.33154255151748657227 0.3179581761360168457 0.32464936375617980957 0.33471992611885070801 0.35111740231513977051 0.35466870665550231934 0.33845427632331848145 0.34028014540672302246 0.31091505289077758789 0.30304777622222900391 0.33957380056381225586 0.33687183260917663574 0.3343251347541809082 0.32615748047828674316 0.32921040058135986328 0.30906510353088378906 0.31780081987380981445 0.32911911606788635254 0.3420034945011138916 0.34235036373138427734 0.33663892745971679688 0.34392449259757995605 0.34686583280563354492 0.3665294349193572998 0.36082667112350463867 0.35658714175224304199 0.36081257462501525879 0.36971357464790344238 0.36111190915107727051 0.36011782288551330566 0.36815333366394042969 0.36050751805305480957 0.36070230603218078613 0.37887647747993469238 0.37776824831962585449 0.34752127528190612793 0.32238292694091796875 0.34271761775016784668 0.37215748429298400879 0.38029184937477111816 0.37270745635032653809 0.35956355929374694824 0.35479053854942321777 0.34804952144622802734 0.35106807947158813477 0.34642714262008666992 0.36450922489166259766 0.37260368466377258301 0.37164968252182006836 0.37519127130508422852 0.38603550195693969727 0.37942183017730712891 0.38193455338478088379 0.38500612974166870117 0.37642621994018554688 0.38653999567031860352 0.3871020972728729248 0.39232945442199707031 0.38759317994117736816 0.37153264880180358887 0.36447605490684509277 0.36229783296585083008 0.37029352784156799316 0.37689137458801269531 0.37155959010124206543 0.38083297014236450195 0.39122501015663146973 0.38378295302391052246 0.37430202960968017578 0.37227022647857666016 0.36623942852020263672 0.35180801153182983398 0.35046142339706420898 0.35037291049957275391 0.35709410905838012695 0.38187763094902038574 0.38642570376396179199 0.38769519329071044922 0.38521155714988708496 0.38057959079742431641 0.36862829327583312988 0.36085733771324157715 0.34277462959289550781 0.36330908536911010742 0.35876816511154174805 0.35002925992012023926 0.36380508542060852051 0.37324294447898864746 0.36768615245819091797 0.36199131608009338379 0.36097660660743713379 0.37560290098190307617 0.36570394039154052734 0.35604837536811828613 0.34104686975479125977 0.34064158797264099121 0.35227736830711364746 0.34558326005935668945 0.34844815731048583984 0.35745272040367126465 0.36897704005241394043 0.3637085258960723877 0.32701468467712402344 0.32576403021812438965 0.33533957600593566895 0.31673985719680786133 0.25604549050331115723 0.14431367814540863037 0.10301395505666732788 0.14399506151676177979 0.20556466281414031982 0.27470690011978149414 0.32278084754943847656 0.34865593910217285156 0.35369801521301269531 0.34428775310516357422 0.33621978759765625 0.31155177950859069824 0.27417069673538208008 0.26502153277397155762 0.32076263427734375 0.34658491611480712891 0.3566939234733581543 0.35323837399482727051 0.34850931167602539063 0.33519804477691650391 0.31220304965972900391 0.28400084376335144043 0.2453918159008026123 0.1608394235372543335 0.099225170910358428955 0.15728592872619628906 0.27572238445281982422 0.32539325952529907227 0.32770416140556335449 0.33752208948135375977 0.35085397958755493164 0.36785081028938293457 0.35602533817291259766 0.34586504101753234863 0.35397958755493164063 0.38491716980934143066 0.39386296272277832031 0.39287042617797851563 0.38276916742324829102 0.37827101349830627441 0.37376964092254638672 0.40528637170791625977 0.45324409008026123047 0.39365816116333007813 0.35700461268424987793 0.3420549929141998291 0.33241552114486694336 0.2974370419979095459 0.31947365403175354004 0.32407182455062866211 0.34882336854934692383 0.36257198452949523926 0.37066227197647094727 0.36667862534523010254 
nan 0.29451531171798706055 0.26244696974754333496 0.25121220946311950684 0.28873613476753234863 0.34504625201225280762 0.36237311363220214844 0.34425276517868041992 0.35151490569114685059 0.33172440528869628906 0.3269360959529876709 0.33388799428939819336 0.33254003524780273438 0.34247413277626037598 0.34377694129943847656 0.32460984587669372559 0.3190510869026184082 0.32744306325912475586 0.33740800619125366211 0.31005176901817321777 0.32696771621704101563 0.34455931186676025391 0.32726952433586120605 0.32714536786079406738 0.3176237642765045166 0.32601836323738098145 0.3499437868595123291 0.34881776571273803711 0.37268036603927612305 0.35597872734069824219 0.3427467048168182373 0.35270264744758605957 0.36825832724571228027 0.36300668120384216309 0.36576944589614868164 0.37145274877548217773 0.37150529026985168457 0.35371497273445129395 0.36447918415069580078 0.37516838312149047852 0.37244680523872375488 0.37429696321487426758 0.38467735052108764648 0.37926441431045532227 0.34324154257774353027 0.32964026927947998047 0.3503125607967376709 0.37400674819946289063 0.36751922965049743652 0.36988294124603271484 0.35850617289543151855 0.38112917542457580566 0.38145408034324645996 0.3628559410572052002 0.35502788424491882324 0.36512455344200134277 0.37294378876686096191 0.37673795223236083984 0.38151651620864868164 0.3826198279857635498 0.3838500678539276123 0.38589009642601013184 0.38092657923698425293 0.37308397889137268066 0.3809858858585357666 0.38414677977561950684 0.38547635078430175781 0.37810465693473815918 0.37020692229270935059 0.38020721077919006348 0.3740399479866027832 0.3750012516975402832 0.37936002016067504883 0.37245777249336242676 0.37128865718841552734 0.37341871857643127441 0.37969851493835449219 0.38179382681846618652 0.3835137784481048584 0.37360057234764099121 0.3600941002368927002 0.34710001945495605469 0.33908513188362121582 0.33594375848770141602 0.36000183224678039551 0.37996467947959899902 0.38775226473808288574 0.38735213875770568848 0.3810984194278717041 0.35850358009338378906 0.35138434171676635742 0.34462451934814453125 0.36108690500259399414 0.36336749792098999023 0.36722344160079956055 0.37292554974555969238 0.36157235503196716309 0.34635829925537109375 0.3436031639575958252 0.35318395495414733887 0.38196983933448791504 0.37339049577713012695 0.36950233578681945801 0.36143636703491210938 0.34987288713455200195 0.34893092513084411621 0.34418049454689025879 0.34159508347511291504 0.35640227794647216797 0.34864944219589233398 0.32602286338806152344 0.30846390128135681152 0.32564648985862731934 0.33348152041435241699 0.31228369474411010742 0.2555275261402130127 0.1817207038402557373 0.12328769266605377197 0.11233650892972946167 0.15667954087257385254 0.27257797122001647949 0.32983630895614624023 0.34483939409255981445 0.35284262895584106445 0.34246075153350830078 0.33933669328689575195 0.32328316569328308105 0.29420125484466552734 0.3020248711109161377 0.33416095376014709473 0.33991777896881103516 0.3489411771297454834 0.35391417145729064941 0.3447074592113494873 0.34304291009902954102 0.34360030293464660645 0.33412814140319824219 0.28669765591621398926 0.2096395641565322876 0.16553935408592224121 0.14973276853561401367 0.25559821724891662598 0.30896684527397155762 0.31406015157699584961 0.32926100492477416992 0.33981940150260925293 0.34342634677886962891 0.34249711036682128906 0.34838098287582397461 0.3551311790943145752 0.36038038134574890137 0.36714512109756469727 0.38510081171989440918 0.39354184269905090332 0.40010818839073181152 0.38660702109336853027 0.40803828835487365723 0.42732462286949157715 0.38338500261306762695 0.35001397132873535156 0.32618314027786254883 0.3063793480396270752 0.28771123290061950684 0.30989441275596618652 0.32063898444175720215 0.35266309976577758789 0.36556404829025268555 0.36467900872230529785 0.37173673510551452637 
nan 0.3463573753833770752 0.32174104452133178711 0.24611847102642059326 0.23943890631198883057 0.31641554832458496094 0.35723039507865905762 0.35729229450225830078 0.3488725125789642334 0.34416818618774414063 0.33044156432151794434 0.3310292661190032959 0.32884019613265991211 0.34772357344627380371 0.35497698187828063965 0.31382700800895690918 0.32822385430335998535 0.34841316938400268555 0.33338376879692077637 0.29962328076362609863 0.32892912626266479492 0.34943020343780517578 0.33617931604385375977 0.33190751075744628906 0.32046711444854736328 0.33193606138229370117 0.34877768158912658691 0.34425124526023864746 0.36327674984931945801 0.35733279585838317871 0.35221692919731140137 0.35261321067810058594 0.3632208406925201416 0.36832454800605773926 0.3573786616325378418 0.36528569459915161133 0.37118676304817199707 0.37439525127410888672 0.36487874388694763184 0.35831838846206665039 0.36901402473449707031 0.3841940462589263916 0.38799104094505310059 0.38578572869300842285 0.35100790858268737793 0.33264622092247009277 0.34359723329544067383 0.3601525723934173584 0.37237617373466491699 0.38525941967964172363 0.3835195004940032959 0.38666045665740966797 0.388347625732421875 0.3776473701000213623 0.37003916501998901367 0.38144484162330627441 0.38238120079040527344 0.37578859925270080566 0.37036252021789550781 0.36901104450225830078 0.36201918125152587891 0.37547215819358825684 0.37772819399833679199 0.36425194144248962402 0.37279412150382995605 0.38271528482437133789 0.38650307059288024902 0.39309173822402954102 0.37623038887977600098 0.38633361458778381348 0.37852948904037475586 0.37574359774589538574 0.37196522951126098633 0.36869087815284729004 0.36718511581420898438 0.3587976992130279541 0.3639195859432220459 0.37857818603515625 0.38135954737663269043 0.38337638974189758301 0.37610262632369995117 0.37167626619338989258 0.37399962544441223145 0.35758000612258911133 0.35276430845260620117 0.37261158227920532227 0.38623011112213134766 0.38982781767845153809 0.38095402717590332031 0.35406652092933654785 0.34142422676086425781 0.35273274779319763184 0.35349956154823303223 0.35003963112831115723 0.35384610295295715332 0.35494455695152282715 0.34019842743873596191 0.28796038031578063965 0.30991631746292114258 0.35267290472984313965 0.38222497701644897461 0.37721276283264160156 0.37659671902656555176 0.36998483538627624512 0.36213651299476623535 0.35791307687759399414 0.35410994291305541992 0.34624427556991577148 0.3520609736442565918 0.35165613889694213867 0.3413467109203338623 0.32620552182197570801 0.3434460759162902832 0.34279552102088928223 0.33228662610054016113 0.29873365163803100586 0.2731749117374420166 0.17676696181297302246 0.091699764132499694824 0.12545393407344818115 0.24401786923408508301 0.3257961571216583252 0.33547076582908630371 0.33514374494552612305 0.33095461130142211914 0.33774554729461669922 0.36013770103454589844 0.35745179653167724609 0.34840914607048034668 0.33072000741958618164 0.33185890316963195801 0.34725591540336608887 0.35737437009811401367 0.35337367653846740723 0.35332277417182922363 0.34793925285339355469 0.32894629240036010742 0.29214391112327575684 0.27303084731101989746 0.23416407406330108643 0.12142810225486755371 0.1816059798002243042 0.27698346972465515137 0.28352123498916625977 0.32049974799156188965 0.33404690027236938477 0.32459777593612670898 0.33146363496780395508 0.33946618437767028809 0.34913086891174316406 0.34984722733497619629 0.34898877143859863281 0.35043880343437194824 0.38576415181159973145 0.41877651214599609375 0.42126101255416870117 0.42052420973777770996 0.40047627687454223633 0.36084836721420288086 0.3533948063850402832 0.30567780137062072754 0.27218306064605712891 0.30316704511642456055 0.28843924403190612793 0.28688424825668334961 0.32968688011169433594 0.35839629173278808594 0.35933488607406616211 0.3593629002571105957 
nan 0.35490104556083679199 0.34529092907905578613 0.26892033219337463379 0.24114397168159484863 0.29563215374946594238 0.35363176465034484863 0.36328756809234619141 0.35227230191230773926 0.33581867814064025879 0.32977363467216491699 0.33775556087493896484 0.34236598014831542969 0.34222820401191711426 0.34976938366889953613 0.30163139104843139648 0.31860020756721496582 0.32979765534400939941 0.30910170078277587891 0.29708251357078552246 0.32884904742240905762 0.34182798862457275391 0.32954031229019165039 0.33609282970428466797 0.32184121012687683105 0.32115548849105834961 0.32706370949745178223 0.34566074609756469727 0.36872091889381408691 0.37331989407539367676 0.37070426344871520996 0.36005941033363342285 0.35288816690444946289 0.35470211505889892578 0.35506543517112731934 0.36318245530128479004 0.36663994193077087402 0.37306112051010131836 0.36604529619216918945 0.35801467299461364746 0.36003753542900085449 0.36607447266578674316 0.37526276707649230957 0.36732968688011169434 0.35619434714317321777 0.33592587709426879883 0.33639791607856750488 0.34720894694328308105 0.37811928987503051758 0.38290885090827941895 0.37157559394836425781 0.35754099488258361816 0.36312702298164367676 0.36394560337066650391 0.36352002620697021484 0.38388514518737792969 0.3984946906566619873 0.38475593924522399902 0.3749822080135345459 0.36043858528137207031 0.35223233699798583984 0.36748561263084411621 0.37383890151977539063 0.36455124616622924805 0.36345154047012329102 0.36496156454086303711 0.38134276866912841797 0.3975130915641784668 0.38451707363128662109 0.38724213838577270508 0.3812020719051361084 0.38269570469856262207 0.37084016203880310059 0.35968294739723205566 0.35061970353126525879 0.34651964902877807617 0.36741816997528076172 0.38529956340789794922 0.38416120409965515137 0.38183373212814331055 0.38061475753784179688 0.37968364357948303223 0.37745645642280578613 0.36692520976066589355 0.35947903990745544434 0.36648771166801452637 0.3736355900764465332 0.39154249429702758789 0.38202407956123352051 0.36645045876502990723 0.35107788443565368652 0.35493448376655578613 0.34543204307556152344 0.34720838069915771484 0.35472717881202697754 0.34512016177177429199 0.333911895751953125 0.29625156521797180176 0.32496336102485656738 0.351879119873046875 0.3721853792667388916 0.37464910745620727539 0.36961948871612548828 0.37268337607383728027 0.36385223269462585449 0.35769179463386535645 0.36264479160308837891 0.34648784995079040527 0.34631842374801635742 0.33967331051826477051 0.33318245410919189453 0.32123985886573791504 0.33805638551712036133 0.34313851594924926758 0.33686247467994689941 0.31992167234420776367 0.29059693217277526855 0.22687438130378723145 0.1143207550048828125 0.11997392773628234863 0.21884399652481079102 0.31406128406524658203 0.31652271747589111328 0.32291129231452941895 0.34184956550598144531 0.35589674115180969238 0.38274243474006652832 0.36430776119232177734 0.33811837434768676758 0.32032343745231628418 0.32900291681289672852 0.34096351265907287598 0.35295826196670532227 0.34009715914726257324 0.33678293228149414063 0.33393642306327819824 0.32924425601959228516 0.32697579264640808105 0.31896519660949707031 0.25273060798645019531 0.092807821929454803467 0.12328533083200454712 0.26243668794631958008 0.28832164406776428223 0.33564826846122741699 0.32874080538749694824 0.32880333065986633301 0.33359009027481079102 0.3442166447639465332 0.35092285275459289551 0.34694281220436096191 0.35019487142562866211 0.34961047768592834473 0.39001855254173278809 0.41367700695991516113 0.40887737274169921875 0.39829412102699279785 0.38628941774368286133 0.34844306111335754395 0.33971098065376281738 0.29391896724700927734 0.30427211523056030273 0.30832397937774658203 0.28212836384773254395 0.27528205513954162598 0.30805328488349914551 0.34341233968734741211 0.3570887148380279541 0.34909400343894958496 
nan 0.34649205207824707031 0.34273731708526611328 0.30941686034202575684 0.24224969744682312012 0.2487427443265914917 0.27991259098052978516 0.33144816756248474121 0.3379230201244354248 0.32975095510482788086 0.3221480250358581543 0.34465020895004272461 0.34541982412338256836 0.34231659770011901855 0.35008904337882995605 0.33505722880363464355 0.31622874736785888672 0.3020388185977935791 0.30918613076210021973 0.33073419332504272461 0.35134217143058776855 0.35288217663764953613 0.34311658143997192383 0.34280663728713989258 0.33208051323890686035 0.31174209713935852051 0.32790857553482055664 0.34550020098686218262 0.35868164896965026855 0.36282989382743835449 0.36313265562057495117 0.36571717262268066406 0.36257386207580566406 0.35629928112030029297 0.36859875917434692383 0.36385440826416015625 0.36599385738372802734 0.3665497899055480957 0.36713239550590515137 0.35697346925735473633 0.32819950580596923828 0.3053461611270904541 0.33588907122611999512 0.36168810725212097168 0.34831583499908447266 0.33490261435508728027 0.32179039716720581055 0.3411419987678527832 0.35443910956382751465 0.34072154760360717773 0.35054326057434082031 0.36086058616638183594 0.36531439423561096191 0.36228021979331970215 0.35322073101997375488 0.3497791588306427002 0.36450847983360290527 0.36740341782569885254 0.36003345251083374023 0.35738742351531982422 0.3467210233211517334 0.35648244619369506836 0.36897438764572143555 0.36345422267913818359 0.36118724942207336426 0.35667213797569274902 0.38155689835548400879 0.38954126834869384766 0.37598806619644165039 0.37616556882858276367 0.38681444525718688965 0.3832009732723236084 0.36844986677169799805 0.35609397292137145996 0.35582432150840759277 0.35282981395721435547 0.36019730567932128906 0.38016378879547119141 0.37883916497230529785 0.38797008991241455078 0.38020494580268859863 0.36457192897796630859 0.3533293306827545166 0.34585183858871459961 0.35624244809150695801 0.36199688911437988281 0.37262675166130065918 0.37890067696571350098 0.37496998906135559082 0.35967814922332763672 0.35274893045425415039 0.33997839689254760742 0.3314196467399597168 0.32637825608253479004 0.32232365012168884277 0.30465832352638244629 0.2736613154411315918 0.27966925501823425293 0.32542902231216430664 0.34530684351921081543 0.36882886290550231934 0.37623474001884460449 0.37813770771026611328 0.38112232089042663574 0.37324276566505432129 0.36774593591690063477 0.36637711524963378906 0.36321651935577392578 0.35274752974510192871 0.32276800274848937988 0.31304448843002319336 0.32776793837547302246 0.34456500411033630371 0.34358733892440795898 0.34958595037460327148 0.34289953112602233887 0.31223341822624206543 0.25313556194305419922 0.14127777516841888428 0.12040388584136962891 0.23131830990314483643 0.30156695842742919922 0.3242537379264831543 0.33293512463569641113 0.34102851152420043945 0.34834432601928710938 0.36286428570747375488 0.35277092456817626953 0.33574935793876647949 0.34475612640380859375 0.34589803218841552734 0.34337630867958068848 0.34365004301071166992 0.33188012242317199707 0.32701477408409118652 0.32550704479217529297 0.33696100115776062012 0.33582338690757751465 0.31634211540222167969 0.23719079792499542236 0.10214657336473464966 0.10513732582330703735 0.21514447033405303955 0.26290237903594970703 0.31452420353889465332 0.32138144969940185547 0.33207839727401733398 0.34321549534797668457 0.34722125530242919922 0.34385341405868530273 0.34574675559997558594 0.34879288077354431152 0.35969853401184082031 0.37869277596473693848 0.40796312689781188965 0.41053178906440734863 0.39935654401779174805 0.37740191817283630371 0.3491865992546081543 0.33248877525329589844 0.28234595060348510742 0.31294319033622741699 0.32243144512176513672 0.31137409806251525879 0.30560499429702758789 0.31895524263381958008 0.34390214085578918457 0.36275967955589294434 0.36272069811820983887 
nan 0.35513922572135925293 0.34164306521415710449 0.32728436589241027832 0.2551746666431427002 0.23347362875938415527 0.25782114267349243164 0.31770208477973937988 0.34159460663795471191 0.34368002414703369141 0.34707817435264587402 0.3510863184928894043 0.34495073556900024414 0.35948669910430908203 0.35806423425674438477 0.34614223241806030273 0.34678095579147338867 0.34391751885414123535 0.31272643804550170898 0.32486012578010559082 0.35782936215400695801 0.35934823751449584961 0.35059022903442382813 0.34068372845649719238 0.33239230513572692871 0.31343936920166015625 0.32469359040260314941 0.3412596285343170166 0.3470153510570526123 0.36149069666862487793 0.35724630951881408691 0.35168245434761047363 0.33713135123252868652 0.34015563130378723145 0.36402335762977600098 0.36522060632705688477 0.37174999713897705078 0.35461598634719848633 0.37205195426940917969 0.35888054966926574707 0.26133227348327636719 0.21948619186878204346 0.293727874755859375 0.33802318572998046875 0.3175023496150970459 0.33130052685737609863 0.32404762506484985352 0.34713152050971984863 0.34438562393188476563 0.33346146345138549805 0.34028646349906921387 0.34754416346549987793 0.35574159026145935059 0.34588414430618286133 0.34486207365989685059 0.33392730355262756348 0.33128574490547180176 0.35703566670417785645 0.35784581303596496582 0.34954813122749328613 0.32391402125358581543 0.34010720252990722656 0.35504496097564697266 0.36916950345039367676 0.3775787055492401123 0.37905895709991455078 0.38366180658340454102 0.37594980001449584961 0.35236284136772155762 0.3394654691219329834 0.36567071080207824707 0.37547668814659118652 0.35793098807334899902 0.36672738194465637207 0.37551733851432800293 0.36932811141014099121 0.36670339107513427734 0.36951431632041931152 0.37094464898109436035 0.3753553926944732666 0.37512031197547912598 0.36483994126319885254 0.36261120438575744629 0.35995084047317504883 0.35662114620208740234 0.34805965423583984375 0.35147178173065185547 0.3655993044376373291 0.36188274621963500977 0.3552856147289276123 0.36343705654144287109 0.35817152261734008789 0.3445193171501159668 0.31204536557197570801 0.29053553938865661621 0.2595049738883972168 0.20656068623065948486 0.18142141401767730713 0.23710437119007110596 0.30615419149398803711 0.36019289493560791016 0.37217319011688232422 0.38267657160758972168 0.38227355480194091797 0.37709608674049377441 0.37769502401351928711 0.37419196963310241699 0.36150372028350830078 0.35641092061996459961 0.3319473564624786377 0.32877868413925170898 0.34833532571792602539 0.35604774951934814453 0.35165628790855407715 0.34397014975547790527 0.34083816409111022949 0.31002372503280639648 0.22480615973472595215 0.14032602310180664063 0.12344131618738174438 0.2185935676097869873 0.27815270423889160156 0.30168700218200683594 0.31589072942733764648 0.31957137584686279297 0.33697640895843505859 0.34110489487648010254 0.34387406706809997559 0.34569734334945678711 0.34091871976852416992 0.3453610539436340332 0.34601247310638427734 0.34015190601348876953 0.34072756767272949219 0.32632467150688171387 0.32375389337539672852 0.33697813749313354492 0.33549591898918151855 0.31846851110458374023 0.28737971186637878418 0.18227501213550567627 0.084801122546195983887 0.13904832303524017334 0.21479327976703643799 0.27931496500968933105 0.32012641429901123047 0.33098497986793518066 0.35171207785606384277 0.34966307878494262695 0.35531195998191833496 0.33224895596504211426 0.33321171998977661133 0.35308191180229187012 0.3658656775951385498 0.40387970209121704102 0.43326446413993835449 0.42543867230415344238 0.3785533607006072998 0.35373732447624206543 0.34077557921409606934 0.27417990565299987793 0.31288909912109375 0.33371073007583618164 0.33634525537490844727 0.32258066534996032715 0.32078960537910461426 0.34249708056449890137 0.36285585165023803711 0.37532830238342285156 
nan 0.33289003372192382813 0.33736079931259155273 0.33715325593948364258 0.31339749693870544434 0.30143362283706665039 0.2892831265926361084 0.28577756881713867188 0.32828530669212341309 0.34730157256126403809 0.35388296842575073242 0.34616521000862121582 0.34259140491485595703 0.32782399654388427734 0.32727658748626708984 0.3075771629810333252 0.32907953858375549316 0.34358263015747070313 0.32660630345344543457 0.32873773574829101563 0.35511147975921630859 0.35902455449104309082 0.35224410891532897949 0.34100738167762756348 0.33475825190544128418 0.32427200675010681152 0.32185542583465576172 0.32881534099578857422 0.33576589822769165039 0.35038051009178161621 0.34657633304595947266 0.34787672758102416992 0.35230526328086853027 0.34211328625679016113 0.35963043570518493652 0.36873671412467956543 0.37644174695014953613 0.35922694206237792969 0.35728013515472412109 0.3446026146411895752 0.28040450811386108398 0.26057210564613342285 0.28471216559410095215 0.32906702160835266113 0.34402754902839660645 0.34461808204650878906 0.33674988150596618652 0.33062991499900817871 0.33415585756301879883 0.34517467021942138672 0.35887870192527770996 0.35816982388496398926 0.3248844444751739502 0.32136684656143188477 0.33864733576774597168 0.33725711703300476074 0.33877250552177429199 0.34859034419059753418 0.35856387019157409668 0.36015281081199645996 0.33399140834808349609 0.34430077672004699707 0.35950586199760437012 0.36561703681945800781 0.36908113956451416016 0.38110172748565673828 0.38698127865791320801 0.37950593233108520508 0.3752377927303314209 0.37544015049934387207 0.3786633610725402832 0.37371566891670227051 0.36499682068824768066 0.37295439839363098145 0.38562694191932678223 0.38303786516189575195 0.37340274453163146973 0.37314146757125854492 0.37305527925491333008 0.37189960479736328125 0.3757152557373046875 0.37528768181800842285 0.37316942214965820313 0.35996612906455993652 0.34844183921813964844 0.34842154383659362793 0.33965182304382324219 0.34640100598335266113 0.35236960649490356445 0.35661363601684570313 0.36376598477363586426 0.35864841938018798828 0.34836483001708984375 0.32668158411979675293 0.28323248028755187988 0.24590563774108886719 0.19086866080760955811 0.18200416862964630127 0.21461601555347442627 0.26195117831230163574 0.34038674831390380859 0.35862106084823608398 0.36404806375503540039 0.37443050742149353027 0.37958836555480957031 0.37556803226470947266 0.37910303473472595215 0.37115484476089477539 0.35516607761383056641 0.34252777695655822754 0.36221191287040710449 0.35855019092559814453 0.34714394807815551758 0.34528800845146179199 0.34675589203834533691 0.31834837794303894043 0.30759313702583312988 0.22960825264453887939 0.125250205397605896 0.10397362709045410156 0.18500785529613494873 0.26267999410629272461 0.30987638235092163086 0.30579271912574768066 0.30092135071754455566 0.32349759340286254883 0.33496466279029846191 0.33276456594467163086 0.35022681951522827148 0.34427925944328308105 0.33869686722755432129 0.3440049588680267334 0.34678718447685241699 0.34514924883842468262 0.31934186816215515137 0.31799259781837463379 0.32157120108604431152 0.32043606042861938477 0.30958533287048339844 0.27604970335960388184 0.17853140830993652344 0.08165585249662399292 0.095016568899154663086 0.15601812303066253662 0.25160399079322814941 0.32714688777923583984 0.32039079070091247559 0.32862931489944458008 0.34292966127395629883 0.34137174487113952637 0.33555179834365844727 0.33133488893508911133 0.35613155364990234375 0.36039313673973083496 0.37760865688323974609 0.42175662517547607422 0.42515096068382263184 0.38756605982780456543 0.34974303841590881348 0.34450998902320861816 0.29955261945724487305 0.28745627403259277344 0.32195237278938293457 0.3202260136604309082 0.32280293107032775879 0.32161927223205566406 0.33603304624557495117 0.34835919737815856934 0.36121639609336853027 
nan 0.32681357860565185547 0.3168201744556427002 0.33443209528923034668 0.3214340507984161377 0.30240154266357421875 0.27739706635475158691 0.27604663372039794922 0.31880399584770202637 0.33587318658828735352 0.33474692702293395996 0.32435807585716247559 0.33943572640419006348 0.32646486163139343262 0.32163611054420471191 0.32204225659370422363 0.32964092493057250977 0.33331146836280822754 0.3194116055965423584 0.33234810829162597656 0.35473805665969848633 0.34638234972953796387 0.3442847132682800293 0.34719651937484741211 0.34315377473831176758 0.3278420865535736084 0.32261803746223449707 0.33366906642913818359 0.3427200019359588623 0.35280486941337585449 0.35734674334526062012 0.36485582590103149414 0.36335030198097229004 0.34775626659393310547 0.34468749165534973145 0.36280199885368347168 0.35848838090896606445 0.35366192460060119629 0.3574517369270324707 0.35126280784606933594 0.35569667816162109375 0.36585375666618347168 0.35538947582244873047 0.34389105439186096191 0.35959625244140625 0.36825466156005859375 0.36248067021369934082 0.34678199887275695801 0.32855573296546936035 0.34090182185173034668 0.35479849576950073242 0.35532161593437194824 0.34816977381706237793 0.34815561771392822266 0.34890964627265930176 0.35388147830963134766 0.34441775083541870117 0.35345900058746337891 0.36134970188140869141 0.35835614800453186035 0.35037603974342346191 0.37260702252388000488 0.37456429004669189453 0.37340983748435974121 0.37271824479103088379 0.37887182831764221191 0.38060015439987182617 0.37912273406982421875 0.37126144766807556152 0.37772256135940551758 0.37820166349411010742 0.38009828329086303711 0.37744763493537902832 0.38341474533081054688 0.38746291399002075195 0.39406400918960571289 0.39184352755546569824 0.38971942663192749023 0.3821449577808380127 0.37146544456481933594 0.37242576479911804199 0.37260740995407104492 0.37344580888748168945 0.36549767851829528809 0.35600695013999938965 0.35040494799613952637 0.34239062666893005371 0.33753436803817749023 0.34557443857192993164 0.36014518141746520996 0.3687178492546081543 0.37364816665649414063 0.35517954826354980469 0.31782382726669311523 0.30644565820693969727 0.28281041979789733887 0.2287686467170715332 0.20014336705207824707 0.21621936559677124023 0.27816236019134521484 0.32641142606735229492 0.36029303073883056641 0.35635077953338623047 0.37627294659614562988 0.38268992304801940918 0.38894727826118469238 0.37647262215614318848 0.36495077610015869141 0.33339840173721313477 0.35077884793281555176 0.37046599388122558594 0.37978687882423400879 0.36656099557876586914 0.33907547593116760254 0.32305362820625305176 0.30948159098625183105 0.31450563669204711914 0.27174139022827148438 0.19820459187030792236 0.12174449115991592407 0.10487762093544006348 0.20776034891605377197 0.28638535737991333008 0.29366603493690490723 0.30258601903915405273 0.32816055417060852051 0.31570583581924438477 0.32384461164474487305 0.3406098783016204834 0.33265045285224914551 0.32214757800102233887 0.33096072077751159668 0.34095171093940734863 0.35091426968574523926 0.3535372316837310791 0.34264326095581054688 0.3383503258228302002 0.32941475510597229004 0.3011798858642578125 0.26835536956787109375 0.22217172384262084961 0.1223543509840965271 0.057001084089279174805 0.057353630661964416504 0.17304484546184539795 0.30101990699768066406 0.30706909298896789551 0.31521251797676086426 0.3371518552303314209 0.31340557336807250977 0.34240749478340148926 0.35671657323837280273 0.35537773370742797852 0.35884112119674682617 0.37123537063598632813 0.39381286501884460449 0.43974867463111877441 0.38907855749130249023 0.34167760610580444336 0.34391498565673828125 0.30750200152397155762 0.27152526378631591797 0.30407229065895080566 0.30591663718223571777 0.31783184409141540527 0.33683985471725463867 0.33890163898468017578 0.34155395627021789551 0.34878486394882202148 
nan 0.33276778459548950195 0.31922736763954162598 0.31122010946273803711 0.31201827526092529297 0.30798995494842529297 0.24996750056743621826 0.22975844144821166992 0.27511611580848693848 0.29501610994338989258 0.31955760717391967773 0.29637837409973144531 0.30340102314949035645 0.31582394242286682129 0.33720833063125610352 0.3258355259895324707 0.3036899566650390625 0.30363222956657409668 0.30404809117317199707 0.3497053682804107666 0.35449042916297912598 0.33786979317665100098 0.33320471644401550293 0.35160660743713378906 0.34721544384956359863 0.3214594721794128418 0.32411271333694458008 0.32408159971237182617 0.32476991415023803711 0.34166878461837768555 0.34866264462471008301 0.35532724857330322266 0.34912377595901489258 0.3265323638916015625 0.33714455366134643555 0.35289329290390014648 0.36893254518508911133 0.37754771113395690918 0.37566322088241577148 0.373157501220703125 0.37216004729270935059 0.37900376319885253906 0.3754787445068359375 0.37158665060997009277 0.38660755753517150879 0.37956297397613525391 0.36403250694274902344 0.36565023660659790039 0.32878914475440979004 0.34851920604705810547 0.37544330954551696777 0.37736779451370239258 0.3662808537483215332 0.34239971637725830078 0.34809213876724243164 0.37077212333679199219 0.34652033448219299316 0.34506738185882568359 0.35092777013778686523 0.36229670047760009766 0.37563824653625488281 0.39515513181686401367 0.38738128542900085449 0.38364994525909423828 0.357837677001953125 0.36372905969619750977 0.37488219141960144043 0.3754374086856842041 0.3664849400520324707 0.36373198032379150391 0.37559357285499572754 0.38052195310592651367 0.38392218947410583496 0.38580331206321716309 0.38629615306854248047 0.37952667474746704102 0.38298746943473815918 0.37446242570877075195 0.37914872169494628906 0.37426954507827758789 0.37699392437934875488 0.37553334236145019531 0.3699074089527130127 0.36346939206123352051 0.3591073453426361084 0.3564389348030090332 0.34563040733337402344 0.34490993618965148926 0.34610018134117126465 0.36098328232765197754 0.36785039305686950684 0.36201402544975280762 0.34566414356231689453 0.32528710365295410156 0.32793289422988891602 0.31408283114433288574 0.25764757394790649414 0.22898633778095245361 0.23916016519069671631 0.28920292854309082031 0.32045462727546691895 0.35841298103332519531 0.36079460382461547852 0.36901754140853881836 0.37917765974998474121 0.38315397500991821289 0.37100231647491455078 0.36229985952377319336 0.34454977512359619141 0.35834845900535583496 0.37140545248985290527 0.37603926658630371094 0.36651006340980529785 0.35319703817367553711 0.33702263236045837402 0.31651872396469116211 0.30857080221176147461 0.27305641770362854004 0.22631919384002685547 0.17728860676288604736 0.11502103507518768311 0.13327457010746002197 0.2121257483959197998 0.27446335554122924805 0.29911136627197265625 0.3181527256965637207 0.30210629105567932129 0.3186416327953338623 0.33780610561370849609 0.33482012152671813965 0.32709282636642456055 0.31583610177040100098 0.32755061984062194824 0.35087895393371582031 0.35288456082344055176 0.34737130999565124512 0.34187409281730651855 0.34079346060752868652 0.3146228790283203125 0.27961933612823486328 0.25682568550109863281 0.18191789090633392334 0.078540883958339691162 0.052408937364816665649 0.13417702913284301758 0.28402027487754821777 0.30944836139678955078 0.32406461238861083984 0.34363675117492675781 0.31281420588493347168 0.33126929402351379395 0.35822513699531555176 0.34846532344818115234 0.34993374347686767578 0.35708305239677429199 0.37967383861541748047 0.42230516672134399414 0.36108222603797912598 0.33576944470405578613 0.33609035611152648926 0.32042220234870910645 0.29555729031562805176 0.29036158323287963867 0.2900771796703338623 0.3259322047233581543 0.34097069501876831055 0.33768087625503540039 0.3337148129940032959 0.34015446901321411133 
nan 0.3446261286735534668 0.32284954190254211426 0.3055401146411895752 0.31813639402389526367 0.31437611579895019531 0.25414481759071350098 0.22677180171012878418 0.26224637031555175781 0.28265771269798278809 0.29353299736976623535 0.29110676050186157227 0.30739828944206237793 0.30610564351081848145 0.33919787406921386719 0.3154246211051940918 0.32205620408058166504 0.34759688377380371094 0.35328426957130432129 0.35309937596321105957 0.34347927570343017578 0.31982761621475219727 0.32515677809715270996 0.34439522027969360352 0.343608856201171875 0.32429361343383789063 0.33112126588821411133 0.33337450027465820313 0.3155823051929473877 0.31837037205696105957 0.33438155055046081543 0.34297314286231994629 0.34585586190223693848 0.35551583766937255859 0.35680353641510009766 0.36821842193603515625 0.37446811795234680176 0.38755506277084350586 0.3881187736988067627 0.38516750931739807129 0.39657327532768249512 0.3970730900764465332 0.39221933484077453613 0.37977045774459838867 0.39245933294296264648 0.39092838764190673828 0.39047354459762573242 0.39190232753753662109 0.33555588126182556152 0.33949670195579528809 0.36510491371154785156 0.38911607861518859863 0.3765087425708770752 0.3630873560905456543 0.37628853321075439453 0.37695115804672241211 0.34746369719505310059 0.34270003437995910645 0.35466122627258300781 0.36669129133224487305 0.36337161064147949219 0.37702149152755737305 0.37453037500381469727 0.37633118033409118652 0.35626786947250366211 0.3585643768310546875 0.36941793560981750488 0.37767428159713745117 0.37870904803276062012 0.37596073746681213379 0.37492048740386962891 0.37762677669525146484 0.38664448261260986328 0.3868395686149597168 0.38416180014610290527 0.37153699994087219238 0.37377604842185974121 0.34937050938606262207 0.35877466201782226563 0.37369069457054138184 0.372661590576171875 0.37146291136741638184 0.36865529417991638184 0.36176815629005432129 0.35228615999221801758 0.35031691193580627441 0.34366744756698608398 0.34357091784477233887 0.34491991996765136719 0.35406044125556945801 0.35767385363578796387 0.35014110803604125977 0.33945006132125854492 0.33965817093849182129 0.33817157149314880371 0.31188091635704040527 0.28910177946090698242 0.29731467366218566895 0.27934992313385009766 0.30960583686828613281 0.31747639179229736328 0.30808186531066894531 0.34841060638427734375 0.36610245704650878906 0.36786881089210510254 0.35291457176208496094 0.34808772802352905273 0.34415060281753540039 0.35170251131057739258 0.36963298916816711426 0.37333187460899353027 0.36373293399810791016 0.35023367404937744141 0.31778064370155334473 0.29873508214950561523 0.31692281365394592285 0.31367516517639160156 0.29174372553825378418 0.32699692249298095703 0.33877542614936828613 0.25457081198692321777 0.15348629653453826904 0.13424061238765716553 0.23653553426265716553 0.29516097903251647949 0.29893738031387329102 0.30474963784217834473 0.30980005860328674316 0.31320589780807495117 0.33820861577987670898 0.34333691000938415527 0.33970865607261657715 0.33884635567665100098 0.3491503298282623291 0.34395465254783630371 0.34001266956329345703 0.33809518814086914063 0.3349100649356842041 0.32509595155715942383 0.29412415623664855957 0.27221828699111938477 0.19483780860900878906 0.090268813073635101318 0.077204309403896331787 0.096359960734844207764 0.2274726182222366333 0.29281023144721984863 0.30844047665596008301 0.34582018852233886719 0.33828258514404296875 0.34182602167129516602 0.36036443710327148438 0.36555650830268859863 0.38244274258613586426 0.41056716442108154297 0.40443575382232666016 0.38192251324653625488 0.35964697599411010742 0.34165921807289123535 0.33404240012168884277 0.32495349645614624023 0.30923044681549072266 0.27767333388328552246 0.30713662505149841309 0.33453470468521118164 0.34408202767372131348 0.34382894635200500488 0.34146201610565185547 0.35258600115776062012 
nan 0.34459602832794189453 0.33133292198181152344 0.31849184632301330566 0.30588766932487487793 0.29909271001815795898 0.27630385756492614746 0.27364251017570495605 0.2952658534049987793 0.28537574410438537598 0.27605745196342468262 0.26841750741004943848 0.33554828166961669922 0.36466217041015625 0.34997549653053283691 0.31498324871063232422 0.34940597414970397949 0.36308044195175170898 0.36636275053024291992 0.35254904627799987793 0.33799880743026733398 0.32950615882873535156 0.32802727818489074707 0.32340839505195617676 0.31832525134086608887 0.31270560622215270996 0.32894048094749450684 0.34490531682968139648 0.32106029987335205078 0.31322532892227172852 0.33438757061958312988 0.35792124271392822266 0.34439584612846374512 0.3600145876407623291 0.36686480045318603516 0.37150692939758300781 0.36161527037620544434 0.37426671385765075684 0.38810873031616210938 0.38540831208229064941 0.3823878169059753418 0.39090201258659362793 0.38883456587791442871 0.37989544868469238281 0.37912797927856445313 0.38979804515838623047 0.40510904788970947266 0.39482405781745910645 0.34294879436492919922 0.35841682553291320801 0.37337514758110046387 0.38790291547775268555 0.38857701420783996582 0.38175615668296813965 0.37173742055892944336 0.3658002018928527832 0.35893762111663818359 0.35377657413482666016 0.35654291510581970215 0.36347892880439758301 0.36335641145706176758 0.35610911250114440918 0.3580493628978729248 0.37234693765640258789 0.35238870978355407715 0.35652071237564086914 0.36128765344619750977 0.37643632292747497559 0.38730922341346740723 0.38458406925201416016 0.37186309695243835449 0.37035599350929260254 0.38280314207077026367 0.38952273130416870117 0.39141133427619934082 0.37203827500343322754 0.36811375617980957031 0.36645537614822387695 0.36738497018814086914 0.37603780627250671387 0.37545403838157653809 0.36643192172050476074 0.35748791694641113281 0.35971435904502868652 0.34814915060997009277 0.34720876812934875488 0.33731377124786376953 0.33967998623847961426 0.34938612580299377441 0.35205772519111633301 0.35224393010139465332 0.34579062461853027344 0.33723530173301696777 0.35029932856559753418 0.34865936636924743652 0.32185336947441101074 0.31851503252983093262 0.32463514804840087891 0.30249983072280883789 0.32576403021812438965 0.31662237644195556641 0.27199181914329528809 0.2703793942928314209 0.32238510251045227051 0.35514944791793823242 0.35814824700355529785 0.34769672155380249023 0.34488910436630249023 0.35456630587577819824 0.37165528535842895508 0.36749297380447387695 0.36248278617858886719 0.35678142309188842773 0.35401043295860290527 0.33863836526870727539 0.3290653228759765625 0.31493151187896728516 0.31223139166831970215 0.36747020483016967773 0.34976544976234436035 0.27635645866394042969 0.21196436882019042969 0.14713165163993835449 0.23555572330951690674 0.30603197216987609863 0.3119564354419708252 0.31192743778228759766 0.31124669313430786133 0.32187193632125854492 0.34299591183662414551 0.33130812644958496094 0.31545400619506835938 0.3278700709342956543 0.34390139579772949219 0.33183372020721435547 0.32746943831443786621 0.33103340864181518555 0.33061259984970092773 0.32986113429069519043 0.30571579933166503906 0.28037491440773010254 0.20614567399024963379 0.10572611540555953979 0.10007921606302261353 0.09492603689432144165 0.21206732094287872314 0.29547679424285888672 0.31054231524467468262 0.34035214781761169434 0.35022833943367004395 0.35243135690689086914 0.3664626777172088623 0.38649442791938781738 0.41357538104057312012 0.3931350409984588623 0.36073035001754760742 0.34296470880508422852 0.34080472588539123535 0.32952585816383361816 0.31215775012969970703 0.25643962621688842773 0.2304884493350982666 0.27713146805763244629 0.3193970024585723877 0.34293487668037414551 0.35503083467483520508 0.34187611937522888184 0.33185172080993652344 0.33977836370468139648 
nan 0.33449971675872802734 0.33485484123229980469 0.32219079136848449707 0.30419397354125976563 0.31012308597564697266 0.29060813784599304199 0.25384685397148132324 0.23982971906661987305 0.24888773262500762939 0.24133463203907012939 0.21573729813098907471 0.29873040318489074707 0.34882807731628417969 0.32216793298721313477 0.31314137578010559082 0.36545354127883911133 0.36518040299415588379 0.36594220995903015137 0.35748898983001708984 0.35319492220878601074 0.3572483360767364502 0.34016782045364379883 0.33543539047241210938 0.32967910170555114746 0.32951197028160095215 0.32795318961143493652 0.34192854166030883789 0.33789628744125366211 0.30387270450592041016 0.2975597381591796875 0.3442687690258026123 0.36310252547264099121 0.36883705854415893555 0.36878097057342529297 0.35949155688285827637 0.3653799891471862793 0.35567611455917358398 0.36168584227561950684 0.36593610048294067383 0.36646991968154907227 0.37472903728485107422 0.38348788022994995117 0.38569620251655578613 0.3824640810489654541 0.38267412781715393066 0.40100848674774169922 0.39986684918403625488 0.3601798713207244873 0.36136841773986816406 0.38174799084663391113 0.39255112409591674805 0.39190536737442016602 0.36992508172988891602 0.36501547694206237793 0.37168654799461364746 0.3601125180721282959 0.36582082509994506836 0.3686389625072479248 0.35168409347534179688 0.34595090150833129883 0.34169995784759521484 0.34054937958717346191 0.34028849005699157715 0.35844409465789794922 0.36544245481491088867 0.36246356368064880371 0.3647149503231048584 0.37244063615798950195 0.37118160724639892578 0.36902585625648498535 0.3824526667594909668 0.38597068190574645996 0.38020864129066467285 0.37651038169860839844 0.37474495172500610352 0.37666440010070800781 0.37749528884887695313 0.36323386430740356445 0.36945262551307678223 0.36816939711570739746 0.35334226489067077637 0.3467082679271697998 0.35805854201316833496 0.35174363851547241211 0.34138238430023193359 0.35010299086570739746 0.36264201998710632324 0.35423946380615234375 0.35252222418785095215 0.35850003361701965332 0.35588505864143371582 0.35523843765258789063 0.35345038771629333496 0.34666225314140319824 0.3355464935302734375 0.35045328736305236816 0.34498751163482666016 0.31562513113021850586 0.30804944038391113281 0.33021244406700134277 0.3349902033805847168 0.33392295241355895996 0.34936174750328063965 0.35243490338325500488 0.35687467455863952637 0.35839322209358215332 0.34188765287399291992 0.35963398218154907227 0.36745396256446838379 0.36995938420295715332 0.36971512436866760254 0.36286103725433349609 0.36567270755767822266 0.34269514679908752441 0.32518690824508666992 0.32056626677513122559 0.3023694157600402832 0.30395945906639099121 0.31059426069259643555 0.2835114598274230957 0.2063325047492980957 0.13830432295799255371 0.19845901429653167725 0.29710590839385986328 0.3467572331428527832 0.35002857446670532227 0.34502613544464111328 0.33031219244003295898 0.32964378595352172852 0.33077648282051086426 0.32369023561477661133 0.33293235301971435547 0.34127503633499145508 0.34572082757949829102 0.33236271142959594727 0.31282448768615722656 0.32157605886459350586 0.30194783210754394531 0.29324054718017578125 0.2958119511604309082 0.26339441537857055664 0.13206890225410461426 0.075158067047595977783 0.13110387325286865234 0.23559056222438812256 0.28724524378776550293 0.30139911174774169922 0.32817891240119934082 0.32488435506820678711 0.32087227702140808105 0.33222302794456481934 0.35709118843078613281 0.35126540064811706543 0.34209749102592468262 0.33495318889617919922 0.33999708294868469238 0.3424199223518371582 0.32387632131576538086 0.29366591572761535645 0.25703713297843933105 0.26414340734481811523 0.27485606074333190918 0.31451344490051269531 0.34202596545219421387 0.34972649812698364258 0.32891136407852172852 0.32876491546630859375 0.33752340078353881836 
nan 0.31964662671089172363 0.32154572010040283203 0.33099898695945739746 0.31280824542045593262 0.30245926976203918457 0.3016217648983001709 0.24944840371608734131 0.22297333180904388428 0.22486032545566558838 0.21876321732997894287 0.19701837003231048584 0.27546790242195129395 0.31736239790916442871 0.30181178450584411621 0.3035335242748260498 0.33476692438125610352 0.35438385605812072754 0.36095255613327026367 0.35451450943946838379 0.35577112436294555664 0.3685868382453918457 0.35980579257011413574 0.35407158732414245605 0.33876147866249084473 0.33105373382568359375 0.31157281994819641113 0.31931042671203613281 0.33156684041023254395 0.33514362573623657227 0.33120426535606384277 0.32126346230506896973 0.34766671061515808105 0.37826034426689147949 0.37414285540580749512 0.35733890533447265625 0.34948176145553588867 0.33245691657066345215 0.34727960824966430664 0.36126795411109924316 0.36520609259605407715 0.3590170741081237793 0.36470299959182739258 0.37930226325988769531 0.38549247384071350098 0.38706532120704650879 0.39750725030899047852 0.4086748957633972168 0.36969339847564697266 0.34578117728233337402 0.35784897208213806152 0.38632822036743164063 0.39219173789024353027 0.36789989471435546875 0.36177805066108703613 0.3759186863899230957 0.36731195449829101563 0.37175151705741882324 0.37352389097213745117 0.35345506668090820313 0.35035231709480285645 0.35268494486808776855 0.34489235281944274902 0.32985609769821166992 0.35107538104057312012 0.35327923297882080078 0.35491260886192321777 0.36984497308731079102 0.3645026087760925293 0.37098115682601928711 0.38293924927711486816 0.38045278191566467285 0.38135534524917602539 0.37971448898315429688 0.37963658571243286133 0.35930195450782775879 0.37270820140838623047 0.39028286933898925781 0.38517349958419799805 0.38357782363891601563 0.37655305862426757813 0.36471900343894958496 0.35652011632919311523 0.3659496009349822998 0.35705581307411193848 0.3452739715576171875 0.35831850767135620117 0.37585586309432983398 0.36246421933174133301 0.35070398449897766113 0.35580527782440185547 0.36806377768516540527 0.35985410213470458984 0.35112905502319335938 0.33904889225959777832 0.3487288355827331543 0.3687102198600769043 0.36403173208236694336 0.35900226235389709473 0.34439203143119812012 0.33926275372505187988 0.35874548554420471191 0.34918871521949768066 0.35182771086692810059 0.34981286525726318359 0.36991459131240844727 0.36709961295127868652 0.34557545185089111328 0.36899891495704650879 0.36800694465637207031 0.37216782569885253906 0.3836135566234588623 0.36539453268051147461 0.34832727909088134766 0.3285973668098449707 0.31729426980018615723 0.31625360250473022461 0.30800923705101013184 0.29269680380821228027 0.30685716867446899414 0.27041211724281311035 0.16011819243431091309 0.13361883163452148438 0.19079023599624633789 0.30920431017875671387 0.34960782527923583984 0.35716417431831359863 0.36137017607688903809 0.34730061888694763184 0.32503560185432434082 0.31118795275688171387 0.31859067082405090332 0.34419265389442443848 0.34470978379249572754 0.32809880375862121582 0.32216867804527282715 0.33119940757751464844 0.33796703815460205078 0.32990738749504089355 0.31635639071464538574 0.32108005881309509277 0.29639288783073425293 0.1491657942533493042 0.08157358318567276001 0.12546098232269287109 0.22503080964088439941 0.2723865807056427002 0.29708060622215270996 0.3035545647144317627 0.31386730074882507324 0.32367700338363647461 0.33059132099151611328 0.34475907683372497559 0.35046440362930297852 0.34196078777313232422 0.33627977967262268066 0.35204604268074035645 0.3555724024772644043 0.25767821073532104492 0.24322330951690673828 0.24335910379886627197 0.22693073749542236328 0.25221118330955505371 0.30990579724311828613 0.33712947368621826172 0.33115243911743164063 0.32250311970710754395 0.31670278310775756836 0.32978579401969909668 
nan 0.33011469244956970215 0.32245540618896484375 0.3350238800048828125 0.33502301573753356934 0.30617991089820861816 0.30975431203842163086 0.28278642892837524414 0.24920026957988739014 0.23055830597877502441 0.20952081680297851563 0.16678217053413391113 0.22067034244537353516 0.25641867518424987793 0.27568238973617553711 0.29066029191017150879 0.32559701800346374512 0.35722827911376953125 0.36387813091278076172 0.3684749603271484375 0.35556021332740783691 0.34580919146537780762 0.34877526760101318359 0.34941187500953674316 0.34700933098793029785 0.3238563835620880127 0.30087560415267944336 0.29733109474182128906 0.32463029026985168457 0.34085834026336669922 0.34028896689414978027 0.31954306364059448242 0.33898094296455383301 0.36455166339874267578 0.36586540937423706055 0.37420573830604553223 0.36547860503196716309 0.35169106721878051758 0.36102777719497680664 0.37372848391532897949 0.36877670884132385254 0.34219455718994140625 0.33785593509674072266 0.36155226826667785645 0.37579551339149475098 0.37648969888687133789 0.38457980751991271973 0.39950212836265563965 0.37277111411094665527 0.33444604277610778809 0.33832752704620361328 0.36965757608413696289 0.37877118587493896484 0.36316570639610290527 0.35761809349060058594 0.36885046958923339844 0.36088839173316955566 0.36542138457298278809 0.36287617683410644531 0.34833633899688720703 0.37066644430160522461 0.36763486266136169434 0.3587684929370880127 0.33243492245674133301 0.35384401679039001465 0.34732100367546081543 0.3583247065544128418 0.37229868769645690918 0.35949209332466125488 0.37001454830169677734 0.37520086765289306641 0.36695003509521484375 0.36745393276214599609 0.36890420317649841309 0.37500289082527160645 0.36569741368293762207 0.36991491913795471191 0.38536208868026733398 0.39317664504051208496 0.38712477684020996094 0.37095975875854492188 0.36398044228553771973 0.35370808839797973633 0.33438608050346374512 0.35613641142845153809 0.36566781997680664063 0.3693796694278717041 0.36841180920600891113 0.35662978887557983398 0.35239440202713012695 0.35493794083595275879 0.36001592874526977539 0.35641881823539733887 0.35474213957786560059 0.35280051827430725098 0.35303384065628051758 0.37146982550621032715 0.37179127335548400879 0.36808288097381591797 0.35883036255836486816 0.33070927858352661133 0.35206705331802368164 0.34896057844161987305 0.35496795177459716797 0.35603666305541992188 0.37068158388137817383 0.36448726058006286621 0.34349465370178222656 0.36662149429321289063 0.37434583902359008789 0.37859085202217102051 0.37262558937072753906 0.35671594738960266113 0.31008580327033996582 0.29871159791946411133 0.31459036469459533691 0.30758449435234069824 0.29499024152755737305 0.29097720980644226074 0.29371902346611022949 0.25482758879661560059 0.14820121228694915771 0.14308696985244750977 0.21510297060012817383 0.31905069947242736816 0.33495402336120605469 0.34659811854362487793 0.35913392901420593262 0.35009795427322387695 0.33181113004684448242 0.30582064390182495117 0.31017038226127624512 0.32964074611663818359 0.34189885854721069336 0.34120705723762512207 0.33503991365432739258 0.33161306381225585938 0.34011116623878479004 0.33357310295104980469 0.32237038016319274902 0.32067611813545227051 0.31658270955085754395 0.23093521595001220703 0.12819573283195495605 0.14540529251098632813 0.23530271649360656738 0.28290882706642150879 0.30609080195426940918 0.30642631649971008301 0.31993904709815979004 0.33090180158615112305 0.33157375454902648926 0.34739580750465393066 0.34978607296943664551 0.34391561150550842285 0.34933292865753173828 0.34965294599533081055 0.34686264395713806152 0.27295887470245361328 0.28454867005348205566 0.28732213377952575684 0.23806324601173400879 0.24928347766399383545 0.29894238710403442383 0.31970158219337463379 0.33768734335899353027 0.32880076766014099121 0.31470885872840881348 0.32321825623512268066 
nan 0.34478169679641723633 0.34046724438667297363 0.32746207714080810547 0.32536438107490539551 0.31418538093566894531 0.29103240370750427246 0.27421045303344726563 0.26454094052314758301 0.22999007999897003174 0.21561975777149200439 0.16416162252426147461 0.19884863495826721191 0.25839501619338989258 0.26631915569305419922 0.28652772307395935059 0.32820171117782592773 0.34565812349319458008 0.35276886820793151855 0.37500149011611938477 0.36983251571655273438 0.34813785552978515625 0.33638304471969604492 0.35108077526092529297 0.35768109560012817383 0.34033510088920593262 0.31757205724716186523 0.31104606389999389648 0.33354091644287109375 0.32721036672592163086 0.32119801640510559082 0.32129076123237609863 0.3385830223560333252 0.35230997204780578613 0.34776458144187927246 0.3540547788143157959 0.3573105931282043457 0.35925579071044921875 0.36798325181007385254 0.37479186058044433594 0.37997061014175415039 0.34606626629829406738 0.3366145789623260498 0.35272717475891113281 0.37579068541526794434 0.37900742888450622559 0.38089036941528320313 0.39702758193016052246 0.36543673276901245117 0.33913964033126831055 0.33650639653205871582 0.36217594146728515625 0.38108468055725097656 0.37387329339981079102 0.36494559049606323242 0.37007543444633483887 0.36701464653015136719 0.37234228849411010742 0.35973700881004333496 0.35139241814613342285 0.36368045210838317871 0.36245641112327575684 0.35899007320404052734 0.34462371468544006348 0.35859629511833190918 0.3576615750789642334 0.36856687068939208984 0.37588086724281311035 0.35273796319961547852 0.35419547557830810547 0.35347583889961242676 0.34846130013465881348 0.35859671235084533691 0.35885077714920043945 0.36014080047607421875 0.36898764967918395996 0.37636467814445495605 0.37306058406829833984 0.37043786048889160156 0.36861488223075866699 0.36208176612854003906 0.35272884368896484375 0.34462150931358337402 0.34884294867515563965 0.3632443845272064209 0.37208727002143859863 0.37028649449348449707 0.36688017845153808594 0.36215424537658691406 0.36294901371002197266 0.35224384069442749023 0.36008790135383605957 0.35830521583557128906 0.36449995636940002441 0.34763130545616149902 0.34974905848503112793 0.37438350915908813477 0.37270796298980712891 0.37998551130294799805 0.36451953649520874023 0.33751055598258972168 0.34203034639358520508 0.35316559672355651855 0.36817196011543273926 0.36712157726287841797 0.3665059208869934082 0.36084592342376708984 0.35024821758270263672 0.36542877554893493652 0.37913635373115539551 0.38874703645706176758 0.37503540515899658203 0.36487761139869689941 0.33815562725067138672 0.32471907138824462891 0.32585310935974121094 0.32999825477600097656 0.29969257116317749023 0.30561271309852600098 0.29055643081665039063 0.21670208871364593506 0.1436395496129989624 0.20749413967132568359 0.2835324704647064209 0.34808772802352905273 0.34199345111846923828 0.34292250871658325195 0.35011875629425048828 0.34793591499328613281 0.35557797551155090332 0.33670255541801452637 0.33232474327087402344 0.33608245849609375 0.33543255925178527832 0.34055510163307189941 0.33542552590370178223 0.33578523993492126465 0.34079375863075256348 0.32216030359268188477 0.33141809701919555664 0.3310210108757019043 0.31625837087631225586 0.25629952549934387207 0.14659529924392700195 0.18532341718673706055 0.26248192787170410156 0.27717676758766174316 0.29692909121513366699 0.31829422712326049805 0.32503721117973327637 0.32071816921234130859 0.31566163897514343262 0.33826494216918945313 0.33364599943161010742 0.32570198178291320801 0.3399321436882019043 0.33584314584732055664 0.31468793749809265137 0.29687178134918212891 0.32017877697944641113 0.32833638787269592285 0.32556140422821044922 0.30621138215065002441 0.29920786619186401367 0.33332270383834838867 0.35282269120216369629 0.33804416656494140625 0.30664005875587463379 0.2834122776985168457 
nan 0.33940583467483520508 0.33774331212043762207 0.32198110222816467285 0.32236039638519287109 0.31937861442565917969 0.30960029363632202148 0.26748839020729064941 0.25091752409934997559 0.22830398380756378174 0.21072132885456085205 0.16736301779747009277 0.18201072514057159424 0.23382611572742462158 0.25538837909698486328 0.27917358279228210449 0.29417186975479125977 0.32207131385803222656 0.35127317905426025391 0.36145681142807006836 0.34729942679405212402 0.32095509767532348633 0.32682397961616516113 0.34683349728584289551 0.35001716017723083496 0.33842700719833374023 0.32192161679267883301 0.31406334042549133301 0.33149889111518859863 0.32624030113220214844 0.32176631689071655273 0.33260360360145568848 0.33570104837417602539 0.34087157249450683594 0.34696868062019348145 0.34785386919975280762 0.3508949577808380127 0.35874220728874206543 0.36712121963500976563 0.3745416104793548584 0.38785457611083984375 0.36420869827270507813 0.35830107331275939941 0.36646300554275512695 0.37830758094787597656 0.38539516925811767578 0.38567599654197692871 0.39223262667655944824 0.39395552873611450195 0.36933767795562744141 0.36406707763671875 0.36406758427619934082 0.36270245909690856934 0.36518487334251403809 0.37318155169486999512 0.37597620487213134766 0.3781312406063079834 0.38186311721801757813 0.37703987956047058105 0.3700116276741027832 0.35412645339965820313 0.3516686856746673584 0.3522173464298248291 0.34154555201530456543 0.3511638641357421875 0.35342463850975036621 0.3556149601936340332 0.35843962430953979492 0.31727650761604309082 0.33666759729385375977 0.34106722474098205566 0.33857646584510803223 0.34895682334899902344 0.35377624630928039551 0.34827730059623718262 0.35293936729431152344 0.37054041028022766113 0.37246012687683105469 0.36732241511344909668 0.36806797981262207031 0.36604747176170349121 0.35574766993522644043 0.36006614565849304199 0.36938786506652832031 0.36969161033630371094 0.36846068501472473145 0.35067582130432128906 0.36293461918830871582 0.36690211296081542969 0.36408892273902893066 0.34952017664909362793 0.35871729254722595215 0.36349377036094665527 0.36109751462936401367 0.35312092304229736328 0.35663309693336486816 0.36267119646072387695 0.36464041471481323242 0.36462354660034179688 0.35999786853790283203 0.34760338068008422852 0.35411342978477478027 0.35504630208015441895 0.36387756466865539551 0.37172028422355651855 0.37139269709587097168 0.35603758692741394043 0.34455931186676025391 0.35993325710296630859 0.36825874447822570801 0.37712270021438598633 0.36890164017677307129 0.36199951171875 0.36184903979301452637 0.35288608074188232422 0.33545413613319396973 0.31385847926139831543 0.28786203265190124512 0.26991102099418640137 0.24224269390106201172 0.15525200963020324707 0.16362862288951873779 0.24446609616279602051 0.29478913545608520508 0.33041420578956604004 0.34004619717597961426 0.34682333469390869141 0.35727277398109436035 0.36045658588409423828 0.34918490052223205566 0.32736241817474365234 0.33177077770233154297 0.34006345272064208984 0.33891975879669189453 0.34304633736610412598 0.34717079997062683105 0.34343478083610534668 0.34413048624992370605 0.32484087347984313965 0.32888942956924438477 0.33608546853065490723 0.30959433317184448242 0.2405882030725479126 0.15366291999816894531 0.17900747060775756836 0.27042353153228759766 0.27693551778793334961 0.2985630035400390625 0.32161936163902282715 0.3262824714183807373 0.33698999881744384766 0.3321762382984161377 0.32558596134185791016 0.32672178745269775391 0.33130553364753723145 0.33427128195762634277 0.31145009398460388184 0.25741308927536010742 0.27004918456077575684 0.29430741071701049805 0.33001545071601867676 0.34241011738777160645 0.3250973820686340332 0.30056908726692199707 0.31828537583351135254 0.34947249293327331543 0.33366093039512634277 0.26761141419410705566 0.22024503350257873535 
nan 0.33042740821838378906 0.32860079407691955566 0.31475436687469482422 0.31279695034027099609 0.31099522113800048828 0.31359910964965820313 0.29261898994445800781 0.24799758195877075195 0.23565384745597839355 0.23950693011283874512 0.21146751940250396729 0.18709060549736022949 0.22499026358127593994 0.25212913751602172852 0.2643044888973236084 0.28094804286956787109 0.3068408668041229248 0.32844409346580505371 0.34817412495613098145 0.3486970365047454834 0.31864023208618164063 0.32712122797966003418 0.34446656703948974609 0.34760570526123046875 0.3383108675479888916 0.32999533414840698242 0.31721609830856323242 0.33077675104141235352 0.33048427104949951172 0.33187472820281982422 0.33672472834587097168 0.32883778214454650879 0.32768446207046508789 0.3353290259838104248 0.3443075716495513916 0.3697160184383392334 0.36652708053588867188 0.36465376615524291992 0.3682696223258972168 0.37516877055168151855 0.37399712204933166504 0.36764383316040039063 0.36664065718650817871 0.38759016990661621094 0.39682430028915405273 0.39891913533210754395 0.39520049095153808594 0.40870705246925354004 0.39530855417251586914 0.38629904389381408691 0.36568230390548706055 0.33927178382873535156 0.35346734523773193359 0.3633747398853302002 0.37021869421005249023 0.3771960139274597168 0.37378862500190734863 0.37511172890663146973 0.36966726183891296387 0.36053457856178283691 0.35792714357376098633 0.35569652915000915527 0.35012540221214294434 0.35908174514770507813 0.36271059513092041016 0.35774561762809753418 0.35714375972747802734 0.35461765527725219727 0.3455759882926940918 0.3478278815746307373 0.34815242886543273926 0.35020902752876281738 0.35533735156059265137 0.35621592402458190918 0.3526223301887512207 0.36819800734519958496 0.36481726169586181641 0.36131888628005981445 0.36672493815422058105 0.38068273663520812988 0.3609892427921295166 0.36350262165069580078 0.36314868927001953125 0.3588466346263885498 0.33824488520622253418 0.32441893219947814941 0.35084477066993713379 0.35784041881561279297 0.34503418207168579102 0.34236425161361694336 0.35038742423057556152 0.35979360342025756836 0.35342970490455627441 0.35949289798736572266 0.3665288388729095459 0.35540086030960083008 0.36736279726028442383 0.37566170096397399902 0.3777497708797454834 0.36233824491500854492 0.35630741715431213379 0.33742746710777282715 0.34590378403663635254 0.3596235811710357666 0.37531808018684387207 0.37882557511329650879 0.36506482958793640137 0.36607286334037780762 0.36313390731811523438 0.36534217000007629395 0.3558616936206817627 0.36346891522407531738 0.36944919824600219727 0.36532741785049438477 0.34284141659736633301 0.31920674443244934082 0.29699409008026123047 0.27365323901176452637 0.24643829464912414551 0.17640756070613861084 0.20351217687129974365 0.26804399490356445313 0.32744285464286804199 0.34448394179344177246 0.3286431431770324707 0.29145887494087219238 0.32422110438346862793 0.36076271533966064453 0.35986167192459106445 0.34601244330406188965 0.33304584026336669922 0.34235283732414245605 0.35025423765182495117 0.35431218147277832031 0.35483729839324951172 0.3546657264232635498 0.3552812039852142334 0.34584575891494750977 0.34600389003753662109 0.3400993645191192627 0.30054008960723876953 0.18175598978996276855 0.13199943304061889648 0.20379523932933807373 0.25901114940643310547 0.2630786597728729248 0.27806255221366882324 0.31047350168228149414 0.32802402973175048828 0.34225130081176757813 0.34013658761978149414 0.32498693466186523438 0.33176895976066589355 0.31167328357696533203 0.30004730820655822754 0.2928791046142578125 0.30921384692192077637 0.34648880362510681152 0.34832733869552612305 0.34228044748306274414 0.3467795252799987793 0.34262111783027648926 0.32421272993087768555 0.29050362110137939453 0.31563723087310791016 0.3153533935546875 0.27726751565933227539 0.27058055996894836426 
nan 0.3246084749698638916 0.31266558170318603516 0.32035931944847106934 0.32259085774421691895 0.28061431646347045898 0.23839521408081054688 0.24133911728858947754 0.25022035837173461914 0.25334417819976806641 0.23979082703590393066 0.23364116251468658447 0.22678618133068084717 0.26742574572563171387 0.28882884979248046875 0.28609389066696166992 0.30053821206092834473 0.32106792926788330078 0.3243497312068939209 0.32904168963432312012 0.31676033139228820801 0.31644678115844726563 0.31942722201347351074 0.32568725943565368652 0.33019056916236877441 0.33001276850700378418 0.32302641868591308594 0.31477180123329162598 0.31154844164848327637 0.33543723821640014648 0.34127980470657348633 0.34232601523399353027 0.34533411264419555664 0.34756711125373840332 0.3392651677131652832 0.33926746249198913574 0.36680749058723449707 0.36139217019081115723 0.36336109042167663574 0.37127134203910827637 0.38378086686134338379 0.38718423247337341309 0.39688006043434143066 0.3789768218994140625 0.37403693795204162598 0.37563970685005187988 0.39531862735748291016 0.3950830996036529541 0.38937082886695861816 0.37546482682228088379 0.3714961707592010498 0.3737563788890838623 0.34614795446395874023 0.35147929191589355469 0.36572042107582092285 0.3704439699649810791 0.36649861931800842285 0.36193120479583740234 0.35685911774635314941 0.3541615605354309082 0.3523737788200378418 0.35625195503234863281 0.35772749781608581543 0.35188624262809753418 0.33910930156707763672 0.35720771551132202148 0.35371202230453491211 0.37404528260231018066 0.37327247858047485352 0.35158184170722961426 0.34379366040229797363 0.35025957226753234863 0.34305551648139953613 0.35105970501899719238 0.35933649539947509766 0.36991041898727416992 0.37397274374961853027 0.37050974369049072266 0.35545295476913452148 0.3627344965934753418 0.3776963353157043457 0.36647450923919677734 0.3689906001091003418 0.36361986398696899414 0.36188730597496032715 0.3435306847095489502 0.32821351289749145508 0.34891706705093383789 0.35894918441772460938 0.35301548242568969727 0.34544286131858825684 0.35262382030487060547 0.34718236327171325684 0.34514066576957702637 0.36175808310508728027 0.36969172954559326172 0.36653867363929748535 0.36390990018844604492 0.35825487971305847168 0.36712500452995300293 0.35920166969299316406 0.34879466891288757324 0.33745619654655456543 0.35058063268661499023 0.3710918724536895752 0.37606313824653625488 0.37450730800628662109 0.35603392124176025391 0.36589163541793823242 0.36775431036949157715 0.3654880821704864502 0.36060631275177001953 0.36682596802711486816 0.37131515145301818848 0.37132427096366882324 0.34285426139831542969 0.31548732519149780273 0.29959002137184143066 0.2738685309886932373 0.26584458351135253906 0.2239583134651184082 0.21399760246276855469 0.2861372530460357666 0.33531558513641357422 0.36778151988983154297 0.34237056970596313477 0.30648091435432434082 0.33359706401824951172 0.36565414071083068848 0.36911424994468688965 0.36169421672821044922 0.34344026446342468262 0.34544733166694641113 0.35126268863677978516 0.34341984987258911133 0.33581101894378662109 0.34204202890396118164 0.35422506928443908691 0.35144156217575073242 0.34607607126235961914 0.34053289890289306641 0.30612710118293762207 0.16874374449253082275 0.13056002557277679443 0.22594305872917175293 0.25309723615646362305 0.27463501691818237305 0.28852489590644836426 0.30507287383079528809 0.31322142481803894043 0.32584428787231445313 0.33261612057685852051 0.33243721723556518555 0.3409569859504699707 0.320888519287109375 0.31008601188659667969 0.28125163912773132324 0.33015027642250061035 0.34568491578102111816 0.353969573974609375 0.34513941407203674316 0.34808418154716491699 0.34165397286415100098 0.33257186412811279297 0.30901303887367248535 0.29743587970733642578 0.31964179873466491699 0.31847673654556274414 0.31902527809143066406 
nan 0.33712953329086303711 0.31665250658988952637 0.29592561721801757813 0.2951228022575378418 0.25048094987869262695 0.24671167135238647461 0.23769554495811462402 0.27230829000473022461 0.27865540981292724609 0.24123916029930114746 0.24169482290744781494 0.2595959007740020752 0.29828718304634094238 0.30928239226341247559 0.32708591222763061523 0.32640060782432556152 0.31746757030487060547 0.32048341631889343262 0.33285507559776306152 0.3238404393196105957 0.29697072505950927734 0.28975334763526916504 0.31142497062683105469 0.32278779149055480957 0.32010400295257568359 0.32444834709167480469 0.31118628382682800293 0.28905883431434631348 0.31813761591911315918 0.33950567245483398438 0.33610945940017700195 0.33595329523086547852 0.34298396110534667969 0.33627650141716003418 0.33855992555618286133 0.35527345538139343262 0.355274200439453125 0.35639810562133789063 0.35983365774154663086 0.36399212479591369629 0.38550293445587158203 0.3987852931022644043 0.38826248049736022949 0.39587348699569702148 0.39686667919158935547 0.39622852206230163574 0.38044744729995727539 0.3148657679557800293 0.34566429257392883301 0.35399341583251953125 0.35831111669540405273 0.34997147321701049805 0.35656917095184326172 0.36868491768836975098 0.36878675222396850586 0.3743947148323059082 0.35625374317169189453 0.3367761075496673584 0.34397971630096435547 0.352863311767578125 0.35660117864608764648 0.35851275920867919922 0.35126513242721557617 0.34093338251113891602 0.35671162605285644531 0.36018648743629455566 0.36934900283813476563 0.37605369091033935547 0.36366498470306396484 0.35679355263710021973 0.34830573201179504395 0.3479233086109161377 0.3619524836540222168 0.36249759793281555176 0.37804314494132995605 0.37656378746032714844 0.36625695228576660156 0.3599789738655090332 0.36057126522064208984 0.37183320522308349609 0.37691092491149902344 0.36255764961242675781 0.36095800995826721191 0.36414092779159545898 0.35097455978393554688 0.33208709955215454102 0.34335291385650634766 0.34982338547706604004 0.36026647686958312988 0.36185780167579650879 0.36787113547325134277 0.34588798880577087402 0.31209146976470947266 0.33301466703414916992 0.3498585820198059082 0.36635139584541320801 0.36057564616203308105 0.34048533439636230469 0.3543529212474822998 0.35240390896797180176 0.34379646182060241699 0.34576207399368286133 0.36232602596282958984 0.37019810080528259277 0.38082909584045410156 0.37965643405914306641 0.34098362922668457031 0.35882154107093811035 0.3530807197093963623 0.35224068164825439453 0.35841357707977294922 0.35808405280113220215 0.36135643720626831055 0.36383351683616638184 0.34368360042572021484 0.30589580535888671875 0.29331511259078979492 0.29303371906280517578 0.28628939390182495117 0.23266115784645080566 0.22300091385841369629 0.33352625370025634766 0.37078329920768737793 0.37259438633918762207 0.36826029419898986816 0.36974039673805236816 0.38516035676002502441 0.39747035503387451172 0.3943156898021697998 0.36650827527046203613 0.34625852108001708984 0.34923496842384338379 0.35156109929084777832 0.3401660919189453125 0.34805738925933837891 0.35726696252822875977 0.35115036368370056152 0.33834972977638244629 0.33788478374481201172 0.33821961283683776855 0.31247037649154663086 0.21807649731636047363 0.1263376772403717041 0.18643337488174438477 0.234348297119140625 0.28713661432266235352 0.29860696196556091309 0.31537318229675292969 0.31568637490272521973 0.31033417582511901855 0.31940990686416625977 0.33346462249755859375 0.33996617794036865234 0.31423810124397277832 0.29881227016448974609 0.31350311636924743652 0.34804418683052062988 0.33366033434867858887 0.34058734774589538574 0.35439157485961914063 0.35560020804405212402 0.34701353311538696289 0.34432336688041687012 0.35774335265159606934 0.33055466413497924805 0.34159186482429504395 0.36170646548271179199 0.3552621006965637207 
nan 0.33798682689666748047 0.32238021492958068848 0.28254643082618713379 0.25077682733535766602 0.22235338389873504639 0.25600945949554443359 0.28577402234077453613 0.30257087945938110352 0.29194995760917663574 0.24679133296012878418 0.24644596874713897705 0.23792822659015655518 0.25628414750099182129 0.27410620450973510742 0.3245760798454284668 0.32636556029319763184 0.31860059499740600586 0.31709954142570495605 0.32958191633224487305 0.33465346693992614746 0.31417053937911987305 0.30613729357719421387 0.30012688040733337402 0.30888837575912475586 0.32426285743713378906 0.33077785372734069824 0.31963109970092773438 0.30541843175888061523 0.31594306230545043945 0.34402918815612792969 0.33594229817390441895 0.34476983547210693359 0.34573379158973693848 0.34353223443031311035 0.33537316322326660156 0.34710359573364257813 0.34603703022003173828 0.35897308588027954102 0.35896784067153930664 0.36136892437934875488 0.3915684819221496582 0.39676332473754882813 0.38429710268974304199 0.37807333469390869141 0.39463526010513305664 0.39404714107513427734 0.37647798657417297363 0.31062781810760498047 0.34231108427047729492 0.34562483429908752441 0.34407085180282592773 0.35548669099807739258 0.37175121903419494629 0.37209278345108032227 0.36483153700828552246 0.36682516336441040039 0.36306923627853393555 0.35137835144996643066 0.36368897557258605957 0.35538178682327270508 0.34016549587249755859 0.32666212320327758789 0.34708666801452636719 0.36094614863395690918 0.36647787690162658691 0.37081229686737060547 0.36656707525253295898 0.35233640670776367188 0.356113433837890625 0.35727271437644958496 0.34420982003211975098 0.33850467205047607422 0.34707808494567871094 0.35465922951698303223 0.3611354529857635498 0.36215662956237792969 0.34999838471412658691 0.3529275357723236084 0.36231312155723571777 0.37381371855735778809 0.37273800373077392578 0.35674422979354858398 0.36311507225036621094 0.36747518181800842285 0.36430326104164123535 0.34473633766174316406 0.34348374605178833008 0.34994241595268249512 0.35440731048583984375 0.36042943596839904785 0.37441882491111755371 0.35810524225234985352 0.33678007125854492188 0.34597852826118469238 0.35447394847869873047 0.36180970072746276855 0.36731475591659545898 0.34571617841720581055 0.35353830456733703613 0.3614368438720703125 0.34059169888496398926 0.33875456452369689941 0.3516559302806854248 0.36098304390907287598 0.37894934415817260742 0.37225669622421264648 0.34379288554191589355 0.36364942789077758789 0.3541628718376159668 0.35365998744964599609 0.35741093754768371582 0.35163533687591552734 0.348308563232421875 0.34737592935562133789 0.33737385272979736328 0.30652570724487304688 0.28833946585655212402 0.28679865598678588867 0.27353557944297790527 0.17785635590553283691 0.22328346967697143555 0.35849323868751525879 0.38803604245185852051 0.36820149421691894531 0.37300702929496765137 0.41471081972122192383 0.43928384780883789063 0.41956543922424316406 0.39377966523170471191 0.36872220039367675781 0.35742914676666259766 0.35796874761581420898 0.34896895289421081543 0.34382492303848266602 0.34309986233711242676 0.35661271214485168457 0.34764176607131958008 0.34321573376655578613 0.33936187624931335449 0.34064516425132751465 0.33330929279327392578 0.26639589667320251465 0.14287655055522918701 0.17055054008960723877 0.26602640748023986816 0.33640751242637634277 0.32622310519218444824 0.31958106160163879395 0.30375549197196960449 0.30518051981925964355 0.30450934171676635742 0.30723088979721069336 0.28899538516998291016 0.2577533423900604248 0.25721704959869384766 0.32151570916175842285 0.34053429961204528809 0.33436101675033569336 0.34024405479431152344 0.3335927128791809082 0.33367186784744262695 0.34863641858100891113 0.36726164817810058594 0.36979410052299499512 0.34020593762397766113 0.34441232681274414063 0.35944387316703796387 0.36674344539642333984 
nan 0.32631599903106689453 0.3335100710391998291 0.30915224552154541016 0.27885010838508605957 0.25832134485244750977 0.29758062958717346191 0.32277435064315795898 0.31579512357711791992 0.32371366024017333984 0.30187910795211791992 0.23413361608982086182 0.2041088789701461792 0.22734615206718444824 0.23629270493984222412 0.31274163722991943359 0.32552832365036010742 0.32158300280570983887 0.31894725561141967773 0.31210294365882873535 0.31916895508766174316 0.31966736912727355957 0.31594228744506835938 0.30755227804183959961 0.30969831347465515137 0.32011377811431884766 0.31452330946922302246 0.30971181392669677734 0.31460103392601013184 0.32629829645156860352 0.34083190560340881348 0.34579354524612426758 0.35692501068115234375 0.35002863407135009766 0.35353434085845947266 0.34950292110443115234 0.33767542243003845215 0.34286022186279296875 0.3661670684814453125 0.36598798632621765137 0.35694512724876403809 0.36513429880142211914 0.37854766845703125 0.37794959545135498047 0.37499728798866271973 0.3869189918041229248 0.38366258144378662109 0.38226264715194702148 0.37154078483581542969 0.36114037036895751953 0.36157807707786560059 0.3491586148738861084 0.34839868545532226563 0.35866224765777587891 0.3590901494026184082 0.3590075373649597168 0.35983952879905700684 0.36235079169273376465 0.36376026272773742676 0.35442912578582763672 0.34325644373893737793 0.32885628938674926758 0.31348261237144470215 0.34356534481048583984 0.35417157411575317383 0.35734108090400695801 0.35138350725173950195 0.32975882291793823242 0.3293984532356262207 0.34384450316429138184 0.3539664149284362793 0.34520539641380310059 0.3414096534252166748 0.35908588767051696777 0.35802900791168212891 0.35939276218414306641 0.3571631312370300293 0.34795576333999633789 0.35459315776824951172 0.35993945598602294922 0.36369079351425170898 0.35463771224021911621 0.36012327671051025391 0.36587983369827270508 0.36039963364601135254 0.36057943105697631836 0.36224275827407836914 0.34236094355583190918 0.35591292381286621094 0.36308348178863525391 0.35999286174774169922 0.36791393160820007324 0.36858889460563659668 0.34747993946075439453 0.34956407546997070313 0.3521721959114074707 0.35566189885139465332 0.3688036501407623291 0.35193520784378051758 0.35578897595405578613 0.36038723587989807129 0.36140510439872741699 0.35316202044486999512 0.35350081324577331543 0.3566646575927734375 0.37394854426383972168 0.37004879117012023926 0.35724797844886779785 0.35470500588417053223 0.35469782352447509766 0.35995149612426757813 0.36061960458755493164 0.35455542802810668945 0.34676900506019592285 0.34025692939758300781 0.32552587985992431641 0.30858212709426879883 0.29567384719848632813 0.27400368452072143555 0.22094884514808654785 0.13841287791728973389 0.24630913138389587402 0.35719785094261169434 0.37498423457145690918 0.3594971001148223877 0.34651401638984680176 0.37503945827484130859 0.41190600395202636719 0.4079990684986114502 0.38228580355644226074 0.3761170506477355957 0.36603191494941711426 0.35654032230377197266 0.35070762038230895996 0.34583562612533569336 0.34650599956512451172 0.35717859864234924316 0.35778939723968505859 0.34841126203536987305 0.34339731931686401367 0.33243829011917114258 0.32427963614463806152 0.26785436272621154785 0.14520362019538879395 0.15182213485240936279 0.27575027942657470703 0.34483358263969421387 0.33282640576362609863 0.3238926231861114502 0.30525660514831542969 0.2958113253116607666 0.27429541945457458496 0.26455378532409667969 0.25143224000930786133 0.25957760214805603027 0.26388278603553771973 0.30458757281303405762 0.3204765617847442627 0.33569899201393127441 0.34223008155822753906 0.33416056632995605469 0.32833617925643920898 0.35801342129707336426 0.37312349677085876465 0.36149993538856506348 0.33574855327606201172 0.33809435367584228516 0.34808120131492614746 0.35780566930770874023 
nan 0.34150433540344238281 0.35031527280807495117 0.32735726237297058105 0.30436941981315612793 0.27139151096343994141 0.29219302535057067871 0.30991911888122558594 0.30876323580741882324 0.32852315902709960938 0.32493323087692260742 0.26661822199821472168 0.22752454876899719238 0.25620773434638977051 0.3062267005443572998 0.32595813274383544922 0.32468217611312866211 0.32208546996116638184 0.33194255828857421875 0.32513374090194702148 0.31403112411499023438 0.31761181354522705078 0.31937173008918762207 0.30981978774070739746 0.30953502655029296875 0.31128165125846862793 0.29575565457344055176 0.28279638290405273438 0.28769230842590332031 0.32794085144996643066 0.34183704853057861328 0.3609173893928527832 0.35193946957588195801 0.34275925159454345703 0.34520456194877624512 0.35140302777290344238 0.34213584661483764648 0.34773373603820800781 0.36391749978065490723 0.37453240156173706055 0.3576373755931854248 0.3584403693675994873 0.36525312066078186035 0.34867104887962341309 0.36661434173583984375 0.37466546893119812012 0.36269685626029968262 0.3687832951545715332 0.36834877729415893555 0.33837547898292541504 0.32893922924995422363 0.33728310465812683105 0.34900397062301635742 0.35327386856079101563 0.35594776272773742676 0.35743758082389831543 0.36670446395874023438 0.36838671565055847168 0.36646249890327453613 0.36203840374946594238 0.3462346196174621582 0.32293662428855895996 0.31449747085571289063 0.32155746221542358398 0.33174043893814086914 0.33471304178237915039 0.3320439755916595459 0.30361318588256835938 0.32899820804595947266 0.36163547635078430176 0.35977223515510559082 0.3256092369556427002 0.33877706527709960938 0.35366731882095336914 0.34236374497413635254 0.34705650806427001953 0.35283476114273071289 0.35369268059730529785 0.3503844141960144043 0.34745958447456359863 0.35070449113845825195 0.35419383645057678223 0.35532966256141662598 0.35500803589820861816 0.35187169909477233887 0.34634432196617126465 0.36542785167694091797 0.35505187511444091797 0.36779305338859558105 0.37427017092704772949 0.34995937347412109375 0.35639452934265136719 0.36242163181304931641 0.35534548759460449219 0.35234150290489196777 0.35959258675575256348 0.36312204599380493164 0.36835747957229614258 0.36471524834632873535 0.3627726435661315918 0.35954871773719787598 0.37150737643241882324 0.35541608929634094238 0.35934120416641235352 0.36090624332427978516 0.36616036295890808105 0.34675630927085876465 0.3539587855339050293 0.33808559179306030273 0.34471437335014343262 0.34286072850227355957 0.33957719802856445313 0.34789460897445678711 0.34763956069946289063 0.35569006204605102539 0.3426265418529510498 0.32564124464988708496 0.29501938819885253906 0.24951358139514923096 0.18097551167011260986 0.18591284751892089844 0.29802823066711425781 0.34651300311088562012 0.33208733797073364258 0.31101304292678833008 0.26366272568702697754 0.32275855541229248047 0.36312329769134521484 0.37793278694152832031 0.38102492690086364746 0.39389157295227050781 0.37228122353553771973 0.34867233037948608398 0.34297952055931091309 0.33928629755973815918 0.34453433752059936523 0.37067112326622009277 0.37030372023582458496 0.35227125883102416992 0.33268511295318603516 0.31892552971839904785 0.3111019134521484375 0.24922598898410797119 0.15152567625045776367 0.11640170961618423462 0.27440407872200012207 0.33687323331832885742 0.33425694704055786133 0.31573557853698730469 0.30935505032539367676 0.29443404078483581543 0.26086354255676269531 0.27371311187744140625 0.24532009661197662354 0.26885569095611572266 0.30116987228393554688 0.31360697746276855469 0.32887193560600280762 0.35808786749839782715 0.34866693615913391113 0.3389784693717956543 0.36750003695487976074 0.37485140562057495117 0.36102369427680969238 0.34357160329818725586 0.32388141751289367676 0.33028325438499450684 0.33795025944709777832 0.32717368006706237793 
nan 0.24326148629188537598 0.238317146897315979 0.22840081155300140381 0.21278029680252075195 0.18290017545223236084 0.18976396322250366211 0.20162178575992584229 0.20306079089641571045 0.20106120407581329346 0.1857592165470123291 0.17191587388515472412 0.16988292336463928223 0.17871747910976409912 0.20659047365188598633 0.21488313376903533936 0.21769277751445770264 0.21650031208992004395 0.2233098447322845459 0.21700900793075561523 0.21571686863899230957 0.21593841910362243652 0.21401098370552062988 0.21201631426811218262 0.21489782631397247314 0.21090301871299743652 0.20128859579563140869 0.200464591383934021 0.19969668984413146973 0.21969896554946899414 0.22952188551425933838 0.23556822538375854492 0.23478621244430541992 0.2321125417947769165 0.23281967639923095703 0.23488084971904754639 0.23370561003684997559 0.2314446568489074707 0.24470348656177520752 0.24813798069953918457 0.24708138406276702881 0.25708624720573425293 0.26149314641952514648 0.25798410177230834961 0.25891593098640441895 0.25226256251335144043 0.24099534749984741211 0.24556960165500640869 0.24220010638236999512 0.22486029565334320068 0.21962392330169677734 0.22652015089988708496 0.25032031536102294922 0.3400357365608215332 0.35506764054298400879 0.36235278844833374023 0.36890122294425964355 0.36090782284736633301 0.35463026165962219238 0.35867875814437866211 0.34576112031936645508 0.32190665602684020996 0.3340803980827331543 0.32828068733215332031 0.33910542726516723633 0.34797698259353637695 0.34122198820114135742 0.30921447277069091797 0.32637095451354980469 0.36513549089431762695 0.36959671974182128906 0.33676925301551818848 0.34599637985229492188 0.35571762919425964355 0.34662061929702758789 0.34838271141052246094 0.36141237616539001465 0.3673648536205291748 0.35468843579292297363 0.34856843948364257813 0.35558354854583740234 0.3577105402946472168 0.35609549283981323242 0.35107180476188659668 0.3529796302318572998 0.34467944502830505371 0.35784947872161865234 0.3652788698673248291 0.37357452511787414551 0.36592966318130493164 0.34758669137954711914 0.35559740662574768066 0.35892173647880554199 0.35228416323661804199 0.34826302528381347656 0.34942093491554260254 0.37333983182907104492 0.3662662506103515625 0.36465811729431152344 0.36587536334991455078 0.36596786975860595703 0.37150070071220397949 0.36370447278022766113 0.35609757900238037109 0.36446893215179443359 0.36635249853134155273 0.36164391040802001953 0.35545259714126586914 0.33011353015899658203 0.34528848528861999512 0.35292777419090270996 0.34314683079719543457 0.3409862816333770752 0.35261052846908569336 0.36251401901245117188 0.34935867786407470703 0.32350203394889831543 0.29956418275833129883 0.24753859639167785645 0.16671000421047210693 0.21302773058414459229 0.29771965742111206055 0.34031209349632263184 0.32294288277626037598 0.24998930096626281738 0.17358599603176116943 0.22489599883556365967 0.28244405984878540039 0.32715010643005371094 0.35820457339286804199 0.36059901118278503418 0.33849427103996276855 0.31905448436737060547 0.31464135646820068359 0.32266446948051452637 0.3354460299015045166 0.3506419062614440918 0.3514531552791595459 0.3454068601131439209 0.34570929408073425293 0.33255609869956970215 0.31535178422927856445 0.24190385639667510986 0.14747606217861175537 0.11175511777400970459 0.26341259479522705078 0.32791674137115478516 0.32109019160270690918 0.30143028497695922852 0.28497180342674255371 0.2840550541877746582 0.25549113750457763672 0.28099355101585388184 0.28973928093910217285 0.30736634135246276855 0.3157043755054473877 0.31889128684997558594 0.3441969454288482666 0.35949400067329406738 0.35499969124794006348 0.34071025252342224121 0.3575947880744934082 0.35760566592216491699 0.35106867551803588867 0.34259501099586486816 0.3295535743236541748 0.33188393712043762207 0.3203792572021484375 0.31907418370246887207 
nan nan nan nan nan nan nan nan nan nan nan nan nan nan nan nan nan nan nan nan nan nan nan nan nan nan nan nan nan nan nan nan nan nan nan nan nan nan nan nan nan nan nan nan nan nan nan nan nan nan nan nan nan nan nan nan nan nan nan nan nan nan nan nan nan nan nan nan nan nan nan nan nan nan nan nan nan nan nan nan nan nan nan nan nan nan nan nan nan nan nan nan nan nan nan nan nan nan nan nan nan nan nan nan nan nan nan nan nan nan nan nan nan nan nan nan nan nan nan nan nan nan nan nan nan nan nan nan nan nan nan nan nan nan nan nan nan nan nan nan nan nan nan nan nan nan nan nan nan nan nan nan nan nan nan nan nan nan nan nan nan nan nan nan nan nan nan nan nan 
